<?xml version="1.0" encoding="UTF-8"?>
<map version="1.4" tiledversion="1.4.3" orientation="orthogonal" renderorder="right-down" width="20" height="20" tilewidth="16" tileheight="16" infinite="0" nextlayerid="18" nextobjectid="66">
 <properties>
  <property name="AmbientLight" value="95 95 95"/>
  <property name="DayTiles" value="Front 12 2 256 Front 12 3 288 Front 14 2 256 Front 14 3 288 Front 15 2 256 Front 15 3 288 Front 17 2 256 Front 17 3 288"/>
  <property name="NightTiles" value="Front 12 2 1253 Front 12 3 1285 Front 14 2 1253 Front 14 3 1285 Front 15 2 1253 Front 15 3 1285 Front 17 2 1253 Front 17 3 1285"/>
  <property name="Warp" value="9 19 Custom_RedPandaBazaar 53 52 10 19 Custom_RedPandaBazaar 54 52"/>
 </properties>
 <tileset firstgid="1" name="LiLaoliu's Tilesheets" tilewidth="16" tileheight="16" tilecount="1325" columns="25">
  <image source="LiLaoliu_RedPandaBazaar_Tilesheets.png" width="400" height="848"/>
 </tileset>
 <tileset firstgid="1326" name="paths" tilewidth="16" tileheight="16" tilecount="36" columns="4">
  <image source="paths.png" width="64" height="144"/>
 </tileset>
 <tileset firstgid="1362" name="townInterior" tilewidth="16" tileheight="16" tilecount="2176" columns="32">
  <image source="townInterior.png" width="512" height="1088"/>
 </tileset>
 <tileset firstgid="3538" name="Vanilla_RedPandaBazaar_Shadows" tilewidth="16" tileheight="16" tilecount="475" columns="19">
  <image source="Vanilla_RedPandaBazaar_Shadows.png" width="304" height="400"/>
 </tileset>
 <tileset firstgid="4013" name="LiLaoliu_RedPandaBazaar_Tilesheets5" tilewidth="16" tileheight="16" tilecount="1050" columns="25">
  <image source="LiLaoliu_RedPandaBazaar_Tilesheets5.png" width="400" height="672"/>
 </tileset>
 <tileset firstgid="5063" name="townInterior_2" tilewidth="16" tileheight="16" tilecount="1312" columns="32">
  <image source="townInterior_2.png" width="512" height="656"/>
 </tileset>
 <tileset firstgid="6375" name="walls_and_floors" tilewidth="16" tileheight="16" tilecount="688" columns="16">
  <image source="walls_and_floors.png" width="256" height="688"/>
 </tileset>
 <layer id="2" name="Back" width="20" height="20">
  <data encoding="csv">
0,0,0,0,0,0,0,0,0,0,0,0,0,0,0,0,0,0,0,0,
0,0,0,0,0,0,0,0,0,0,0,0,0,0,0,0,0,0,0,0,
0,0,0,0,0,0,0,0,0,0,0,0,6137,6137,6137,6137,6137,6137,0,0,
0,0,0,0,0,0,0,0,0,0,0,0,6169,6169,6169,6169,6169,6169,0,0,
0,0,0,0,0,0,0,0,0,0,0,0,6201,6201,6201,6201,6201,6201,0,0,
0,0,0,0,0,0,0,0,0,0,0,0,6721,6722,6721,6721,6721,6722,0,0,
0,0,0,0,0,0,0,0,0,0,0,0,6721,6722,6721,6721,6721,6722,0,0,
0,0,0,0,0,0,0,0,0,0,0,0,6737,6738,6721,6722,6737,6738,0,0,
0,0,0,0,0,0,0,0,0,0,0,0,0,0,6737,6738,0,0,0,0,
0,0,0,6137,520,520,6137,6137,6137,6137,6137,6137,6137,6137,6721,6722,6137,0,0,0,
0,0,6137,6169,517,517,6169,6169,6169,6169,6169,6169,6169,6169,6721,6722,6169,6137,0,0,
0,0,6169,6201,6721,6722,6201,6201,6201,6201,6201,6201,6201,6201,6721,6722,6201,6169,0,0,
0,0,6201,6737,6737,6738,6721,6722,6721,6722,6721,6721,6721,6722,6721,6721,6722,6201,0,0,
0,0,6721,6721,6721,6722,6737,6738,6721,6722,6721,6737,6721,6722,6721,6721,6721,6722,0,0,
0,0,6737,6737,6737,6738,6721,6722,6721,6722,6721,6722,6721,6722,6721,6721,6721,6722,0,0,
0,0,6721,6721,6721,6722,6737,6738,6721,6722,6721,6722,6721,6722,6721,6721,6721,6722,0,0,
0,0,6737,6737,6737,6738,6721,6722,6721,6722,6721,6722,6721,6722,6721,6721,6721,6722,0,0,
0,0,6721,6721,6721,6722,6721,6722,6721,6722,6721,6722,6721,6722,6721,6721,6737,6738,0,0,
0,769,0,6737,6737,6738,6737,6738,6721,6722,6721,6722,6737,6738,6737,6737,6738,0,0,770,
0,0,528,6737,528,528,6137,528,6737,6738,6737,6738,0,0,0,0,0,528,0,0
</data>
 </layer>
 <layer id="11" name="Back2" width="20" height="20">
  <data encoding="csv">
0,0,0,0,0,0,0,0,0,0,0,0,0,0,0,0,0,0,0,0,
0,0,0,0,0,0,0,0,0,0,0,0,0,0,0,0,0,0,0,0,
0,0,0,0,0,0,0,0,0,0,0,0,0,0,0,0,0,0,0,0,
0,0,0,0,0,0,0,0,0,0,0,0,0,0,0,0,0,0,0,0,
0,0,0,0,0,0,0,0,0,0,0,0,0,0,0,0,0,0,0,0,
0,0,0,0,0,0,0,0,0,0,0,0,0,0,0,0,0,0,0,0,
0,0,0,0,0,0,0,0,0,0,0,0,0,0,0,0,0,0,0,0,
0,0,0,0,0,0,0,0,0,0,0,0,0,0,0,0,0,0,0,0,
0,0,0,0,0,0,0,0,0,0,0,0,0,0,0,0,0,0,0,0,
0,0,0,0,0,0,0,0,0,0,0,0,0,0,0,0,0,0,0,0,
0,0,0,0,0,0,0,0,0,0,0,0,0,0,0,0,0,0,0,0,
0,0,0,0,0,0,0,0,0,0,0,0,0,0,0,0,0,0,0,0,
0,0,0,0,0,0,0,4701,4702,4703,4702,4703,4704,0,0,0,0,0,0,0,
0,0,0,0,0,0,0,4726,4727,4728,4727,4728,4729,0,0,0,0,0,0,0,
0,0,0,0,0,0,0,4726,4727,4728,4727,4728,4729,0,0,0,0,0,0,0,
0,0,0,0,0,0,0,4751,4752,4753,4752,4753,4754,0,0,0,0,0,0,0,
0,0,0,0,0,0,0,0,0,0,0,0,0,0,0,0,0,0,0,0,
0,0,0,0,0,0,0,0,0,0,0,0,0,0,0,0,0,0,0,0,
0,0,0,0,0,0,0,0,4705,4706,4707,4708,0,0,0,0,0,0,0,0,
0,0,0,0,0,0,0,0,4730,4731,4732,4733,0,0,0,0,0,0,0,0
</data>
 </layer>
 <layer id="13" name="Back3" width="20" height="20">
  <data encoding="csv">
0,0,0,0,0,0,0,0,0,0,0,0,0,0,0,0,0,0,0,0,
0,0,0,0,0,0,0,0,0,0,0,0,0,0,0,0,0,0,0,0,
0,0,0,0,0,0,0,0,0,0,0,0,0,0,0,0,0,0,0,0,
0,0,0,0,0,0,0,0,0,0,0,0,0,0,0,0,0,0,0,0,
0,0,0,0,0,0,0,0,0,0,0,0,0,0,0,0,0,0,0,0,
0,0,0,0,0,0,0,0,0,0,0,0,3603,3603,3603,3603,3603,3622,0,0,
0,0,0,0,0,0,0,0,0,0,0,0,0,0,0,0,0,3581,0,0,
0,0,0,0,0,0,0,0,0,0,0,0,0,0,0,0,0,3581,0,0,
0,0,0,0,0,0,0,0,0,0,0,0,0,0,0,0,0,0,0,0,
0,0,0,0,0,0,0,0,0,0,0,0,0,0,3600,3600,0,0,0,0,
0,0,0,0,0,0,0,0,0,0,0,0,0,0,3633,3633,0,0,0,0,
0,0,0,0,3603,3622,0,0,0,0,0,0,0,0,3599,3622,0,0,0,0,
0,0,0,3585,0,3563,3603,3603,3603,3603,3603,3603,3603,3604,0,3563,3622,0,0,0,
0,0,3633,0,0,0,3562,0,0,0,0,0,3638,0,0,0,3581,3633,0,0,
0,0,3633,0,0,0,3581,3633,3633,3633,3633,3633,3633,0,0,0,3581,3633,0,0,
0,0,3633,0,0,0,3563,3638,3638,3638,3638,3638,3639,0,0,0,3581,3633,0,0,
0,0,3633,0,0,0,0,0,0,0,0,0,0,0,0,0,3581,3633,0,0,
0,0,3633,0,0,0,0,0,0,0,0,0,0,0,0,0,3581,3633,0,0,
0,0,0,0,0,0,0,0,0,0,0,0,0,0,0,0,0,3581,0,0,
0,0,0,0,0,0,0,0,0,3596,3596,0,0,0,0,0,0,0,0,0
</data>
 </layer>
 <layer id="15" name="Back4" width="20" height="20">
  <data encoding="csv">
0,0,0,0,0,0,0,0,0,0,0,0,0,0,0,0,0,0,0,0,
0,0,0,0,0,0,0,0,0,0,0,0,0,0,0,0,0,0,0,0,
0,0,0,0,0,0,0,0,0,0,0,0,0,0,0,0,0,0,0,0,
0,0,0,0,0,0,0,0,0,0,0,0,0,0,0,0,0,0,0,0,
0,0,0,0,0,0,0,0,0,0,0,0,0,0,0,0,0,0,0,0,
0,0,0,0,0,0,0,0,0,0,0,0,3735,3735,3735,3735,3735,3735,0,0,
0,0,0,0,0,0,0,0,0,0,0,0,0,0,0,0,0,0,0,0,
0,0,0,0,0,0,0,0,0,0,0,0,0,0,0,0,0,0,0,0,
0,0,0,0,0,0,0,0,0,0,0,0,0,0,0,0,0,0,0,0,
0,0,0,0,0,0,0,0,0,0,0,0,0,0,2147487363,3696,0,0,0,0,
0,0,0,0,0,0,0,0,0,0,0,0,0,0,2147487363,3715,0,0,0,0,
0,0,0,0,0,3715,0,0,0,0,0,0,0,0,2147487363,3715,0,0,0,0,
0,0,0,2147487363,0,3734,3735,3735,3735,3735,3735,3735,3735,3735,2147487382,3734,3715,0,0,0,
0,0,3633,2147487363,0,0,0,0,0,0,0,0,0,0,0,0,3715,3633,0,0,
0,0,3633,2147487363,0,0,0,0,0,0,0,0,0,0,0,0,3715,3633,0,0,
0,0,3633,2147487363,0,0,0,0,0,0,0,0,0,0,0,0,3715,3633,0,0,
0,0,3633,2147487363,0,0,0,0,0,0,0,0,0,0,0,0,3715,3633,0,0,
0,0,3633,2147487363,0,0,0,0,0,0,0,0,0,0,0,0,3715,3633,0,0,
0,0,0,0,0,0,0,0,0,0,0,0,0,0,0,0,0,0,0,0,
0,0,0,0,0,0,0,0,0,0,0,0,0,0,0,0,0,0,0,0
</data>
 </layer>
 <layer id="16" name="Back5" width="20" height="20">
  <data encoding="csv">
0,0,0,0,0,0,0,0,0,0,0,0,0,0,0,0,0,0,0,0,
0,0,0,0,0,0,0,0,0,0,0,0,0,0,0,0,0,0,0,0,
0,0,0,0,0,0,0,0,0,0,0,0,0,0,0,0,0,0,0,0,
0,0,0,0,0,0,0,0,0,0,0,0,0,0,0,0,0,0,0,0,
0,0,0,0,0,0,0,0,0,0,0,0,0,0,0,0,0,0,0,0,
0,0,0,0,0,0,0,0,0,0,0,0,0,0,0,0,0,0,0,0,
0,0,0,0,0,0,0,0,0,0,0,0,0,0,0,0,0,0,0,0,
0,0,0,0,0,0,0,0,0,0,0,0,0,0,0,0,0,0,0,0,
0,0,0,0,0,0,0,0,0,0,0,0,0,0,0,0,0,0,0,0,
0,0,0,0,0,0,0,0,0,0,0,0,0,0,0,0,0,0,0,0,
0,0,0,0,0,0,0,0,0,0,0,0,0,0,0,0,0,0,0,0,
0,0,0,0,0,0,0,0,0,0,0,0,0,0,0,0,0,0,0,0,
0,0,0,0,0,0,0,0,0,0,0,0,0,0,0,0,0,0,0,0,
0,0,0,0,0,0,0,0,0,0,0,0,0,0,0,0,0,0,0,0,
0,0,0,0,0,0,0,0,0,0,0,0,0,0,0,0,0,0,0,0,
0,0,0,0,0,0,0,0,0,0,0,0,0,0,0,0,0,0,0,0,
0,0,0,0,0,0,0,0,0,0,0,0,0,0,0,0,0,0,0,0,
0,0,0,0,0,0,0,0,0,0,0,0,0,0,0,0,0,0,0,0,
0,0,0,0,0,0,0,0,0,0,0,0,0,0,0,0,0,0,0,0,
0,0,0,0,0,0,0,0,0,0,0,0,0,0,0,0,0,0,0,0
</data>
 </layer>
 <layer id="4" name="Buildings" width="20" height="20">
  <data encoding="csv">
78,78,78,78,78,78,78,78,78,78,78,78,78,78,78,78,78,78,78,78,
78,78,78,78,78,78,78,78,78,78,78,30,28,28,28,28,28,28,59,78,
78,78,78,78,78,78,78,78,78,78,78,77,0,0,0,0,0,0,79,78,
78,78,78,78,78,78,78,78,78,78,78,77,0,0,0,0,0,0,79,78,
78,78,78,78,78,78,78,78,78,78,78,77,853,853,853,853,853,853,79,78,
78,78,78,78,78,78,78,78,78,78,78,77,0,0,0,0,0,0,79,78,
78,78,78,78,78,78,78,78,78,78,78,77,0,0,0,0,0,0,79,78,
78,78,78,78,78,78,78,78,78,78,78,52,0,0,0,0,0,0,104,78,
78,78,55,28,28,28,28,28,28,28,28,28,28,28,0,0,28,59,78,78,
78,55,29,829,0,0,827,829,0,0,0,0,827,829,0,0,827,27,59,78,
78,77,829,829,517,517,827,829,0,0,0,0,827,829,0,0,827,827,79,78,
78,77,829,854,0,0,852,854,853,853,853,853,852,854,0,0,852,827,79,78,
78,77,854,0,0,0,0,0,5463,4618,4619,0,0,0,0,0,5464,852,79,78,
78,77,4574,0,0,0,0,4133,0,0,0,0,4135,0,0,0,0,4572,79,78,
78,77,4583,0,4575,4577,0,4603,4604,4605,4605,4606,4607,0,4575,4577,0,4558,79,78,
78,77,4583,0,4575,4577,0,0,0,0,0,0,0,0,4575,4577,0,4558,79,78,
78,77,4583,0,4600,4602,0,0,0,0,0,0,0,0,4600,4602,0,4558,79,78,
78,102,4599,0,0,0,0,0,0,0,0,0,0,0,0,0,0,4597,54,78,
78,78,77,4633,4633,4633,4633,4633,4585,0,0,4572,4633,4633,4633,4633,4633,79,78,78,
78,78,180,182,182,182,182,182,183,0,0,181,182,182,182,182,182,184,78,78
</data>
 </layer>
 <layer id="14" name="Buildings2" width="20" height="20">
  <data encoding="csv">
0,0,0,0,0,0,0,0,0,0,0,0,0,0,0,0,0,0,0,0,
0,0,0,0,0,0,0,0,0,0,0,0,0,0,0,0,0,0,0,0,
0,0,0,0,0,0,0,0,0,0,0,0,0,0,0,0,0,0,0,0,
0,0,0,0,0,0,0,0,0,0,0,0,0,0,0,0,0,0,0,0,
0,0,0,0,0,0,0,0,0,0,0,0,0,0,0,0,0,0,0,0,
0,0,0,0,0,0,0,0,0,0,0,0,0,0,0,0,0,0,0,0,
0,0,0,0,0,0,0,0,0,0,0,0,0,0,0,0,0,0,0,0,
0,0,0,0,0,0,0,0,0,0,0,0,0,0,0,0,0,0,0,0,
0,0,0,0,0,0,0,0,0,0,0,0,0,0,0,0,0,0,0,0,
0,0,0,0,0,0,0,0,0,0,0,0,0,0,0,0,0,0,0,0,
0,0,0,0,0,0,0,0,0,0,0,0,0,0,0,0,0,0,0,0,
0,0,0,0,0,0,0,0,0,0,0,0,0,0,0,0,0,0,0,0,
0,0,0,0,0,0,0,0,0,0,0,0,0,0,0,0,0,0,0,0,
0,0,0,0,0,0,0,0,0,0,0,2037,0,0,0,0,0,0,0,0,
0,0,0,0,0,0,0,0,0,0,0,0,0,0,0,0,0,0,0,0,
0,0,0,0,0,0,0,0,0,0,0,0,0,0,0,0,0,0,0,0,
0,0,0,0,0,0,0,0,0,0,0,0,0,0,0,0,0,0,0,0,
0,0,0,0,0,0,0,0,0,0,0,0,0,0,0,0,0,0,0,0,
0,0,0,0,0,0,0,0,0,0,0,0,0,0,0,0,0,0,0,0,
0,0,0,0,0,0,0,0,0,0,0,0,0,0,0,0,0,0,0,0
</data>
 </layer>
 <layer id="5" name="Paths" width="20" height="20">
  <data encoding="csv">
0,0,0,0,0,0,0,0,0,0,0,0,0,0,0,0,0,0,0,0,
0,0,0,0,0,0,0,0,0,0,0,0,0,0,0,0,0,0,0,0,
0,0,0,0,0,0,0,0,0,0,0,0,0,0,0,0,0,0,0,0,
0,0,0,0,0,0,0,0,0,0,0,0,1334,0,1334,1334,0,1334,0,0,
0,0,0,0,0,0,0,0,0,0,0,0,0,0,0,0,0,0,0,0,
0,0,0,0,0,0,0,0,0,0,0,0,0,0,0,0,0,0,0,0,
0,0,0,0,0,0,0,0,0,0,0,0,0,0,0,0,0,0,0,0,
0,0,0,0,0,0,0,0,0,0,0,0,0,0,0,0,0,0,0,0,
0,0,0,0,0,0,0,0,0,0,0,0,0,0,0,0,0,0,0,0,
0,0,0,0,0,0,0,0,0,0,0,0,0,0,0,0,0,0,0,0,
0,0,0,0,0,0,0,0,0,0,0,0,0,0,0,0,0,0,0,0,
0,0,0,0,0,0,0,0,0,0,0,0,0,0,0,0,0,0,0,0,
0,0,0,0,1334,1334,0,1334,1334,0,0,1334,1334,0,1334,1334,0,0,0,0,
0,0,0,0,1334,1334,0,1334,1334,0,0,1334,1334,0,1334,1334,0,0,0,0,
0,0,0,0,0,0,0,0,0,0,0,0,0,0,0,0,0,0,0,0,
0,0,0,0,0,0,0,0,0,0,0,0,0,0,0,0,0,0,0,0,
0,0,0,0,1334,1334,0,1334,1334,0,0,1334,1334,0,1334,1334,0,0,0,0,
0,0,0,0,1334,1334,0,1334,1334,0,0,1334,1334,0,1334,1334,0,0,0,0,
0,0,0,0,0,0,0,0,0,0,0,0,0,0,0,0,0,0,0,0,
0,0,0,0,0,0,0,0,0,0,0,0,0,0,0,0,0,0,0,0
</data>
 </layer>
 <layer id="3" name="Front" width="20" height="20">
  <data encoding="csv">
0,0,0,0,0,0,0,0,0,0,0,0,0,0,0,0,0,0,0,0,
0,0,0,0,0,0,0,0,0,0,0,0,0,0,0,0,0,0,0,0,
0,0,0,0,0,0,0,0,0,0,0,0,1587,0,1587,1587,0,1587,0,0,
0,0,0,0,0,0,0,0,0,0,0,0,1619,0,1619,1619,0,1619,0,0,
0,0,0,0,0,0,0,0,0,0,0,0,0,0,0,0,0,0,0,0,
0,0,0,0,0,0,0,0,0,0,0,0,0,0,0,0,0,0,0,0,
0,0,0,0,0,0,0,0,0,0,0,0,0,0,0,0,0,0,0,0,
0,0,0,0,0,0,0,0,0,0,0,0,131,131,0,0,131,131,0,0,
0,0,0,0,0,0,0,0,0,0,0,0,0,0,0,0,0,0,0,0,
0,0,0,0,0,0,5355,5356,0,0,0,0,5325,5326,0,0,0,0,0,0,
0,0,0,0,0,0,5387,5388,0,0,0,0,5357,5358,0,0,0,0,0,0,
0,0,0,0,0,0,0,0,5431,4593,4594,0,0,0,0,0,5432,0,0,0,
0,0,4549,0,0,0,0,4108,0,0,0,0,4110,0,0,0,0,4547,0,0,
0,0,0,0,4550,4552,0,0,4134,4134,4134,4134,0,0,4550,4552,0,0,0,0,
0,0,0,0,0,0,0,0,0,0,0,0,0,0,0,0,0,0,0,0,
0,0,0,0,0,0,0,0,0,0,0,0,0,0,0,0,0,0,0,0,
0,0,0,0,0,0,0,0,0,0,0,0,0,0,0,0,0,0,0,0,
0,0,129,4608,4608,4608,4608,4608,4560,0,0,4547,4608,4608,4608,4608,4608,128,0,0,
0,0,0,0,0,0,0,0,0,0,0,0,0,0,0,0,0,0,0,0,
0,0,0,0,0,0,0,0,0,103,103,0,0,0,0,0,0,0,0,0
</data>
 </layer>
 <layer id="17" name="Front2" width="20" height="20">
  <data encoding="csv">
0,0,0,0,0,0,0,0,0,0,0,0,0,0,0,0,0,0,0,0,
0,0,0,0,0,0,0,0,0,0,0,0,0,0,0,0,0,0,0,0,
0,0,0,0,0,0,0,0,0,0,0,0,0,0,0,0,0,0,0,0,
0,0,0,0,0,0,0,0,0,0,0,0,0,0,0,0,0,0,0,0,
0,0,0,0,0,0,0,0,0,0,0,0,0,0,0,0,0,0,0,0,
0,0,0,0,0,0,0,0,0,0,0,0,0,0,0,0,0,0,0,0,
0,0,0,0,0,0,0,0,0,0,0,0,0,0,0,0,0,0,0,0,
0,0,0,0,0,0,0,0,0,0,0,0,0,0,0,0,0,0,0,0,
0,0,0,0,0,0,0,0,0,0,0,0,0,0,0,0,0,0,0,0,
0,0,0,0,0,0,0,0,0,0,0,0,0,0,0,0,0,0,0,0,
0,0,0,0,0,0,0,0,0,0,0,0,0,0,0,0,0,0,0,0,
0,0,0,0,0,0,0,0,0,0,0,0,0,0,0,0,0,0,0,0,
0,0,0,0,0,0,0,0,0,0,0,0,0,0,0,0,0,0,0,0,
0,0,0,0,0,0,0,0,0,0,2037,0,0,0,0,0,0,0,0,0,
0,0,0,0,0,0,0,0,0,0,0,0,0,0,0,0,0,0,0,0,
0,0,0,0,0,0,0,0,0,0,0,0,0,0,0,0,0,0,0,0,
0,0,0,0,0,0,0,0,0,0,0,0,0,0,0,0,0,0,0,0,
0,0,0,0,0,0,0,0,0,0,0,0,0,0,0,0,0,0,0,0,
0,0,0,0,0,0,0,0,0,0,0,0,0,0,0,0,0,0,0,0,
0,0,0,0,0,0,0,0,0,0,0,0,0,0,0,0,0,0,0,0
</data>
 </layer>
 <layer id="1" name="AlwaysFront" width="20" height="20">
  <data encoding="csv">
0,0,0,0,0,0,0,0,0,0,0,0,0,0,0,0,0,0,0,0,
0,0,0,0,0,0,0,0,0,0,0,0,0,0,0,0,0,0,0,0,
0,0,0,0,0,0,0,0,0,0,0,0,0,0,0,0,0,0,0,0,
0,0,0,0,0,0,0,0,0,0,0,0,0,0,0,0,0,0,0,0,
0,0,0,0,0,0,0,0,0,0,0,0,0,0,0,0,0,0,0,0,
0,0,0,0,0,0,0,0,0,0,0,0,0,0,0,0,0,0,0,0,
0,0,0,0,0,0,0,0,0,0,0,0,0,0,0,0,0,0,0,0,
0,0,0,0,0,0,0,0,0,0,0,0,0,0,53,53,0,0,0,0,
0,0,0,0,0,0,0,0,0,0,0,0,0,0,28,28,0,0,0,0,
0,0,0,0,0,0,0,0,0,0,0,0,0,0,0,0,0,0,0,0,
0,0,0,0,0,0,0,0,5399,0,0,0,0,0,0,0,5400,0,0,0,
0,0,0,0,0,0,0,0,0,0,0,0,0,0,0,0,0,0,0,0,
0,0,0,0,0,0,0,0,0,0,0,0,0,0,0,0,0,0,0,0,
0,0,0,0,0,0,0,0,0,0,0,0,0,0,0,0,0,0,0,0,
0,0,0,0,0,0,0,0,0,0,0,0,0,0,0,0,0,0,0,0,
0,0,0,0,0,0,0,0,0,0,0,0,0,0,0,0,0,0,0,0,
0,0,0,0,0,0,0,0,0,0,0,0,0,0,0,0,0,0,0,0,
0,0,0,0,0,0,0,0,0,0,0,0,0,0,0,0,0,0,0,0,
0,0,0,0,0,0,0,0,0,0,0,0,0,0,0,0,0,0,0,0,
0,0,0,0,0,0,0,0,0,0,0,0,0,0,0,0,0,0,0,0
</data>
 </layer>
 <objectgroup id="10" name="Back"/>
 <objectgroup id="12" name="Back2"/>
 <objectgroup id="9" name="Buildings">
  <object id="42" name="TileData" x="32" y="208" width="16" height="16">
   <properties>
    <property name="Action" value="RedPandaBazaar_PlayerStall_1"/>
   </properties>
  </object>
  <object id="46" name="TileData" x="160" y="224" width="16" height="16">
   <properties>
    <property name="Action" value="RedPandaBazaar_PlayerStallSettlement"/>
   </properties>
  </object>
  <object id="47" name="TileData" x="32" y="224" width="16" height="16">
   <properties>
    <property name="Action" value="RedPandaBazaar_PlayerStall_2"/>
   </properties>
  </object>
  <object id="48" name="TileData" x="32" y="240" width="16" height="16">
   <properties>
    <property name="Action" value="RedPandaBazaar_PlayerStall_3"/>
   </properties>
  </object>
  <object id="49" name="TileData" x="32" y="256" width="16" height="16">
   <properties>
    <property name="Action" value="RedPandaBazaar_PlayerStall_4"/>
   </properties>
  </object>
  <object id="50" name="TileData" x="64" y="288" width="16" height="16">
   <properties>
    <property name="Action" value="RedPandaBazaar_PlayerStall_6"/>
   </properties>
  </object>
  <object id="51" name="TileData" x="48" y="288" width="16" height="16">
   <properties>
    <property name="Action" value="RedPandaBazaar_PlayerStall_5"/>
   </properties>
  </object>
  <object id="52" name="TileData" x="80" y="288" width="16" height="16">
   <properties>
    <property name="Action" value="RedPandaBazaar_PlayerStall_7"/>
   </properties>
  </object>
  <object id="53" name="TileData" x="96" y="288" width="16" height="16">
   <properties>
    <property name="Action" value="RedPandaBazaar_PlayerStall_8"/>
   </properties>
  </object>
  <object id="54" name="TileData" x="112" y="288" width="16" height="16">
   <properties>
    <property name="Action" value="RedPandaBazaar_PlayerStall_9"/>
   </properties>
  </object>
  <object id="55" name="TileData" x="128" y="288" width="16" height="16">
   <properties>
    <property name="Action" value="RedPandaBazaar_PlayerStall_10"/>
   </properties>
  </object>
  <object id="56" name="TileData" x="176" y="288" width="16" height="16">
   <properties>
    <property name="Action" value="RedPandaBazaar_PlayerStall_11"/>
   </properties>
  </object>
  <object id="57" name="TileData" x="192" y="288" width="16" height="16">
   <properties>
    <property name="Action" value="RedPandaBazaar_PlayerStall_12"/>
   </properties>
  </object>
  <object id="58" name="TileData" x="208" y="288" width="16" height="16">
   <properties>
    <property name="Action" value="RedPandaBazaar_PlayerStall_13"/>
   </properties>
  </object>
  <object id="59" name="TileData" x="224" y="288" width="16" height="16">
   <properties>
    <property name="Action" value="RedPandaBazaar_PlayerStall_14"/>
   </properties>
  </object>
  <object id="60" name="TileData" x="240" y="288" width="16" height="16">
   <properties>
    <property name="Action" value="RedPandaBazaar_PlayerStall_15"/>
   </properties>
  </object>
  <object id="61" name="TileData" x="256" y="288" width="16" height="16">
   <properties>
    <property name="Action" value="RedPandaBazaar_PlayerStall_16"/>
   </properties>
  </object>
  <object id="62" name="TileData" x="272" y="256" width="16" height="16">
   <properties>
    <property name="Action" value="RedPandaBazaar_PlayerStall_17"/>
   </properties>
  </object>
  <object id="63" name="TileData" x="272" y="240" width="16" height="16">
   <properties>
    <property name="Action" value="RedPandaBazaar_PlayerStall_18"/>
   </properties>
  </object>
  <object id="64" name="TileData" x="272" y="224" width="16" height="16">
   <properties>
    <property name="Action" value="RedPandaBazaar_PlayerStall_19"/>
   </properties>
  </object>
  <object id="65" name="TileData" x="272" y="208" width="16" height="16">
   <properties>
    <property name="Action" value="RedPandaBazaar_PlayerStall_20"/>
   </properties>
  </object>
 </objectgroup>
 <objectgroup id="8" name="Paths"/>
 <objectgroup id="7" name="Front"/>
 <objectgroup id="6" name="AlwaysFront"/>
</map>
