<?xml version="1.0" encoding="UTF-8"?>
<map version="1.4" tiledversion="1.4.3" orientation="orthogonal" renderorder="right-down" width="59" height="36" tilewidth="16" tileheight="16" infinite="0" nextlayerid="19" nextobjectid="342">
 <properties>
  <property name="AmbientLight" value="95 95 95"/>
  <property name="DayTiles" value="Front 4 1 225 Front 4 2 257 Front 7 1 225 Front 7 2 257 Front 10 1 225 Front 10 2 257 Front 26 1 225 Front 26 2 257 Front 29 1 225 Front 29 2 257 Front 32 1 225 Front 32 2 257 Front 48 1 225 Front 48 2 257 Front 51 1 225 Front 51 2 257 Front 54 1 225 Front 54 2 257 Front 4 22 1344 Front 10 22 1344 Front 15 22 1344 Front 18 22 1344 Front 21 22 1344 Front 26 22 1344 Front 32 22 1344 Front 37 22 1344 Front 43 22 1344 Front 48 22 1344 Front 54 22 1344"/>
  <property name="Doors" value="10 11 1 120 32 11 1 120 7 22 1 120 29 22 1 120 54 11 1 120 51 22 1 120"/>
  <property name="FloorIDs" value="Floor"/>
  <property name="NPCWarp" value="39 21 Custom_RedPandaBazaar.10.19 1 3 40 21 Custom_RedPandaBazaar.22.19 1 3"/>
  <property name="NightTiles" value="Front 4 1 1222 Front 4 2 1254 Front 7 1 1222 Front 7 2 1254 Front 10 1 1222 Front 10 2 1254 Front 26 1 1222 Front 26 2 1254 Front 29 1 1222 Front 29 2 1254 Front 32 1 1222 Front 32 2 1254 Front 48 1 1222 Front 48 2 1254 Front 51 1 1222 Front 51 2 1254 Front 54 1 1222 Front 54 2 1254 Front 4 22 1345 Front 10 22 1345 Front 15 22 1345 Front 18 22 1345 Front 21 22 1345 Front 26 22 1345 Front 32 22 1345 Front 37 22 1345 Front 43 22 1345 Front 48 22 1345 Front 54 22 1345"/>
  <property name="WallIDs" value="Wall"/>
  <property name="Warp" value="7 29 Custom_RedPandaBazaar 10 20 29 29 Custom_RedPandaBazaar 22 20 51 29 Custom_RedPandaBazaar 34 20 39 21 Custom_RedPandaBazaar.Building1.2 39 22 40 21 Custom_RedPandaBazaar.Building1.2 40 22 41 21 Custom_RedPandaBazaar.Building1.2 41 22"/>
 </properties>
 <tileset firstgid="1" name="LiLaoliu's Tilesheets" tilewidth="16" tileheight="16" tilecount="1325" columns="25">
  <image source="LiLaoliu_RedPandaBazaar_Tilesheets.png" width="400" height="848"/>
 </tileset>
 <tileset firstgid="1326" name="paths" tilewidth="16" tileheight="16" tilecount="36" columns="4">
  <image source="paths.png" width="64" height="144"/>
 </tileset>
 <tileset firstgid="1362" name="townInterior" tilewidth="16" tileheight="16" tilecount="2176" columns="32">
  <image source="townInterior.png" width="512" height="1088"/>
 </tileset>
 <tileset firstgid="3538" name="Vanilla_RedPandaBazaar_Shadows" tilewidth="16" tileheight="16" tilecount="475" columns="19">
  <image source="Vanilla_RedPandaBazaar_Shadows.png" width="304" height="400"/>
 </tileset>
 <tileset firstgid="4013" name="Vanilla_RedPandaBazaar_walls_and_floors" tilewidth="16" tileheight="16" tilecount="688" columns="16">
  <image source="Vanilla_RedPandaBazaar_walls_and_floors.png" width="256" height="688"/>
 </tileset>
 <tileset firstgid="4701" name="LiLaoliu_RedPandaBazaar_Tilesheets5" tilewidth="16" tileheight="16" tilecount="1150" columns="25">
  <image source="LiLaoliu_RedPandaBazaar_Tilesheets5.png" width="400" height="736"/>
 </tileset>
 <tileset firstgid="5851" name="townInterior_2" tilewidth="16" tileheight="16" tilecount="1312" columns="32">
  <image source="townInterior_2.png" width="512" height="656"/>
  <tile id="1218">
   <animation>
    <frame tileid="1218" duration="125"/>
    <frame tileid="1218" duration="125"/>
    <frame tileid="1218" duration="125"/>
    <frame tileid="1218" duration="125"/>
    <frame tileid="1219" duration="125"/>
    <frame tileid="1219" duration="125"/>
    <frame tileid="1219" duration="125"/>
    <frame tileid="1219" duration="125"/>
    <frame tileid="1220" duration="125"/>
    <frame tileid="1220" duration="125"/>
    <frame tileid="1220" duration="125"/>
    <frame tileid="1220" duration="125"/>
    <frame tileid="1220" duration="125"/>
    <frame tileid="1220" duration="125"/>
    <frame tileid="1220" duration="125"/>
    <frame tileid="1220" duration="125"/>
    <frame tileid="1219" duration="125"/>
    <frame tileid="1219" duration="125"/>
    <frame tileid="1219" duration="125"/>
    <frame tileid="1219" duration="125"/>
    <frame tileid="1218" duration="125"/>
    <frame tileid="1218" duration="125"/>
    <frame tileid="1218" duration="125"/>
   </animation>
  </tile>
  <tile id="1250">
   <animation>
    <frame tileid="1250" duration="125"/>
    <frame tileid="1250" duration="125"/>
    <frame tileid="1250" duration="125"/>
    <frame tileid="1250" duration="125"/>
    <frame tileid="1251" duration="125"/>
    <frame tileid="1251" duration="125"/>
    <frame tileid="1251" duration="125"/>
    <frame tileid="1251" duration="125"/>
    <frame tileid="1252" duration="125"/>
    <frame tileid="1252" duration="125"/>
    <frame tileid="1252" duration="125"/>
    <frame tileid="1252" duration="125"/>
    <frame tileid="1252" duration="125"/>
    <frame tileid="1252" duration="125"/>
    <frame tileid="1252" duration="125"/>
    <frame tileid="1252" duration="125"/>
    <frame tileid="1251" duration="125"/>
    <frame tileid="1251" duration="125"/>
    <frame tileid="1251" duration="125"/>
    <frame tileid="1251" duration="125"/>
    <frame tileid="1250" duration="125"/>
    <frame tileid="1250" duration="125"/>
    <frame tileid="1250" duration="125"/>
    <frame tileid="1250" duration="125"/>
   </animation>
  </tile>
 </tileset>
 <tileset firstgid="7163" name="LiLaoliu_RedPandaBazaar_Tilesheets7" tilewidth="16" tileheight="16" tilecount="546" columns="26">
  <image source="LiLaoliu_RedPandaBazaar_Tilesheets7.png" width="416" height="336"/>
 </tileset>
 <tileset firstgid="7709" name="LiLaoliu_RedPandaBazaar_Tilesheets6" tilewidth="16" tileheight="16" tilecount="3458" columns="26">
  <image source="LiLaoliu_RedPandaBazaar_Tilesheets6.png" width="416" height="2128"/>
 </tileset>
 <tileset firstgid="11167" name="LiLaoliu_RedPandaBazaar_Tilesheets3" tilewidth="16" tileheight="16" tilecount="1950" columns="25">
  <image source="LiLaoliu_RedPandaBazaar_Tilesheets3.png" width="400" height="1248"/>
 </tileset>
 <tileset firstgid="13117" name="Vanilla_RedPandaBazaar_furniture_3" tilewidth="16" tileheight="16" tilecount="351" columns="13">
  <image source="Vanilla_RedPandaBazaar_furniture_3.png" width="208" height="432"/>
 </tileset>
 <tileset firstgid="13468" name="Vanilla_RedPandaBazaar_furniture" tilewidth="16" tileheight="16" tilecount="2976" columns="32">
  <image source="Vanilla_RedPandaBazaar_furniture.png" width="512" height="1488"/>
 </tileset>
 <tileset firstgid="16444" name="LiLaoliu_RedPandaBazaar_Tilesheets2" tilewidth="16" tileheight="16" tilecount="1500" columns="25">
  <image source="LiLaoliu_RedPandaBazaar_Tilesheets2.png" width="400" height="960"/>
 </tileset>
 <tileset firstgid="17944" name="floors_2" tilewidth="16" tileheight="16" tilecount="64" columns="16">
  <image source="floors_2.png" width="256" height="64"/>
 </tileset>
 <tileset firstgid="18008" name="wallpapers_2" tilewidth="16" tileheight="16" tilecount="96" columns="16">
  <image source="wallpapers_2.png" width="256" height="96"/>
 </tileset>
 <layer id="2" name="Back" width="59" height="36">
  <data encoding="csv">
0,0,0,0,0,0,0,0,0,0,0,0,0,0,0,0,0,0,0,0,0,0,0,0,0,0,0,0,0,0,0,0,0,0,0,0,0,0,0,0,0,0,0,0,0,0,0,0,0,0,0,0,0,0,0,0,0,0,0,
0,0,0,18013,18013,18013,18013,18013,18013,18013,18013,18013,0,0,0,0,0,0,0,0,0,0,0,0,0,4212,4212,4212,4212,4212,4212,4212,4212,4212,0,0,0,0,0,0,0,0,0,0,0,0,0,4209,4209,4209,4209,4209,4209,4209,4209,4209,0,0,0,
0,0,18013,18029,18029,18029,18029,18029,18029,18029,18029,18029,18013,0,0,0,0,0,0,0,0,0,1138,1139,4262,4228,4228,4228,4228,4228,4228,4228,1334,4228,4262,0,0,0,0,0,0,0,0,0,0,0,4209,4225,4225,4225,4225,4225,4225,4225,4225,4225,4209,0,0,
0,0,18029,18045,18045,18045,18045,18045,18045,18045,18045,18045,18029,0,0,0,0,0,0,0,0,0,1063,1064,4278,4244,4244,4244,4244,4244,4244,4244,4244,4244,4278,0,0,0,0,0,0,0,0,0,0,0,4225,4241,4241,4241,4241,4241,4241,4241,4241,4241,4225,0,0,
0,4647,18045,767,768,767,768,767,768,767,768,767,18045,767,0,0,0,0,0,0,0,0,1088,773,4294,4618,4617,4618,4617,4618,4617,4618,4617,4618,4294,0,0,0,0,0,0,0,0,0,0,0,4241,4484,4483,4484,4483,4484,4483,4484,4483,4484,4241,4484,0,
0,4663,743,742,743,742,743,742,743,742,743,742,743,742,0,0,0,0,0,0,0,0,0,798,4633,4634,4633,4634,4633,4634,4633,4634,4633,4634,4633,4634,0,0,0,0,0,0,0,0,0,0,4499,4500,4499,4500,4499,4500,4499,4500,4499,4500,4499,4500,0,
0,0,768,767,768,767,768,767,768,767,768,767,768,767,0,0,0,0,0,0,0,0,0,773,4617,4618,4617,4618,4617,4618,4617,4618,4617,4618,4617,4618,0,0,0,0,0,0,0,0,0,4511,4483,4484,4483,4484,4483,4484,4483,4484,4483,4484,4483,4484,0,
0,0,743,742,743,742,743,742,743,742,743,742,743,742,0,0,0,0,0,0,0,0,0,798,4633,4634,4633,4634,4633,4634,4633,4634,4633,4634,4633,4634,0,0,0,0,0,0,0,0,0,4527,4499,4500,4499,4500,4499,4500,4499,4500,4499,4500,4499,4500,0,
0,0,4563,4564,4563,4564,4563,4564,4563,4564,768,4564,4563,0,0,0,0,0,0,0,0,0,0,0,0,0,0,0,0,0,0,0,4617,0,0,0,0,0,0,0,0,0,0,0,0,0,4563,4564,4563,4564,4563,4564,4563,4564,4483,4564,4563,0,0,
0,0,4547,6925,6925,6925,6925,6925,6925,6925,743,6925,1140,0,0,0,0,0,0,0,0,0,0,1138,1139,4113,4113,4113,4113,4113,4113,4113,4633,4113,1138,1139,0,0,0,0,0,0,0,0,0,0,4547,4210,4210,4210,4210,4210,4210,4210,4499,4210,1140,0,0,
0,0,6925,6957,6957,6957,6957,6957,6957,6957,768,6957,6925,0,0,0,0,0,0,0,0,0,1138,1139,4110,4129,4129,4129,4129,4129,4129,4129,4617,4129,4110,0,0,0,0,0,0,0,0,0,0,4026,4210,4226,4226,4226,4226,4226,4226,4226,4483,4226,4210,0,0,
0,0,6957,6989,6989,6989,6989,6989,6989,6989,743,6989,6957,0,0,0,0,0,0,0,0,0,1063,1064,4126,4145,4145,4145,4145,4145,4145,4145,4633,4145,4126,0,0,0,0,0,0,0,0,0,0,4042,4226,4242,4242,4242,4242,4242,4242,4242,4499,4242,4226,0,0,
0,0,6957,4361,4361,4361,4361,4361,4361,773,772,773,6957,773,0,0,0,0,0,0,0,0,1088,4618,4142,4618,4617,4618,4617,4618,4617,4618,4617,4618,4142,0,0,0,0,0,0,0,0,0,0,4484,4242,4484,4483,4484,4483,4484,4483,4484,4483,4484,4242,0,0,
0,0,4361,4361,4361,4361,4361,4361,4361,798,797,798,797,798,0,0,0,0,0,0,0,0,0,4634,4633,4634,4633,4634,4633,4634,4633,4634,4633,4634,4633,742,0,0,0,0,0,0,0,0,0,4500,4499,4500,4499,4500,4499,4500,4499,4500,4499,4500,4499,0,0,
0,0,4361,4361,4361,4361,4361,4361,4361,773,772,773,772,773,0,0,0,0,0,0,0,0,0,4618,4617,4618,4617,4618,4617,4618,4617,4618,4617,4618,4617,767,0,0,0,0,0,0,0,0,0,4484,4483,4484,4483,4484,4483,4484,4483,4484,4483,4484,4483,0,0,
0,0,4361,4361,4361,4361,4361,4361,4361,798,797,798,797,798,0,0,0,0,0,0,0,0,0,4634,4633,4634,4633,4634,4633,4634,4633,4634,4633,4634,4633,742,0,0,0,0,0,0,0,0,0,4500,4499,4500,4499,4500,4499,4500,4499,4500,4499,4500,4499,0,0,
0,0,772,773,772,773,772,773,772,773,772,773,772,0,0,0,0,0,0,0,0,0,0,4618,4617,4618,4617,4618,4617,4618,4617,4618,4617,4618,4617,767,0,0,0,0,0,0,0,0,0,4484,4483,4484,4483,4484,4483,4484,4483,4484,4483,4484,4483,0,0,
0,0,797,798,797,798,797,798,797,798,797,798,797,0,0,0,0,0,0,0,0,0,0,4634,4633,4634,4633,4634,4633,4634,4633,4634,4633,4634,4633,742,0,0,0,0,0,0,0,0,0,4500,4499,4500,4499,4500,4499,4500,4499,4500,4499,4500,4499,0,0,
0,0,772,773,772,773,772,773,772,773,772,773,772,0,0,0,0,0,0,0,0,0,0,4618,4617,4618,4617,4618,4617,4618,4617,4618,4617,4618,4617,767,0,0,0,0,0,0,0,0,0,4484,4483,4484,4483,4484,4483,4484,4483,4484,4483,4484,4483,0,0,
0,0,797,798,797,798,797,798,797,798,797,798,797,0,0,0,0,0,0,0,0,0,0,4634,4633,4634,4633,4634,4633,4634,4633,4634,4633,4634,4633,0,0,0,0,0,0,0,0,0,0,4500,4499,4500,4499,4500,4499,4500,4499,4500,4499,4500,4499,0,0,
0,0,0,0,0,4564,4359,773,4359,4564,0,0,0,0,0,0,0,0,0,0,0,0,0,0,0,768,767,768,768,4618,767,768,4617,768,767,0,0,0,0,0,0,0,0,0,0,0,0,0,0,4564,768,4484,768,4564,4483,0,0,0,0,
0,0,0,1138,1139,1140,970,798,970,1138,1139,1140,1140,1138,1138,1139,1140,1138,1139,1140,1138,1139,1140,0,0,1138,1139,1140,970,4634,970,1138,1139,1140,0,0,1138,1139,1140,520,520,520,1138,1139,1140,0,0,1138,1139,1140,970,4500,970,1138,1139,1140,0,0,0,
0,1139,1140,1063,1064,1065,995,773,995,1063,1064,1065,1139,1140,1063,1064,1065,1063,1064,1065,1063,1064,1065,1139,1140,1063,1064,1065,995,4618,995,1063,1064,1065,1138,1139,1063,1064,1065,517,517,517,1063,1064,1065,1139,1140,1063,1064,1065,995,4484,995,1063,1064,1065,1138,0,0,
0,1064,1065,1088,1089,1090,797,798,797,1088,1089,1090,1064,1065,1088,1089,1090,1088,1089,1090,1088,1089,1090,1064,1065,1088,1089,1090,4633,4634,4633,1088,1089,1090,1063,1064,1088,1089,1090,772,773,772,1088,1089,1090,1064,1065,1088,1089,1090,4499,4500,4499,1088,1089,1090,1063,0,0,
0,1089,1090,517,517,517,517,517,517,517,517,517,1089,1090,517,517,517,517,517,517,517,517,517,1089,1090,517,517,517,517,517,517,517,517,517,1088,1089,517,517,517,517,517,517,517,517,517,1089,1090,517,517,517,517,517,517,517,517,517,1088,0,0,
0,772,773,772,773,772,773,772,773,772,773,772,773,772,773,772,773,772,773,772,773,772,773,772,773,772,773,772,773,772,773,772,773,772,772,772,773,772,773,772,773,772,773,772,773,772,773,772,773,772,773,772,773,772,773,772,773,0,0,
0,797,798,797,798,797,798,797,798,797,798,797,798,797,798,797,798,797,798,797,798,797,798,797,798,797,798,797,798,797,798,797,798,797,797,797,798,797,798,797,798,797,798,797,798,797,798,797,798,797,798,797,798,797,798,797,798,0,0,
0,772,773,772,773,772,773,772,773,772,773,772,773,772,773,772,773,772,773,772,773,772,773,772,773,772,773,772,773,772,773,772,773,772,772,772,773,772,773,772,773,772,773,772,773,772,773,772,773,772,773,772,773,772,773,772,773,0,0,
0,797,798,797,798,797,798,797,798,797,798,797,798,797,798,797,798,797,798,797,798,797,798,797,798,797,798,797,798,797,798,797,798,797,797,797,798,797,798,797,798,797,798,797,798,797,798,797,798,797,798,797,798,797,798,797,798,0,0,
0,0,0,0,0,0,0,770,0,0,0,0,0,0,0,0,0,0,0,0,0,0,0,0,0,0,0,0,0,772,0,0,0,0,0,0,0,0,0,0,0,0,0,0,0,0,0,0,0,0,0,770,0,0,0,0,0,0,0,
0,0,0,0,0,0,0,0,0,0,0,0,0,0,0,0,0,0,0,0,0,0,0,0,0,0,0,0,0,0,0,0,0,0,0,0,0,0,0,0,0,0,0,0,0,0,0,0,0,0,0,0,0,0,0,0,0,0,0,
0,0,0,0,0,0,0,0,0,0,0,0,0,0,0,0,0,0,0,0,0,0,0,0,0,0,0,0,0,0,0,0,0,0,0,0,0,0,0,0,0,0,0,0,0,0,0,0,0,0,0,0,0,0,0,0,0,0,0,
0,0,0,0,0,0,0,0,0,0,0,0,0,0,0,0,0,0,0,0,0,0,0,0,0,0,0,0,0,0,0,0,0,0,0,0,0,0,0,0,0,0,0,0,0,0,0,0,0,0,0,0,0,0,0,0,0,0,0,
0,0,0,0,0,0,0,0,0,0,0,0,0,0,0,0,0,0,0,0,0,0,0,0,0,0,0,0,0,0,0,0,0,0,0,0,0,0,0,0,0,0,0,0,0,0,0,0,0,0,0,0,0,0,0,0,0,0,0,
0,0,0,0,0,0,0,0,0,0,0,0,0,0,0,0,0,0,0,0,0,0,0,0,0,0,0,0,0,0,0,0,0,0,0,0,0,0,0,0,0,0,0,0,0,0,0,0,0,0,0,0,0,0,0,0,0,0,0,
0,0,0,0,0,0,0,0,0,0,0,0,0,0,0,0,0,0,0,0,0,0,0,0,0,0,0,0,0,0,0,0,0,0,0,0,0,0,0,0,0,0,0,0,0,0,0,0,0,0,0,0,0,0,0,0,0,0,0
</data>
 </layer>
 <layer id="11" name="Back2" width="59" height="36">
  <data encoding="csv">
0,0,0,0,0,0,0,0,0,0,0,0,0,0,0,0,0,0,0,0,0,0,0,0,0,0,0,0,0,0,0,0,0,0,0,0,0,0,0,0,0,0,0,0,0,0,0,0,0,0,0,0,0,0,0,0,0,0,0,
0,0,0,0,0,0,0,0,0,0,0,0,0,0,0,0,0,0,0,0,0,0,0,0,0,0,0,0,0,0,0,0,0,0,0,0,0,0,0,0,0,0,0,0,0,0,0,0,0,0,0,0,0,0,0,0,0,0,0,
0,0,0,0,0,0,0,0,0,0,0,0,0,0,0,0,0,0,0,0,0,0,0,0,0,0,0,0,0,0,0,0,0,0,0,0,0,0,0,0,0,0,0,0,0,0,0,0,0,0,0,0,0,0,0,0,0,0,0,
0,0,0,0,0,0,0,0,0,0,0,0,0,0,0,0,0,0,0,0,0,0,0,0,0,0,0,0,0,0,0,0,0,0,0,0,0,0,0,0,0,0,0,0,0,0,0,0,0,0,0,0,0,0,0,0,0,0,0,
0,0,0,0,0,0,0,0,16266,16267,16268,16269,0,0,0,0,0,0,0,0,0,0,0,0,0,0,0,0,0,0,0,0,0,0,0,0,0,0,0,0,0,0,0,0,0,0,0,0,0,0,0,0,0,0,0,0,0,0,0,
0,0,0,0,14919,14920,14921,0,16298,16299,16300,16301,0,0,0,0,0,0,0,0,0,0,0,0,0,0,0,0,0,0,0,0,0,0,0,0,0,0,0,0,0,0,0,0,0,0,0,14924,14925,14926,0,0,0,0,0,0,0,0,0,
0,0,0,0,14951,14952,14953,0,16330,16331,16332,16333,0,0,0,0,0,0,0,0,0,0,0,0,0,0,0,0,0,0,0,0,0,0,0,0,0,0,0,0,0,0,0,0,0,0,0,14956,14957,14958,0,0,0,15956,15957,15958,0,0,0,
0,0,0,0,0,0,0,0,0,0,0,0,0,0,0,0,0,0,0,0,0,0,0,0,0,0,0,0,0,0,0,0,0,0,0,0,0,0,0,0,0,0,0,0,0,0,0,0,0,0,0,0,0,15988,15989,15990,0,0,0,
0,0,0,0,0,0,0,0,0,0,0,0,0,0,0,0,0,0,0,0,0,0,0,0,0,0,0,0,0,0,0,0,0,0,0,0,0,0,0,0,0,0,0,0,0,0,0,0,0,0,0,0,0,0,0,0,0,0,0,
0,0,0,0,0,0,0,6527,0,0,0,0,0,0,0,0,0,0,0,0,0,0,0,0,0,0,0,0,0,0,0,0,0,0,0,0,0,0,0,0,0,0,0,0,0,0,0,0,0,0,0,0,0,0,0,0,0,0,0,
0,0,0,0,0,0,0,0,0,0,0,0,0,0,0,0,0,0,0,0,0,0,0,0,0,0,0,0,0,0,0,0,0,0,0,0,0,0,0,0,0,0,0,0,0,0,0,0,0,0,0,0,0,0,0,0,0,0,0,
0,0,0,0,0,0,0,0,0,0,832,0,0,0,0,0,0,0,0,0,0,0,0,0,0,0,0,0,0,0,0,0,0,0,0,0,0,0,0,0,0,0,0,0,0,0,0,0,0,0,0,0,0,0,0,0,0,0,0,
0,0,0,0,0,0,0,0,829,0,0,0,0,0,0,0,0,0,0,0,0,0,0,0,0,0,0,0,0,0,0,0,0,0,0,0,0,0,0,0,0,0,0,0,0,0,0,0,0,0,0,0,0,0,0,0,0,0,0,
0,0,0,0,0,0,0,0,829,0,0,0,0,0,0,0,0,0,0,0,0,0,0,0,0,0,0,0,0,0,0,0,0,0,0,0,0,0,0,0,0,0,0,0,0,0,0,0,0,0,0,0,0,0,0,0,0,0,0,
0,0,0,0,0,0,0,0,829,0,0,0,0,0,0,0,0,0,0,0,0,0,0,0,0,0,0,0,0,0,0,0,0,0,0,0,0,0,0,0,0,0,0,0,0,0,0,16258,16259,16260,16261,0,0,0,0,0,0,0,0,
0,0,832,832,832,832,832,832,854,0,0,0,0,0,0,0,0,0,0,0,0,0,0,0,0,0,0,0,0,0,0,0,0,0,0,0,0,0,0,0,0,0,0,0,0,0,0,16290,16291,16292,16293,0,0,0,0,0,0,0,0,
0,0,0,0,0,0,0,0,0,0,0,0,0,0,0,0,0,0,0,0,0,0,0,0,0,0,0,0,0,0,0,0,0,0,0,0,0,0,0,0,0,0,0,0,0,0,0,16322,16323,16324,16325,0,0,0,15449,15450,0,0,0,
0,0,0,0,0,0,0,0,0,0,0,0,0,0,0,0,0,0,0,0,0,0,0,0,0,0,0,0,0,0,0,0,0,0,0,0,0,0,0,0,0,0,0,0,0,0,0,0,0,0,0,0,0,0,15481,15482,0,0,0,
0,0,0,0,0,0,0,0,0,0,0,0,0,0,0,0,0,0,0,0,0,0,0,0,0,0,0,0,0,0,0,0,0,0,0,0,0,0,0,0,0,0,0,0,0,0,0,0,0,0,0,0,0,0,15513,15514,0,0,0,
0,0,0,0,0,0,6852,0,6854,0,0,0,0,0,0,0,0,0,0,0,0,0,0,0,0,0,0,0,0,0,0,0,0,0,0,0,0,0,0,0,0,0,0,0,0,0,0,0,0,0,0,0,0,0,0,0,0,0,0,
0,0,0,0,0,0,6884,0,6886,0,0,0,0,0,0,0,0,0,0,0,0,0,0,0,0,0,0,0,0,0,0,0,0,0,0,0,0,0,0,0,0,0,0,0,0,0,0,0,0,0,0,0,0,0,0,0,0,0,0,
0,0,0,0,0,0,0,0,0,0,0,0,0,0,0,0,0,0,0,0,0,0,0,0,0,0,0,0,0,0,0,0,0,0,0,0,0,0,0,0,0,0,0,0,0,0,0,0,0,0,0,0,0,0,0,0,0,0,0,
0,0,0,0,0,0,0,0,0,0,0,0,0,0,0,0,0,0,0,0,0,0,0,0,0,0,0,0,0,0,0,0,0,0,0,0,0,0,0,0,0,0,0,0,0,0,0,0,0,0,0,0,0,0,0,0,0,0,0,
0,0,0,0,0,0,832,832,832,0,0,0,0,0,0,0,0,0,0,0,0,0,0,0,0,0,0,0,853,853,853,0,0,0,0,0,0,0,0,853,853,853,0,0,0,0,0,0,0,0,853,853,853,0,0,0,0,0,0,
0,0,0,0,0,0,0,0,0,0,0,0,0,0,0,0,0,0,0,0,0,0,0,0,0,0,0,0,0,0,0,0,0,0,0,0,0,0,0,0,0,0,0,0,0,0,0,0,0,0,0,0,0,0,0,0,0,0,0,
0,0,0,0,0,0,0,0,0,0,0,0,0,0,0,0,0,0,0,0,0,0,0,0,0,0,0,0,0,0,0,0,0,0,0,0,0,0,0,0,0,0,0,0,0,0,0,0,0,0,0,0,0,0,0,0,0,0,0,
0,0,0,0,0,0,0,0,0,0,0,0,0,0,0,0,0,0,0,0,0,0,0,0,0,0,0,0,0,0,0,0,0,0,0,0,0,0,0,0,0,0,0,0,0,0,0,0,0,0,0,0,0,0,0,0,0,0,0,
0,0,0,0,0,0,0,0,0,0,0,0,0,0,0,0,0,0,0,0,0,0,0,0,0,0,0,0,0,0,0,0,0,0,0,0,0,0,0,0,0,0,0,0,0,0,0,0,0,0,0,0,0,0,0,0,0,0,0,
0,0,0,0,0,0,0,0,0,0,0,0,0,0,0,0,0,0,0,0,0,0,0,0,0,0,0,0,0,0,0,0,0,0,0,0,0,0,0,0,0,0,0,0,0,0,0,0,0,0,0,0,0,0,0,0,0,0,0,
0,0,0,0,0,0,0,0,0,0,0,0,0,0,0,0,0,0,0,0,0,0,0,0,0,0,0,0,0,0,0,0,0,0,0,0,0,0,0,0,0,0,0,0,0,0,0,0,0,0,0,0,0,0,0,0,0,0,0,
0,0,0,0,0,0,0,0,0,0,0,0,0,0,0,0,0,0,0,0,0,0,0,0,0,0,0,0,0,0,0,0,0,0,0,0,0,0,0,0,0,0,0,0,0,0,0,0,0,0,0,0,0,0,0,0,0,0,0,
0,0,0,0,0,0,0,0,0,0,0,0,0,0,0,0,0,0,0,0,0,0,0,0,0,0,0,0,0,0,0,0,0,0,0,0,0,0,0,0,0,0,0,0,0,0,0,0,0,0,0,0,0,0,0,0,0,0,0,
0,0,0,0,0,0,0,0,0,0,0,0,0,0,0,0,0,0,0,0,0,0,0,0,0,0,0,0,0,0,0,0,0,0,0,0,0,0,0,0,0,0,0,0,0,0,0,0,0,0,0,0,0,0,0,0,0,0,0,
0,0,0,0,0,0,0,0,0,0,0,0,0,0,0,0,0,0,0,0,0,0,0,0,0,0,0,0,0,0,0,0,0,0,0,0,0,0,0,0,0,0,0,0,0,0,0,0,0,0,0,0,0,0,0,0,0,0,0,
0,0,0,0,0,0,0,0,0,0,0,0,0,0,0,0,0,0,0,0,0,0,0,0,0,0,0,0,0,0,0,0,0,0,0,0,0,0,0,0,0,0,0,0,0,0,0,0,0,0,0,0,0,0,0,0,0,0,0,
0,0,0,0,0,0,0,0,0,0,0,0,0,0,0,0,0,0,0,0,0,0,0,0,0,0,0,0,0,0,0,0,0,0,0,0,0,0,0,0,0,0,0,0,0,0,0,0,0,0,0,0,0,0,0,0,0,0,0
</data>
 </layer>
 <layer id="13" name="Back3" width="59" height="36">
  <data encoding="csv">
0,0,0,0,0,0,0,0,0,0,0,0,0,0,0,0,0,0,0,0,0,0,0,0,0,0,0,0,0,0,0,0,0,0,0,0,0,0,0,0,0,0,0,0,0,0,0,0,0,0,0,0,0,0,0,0,0,0,0,
0,0,0,0,0,0,0,0,0,0,0,3736,0,0,0,0,0,0,0,0,0,0,0,0,0,3735,3735,3735,3735,3735,3735,3735,3735,3735,0,0,0,0,0,0,0,0,0,0,0,0,0,0,0,0,0,0,0,0,0,3736,0,0,0,
0,0,0,0,0,0,0,0,0,0,0,0,3735,0,0,0,0,0,0,0,0,0,0,0,3735,0,0,0,0,0,0,0,0,0,3735,0,0,0,0,0,0,0,0,0,0,0,0,0,0,0,0,0,0,0,0,0,0,0,0,
0,0,0,0,0,0,0,0,0,0,0,0,0,0,0,0,0,0,0,0,0,0,0,0,0,0,0,0,0,0,0,0,0,0,0,0,0,0,0,0,0,0,0,0,0,0,0,0,0,0,0,0,0,0,0,0,0,0,0,
0,0,0,3599,3599,3599,3599,3599,3599,3599,3599,3622,0,0,0,0,0,0,0,0,0,0,0,0,0,3599,3599,3599,3599,3599,3599,3599,3599,3622,0,0,0,0,0,0,0,0,0,0,0,0,0,3599,3599,3599,3599,3599,3599,3599,3599,3622,0,0,0,
0,0,3583,0,0,0,0,0,0,0,0,3563,3622,0,0,0,0,0,0,0,0,0,0,0,3583,0,0,0,0,0,0,0,0,3563,3622,0,0,0,0,0,0,0,0,0,0,0,3583,0,0,0,0,0,0,0,0,3563,3622,0,0,
0,0,0,0,0,0,0,0,0,0,0,0,3581,0,0,0,0,0,0,0,0,0,0,0,0,0,0,0,0,0,0,0,0,0,3581,0,0,0,0,0,0,0,0,0,0,0,0,0,0,0,0,0,0,0,0,0,3581,0,0,
0,0,0,0,0,0,0,0,0,0,0,0,0,0,0,0,0,0,0,0,0,0,0,0,0,0,0,0,0,0,0,0,0,0,0,0,0,0,0,0,0,0,0,0,0,0,0,0,0,0,0,0,0,0,0,0,0,0,0,
0,0,0,0,0,0,0,0,0,0,0,0,0,0,0,0,0,0,0,0,0,0,0,0,0,0,0,0,0,0,0,0,0,0,0,0,0,0,0,0,0,0,0,0,0,0,0,0,0,0,0,0,0,0,0,0,0,0,0,
0,0,0,3735,3735,3735,3735,3735,3735,3735,3600,3735,0,0,0,0,0,0,0,0,0,0,0,0,0,3735,3735,3735,3735,3735,3735,3735,3600,3735,0,0,0,0,0,0,0,0,0,0,0,0,0,3735,3735,3735,3735,3735,3735,3735,3600,3735,0,0,0,
0,0,3735,0,0,0,0,0,0,0,3633,0,3735,0,0,0,0,0,0,0,0,0,0,0,3735,0,0,0,0,0,0,0,3633,0,3735,0,0,0,0,0,0,0,0,0,0,0,3735,0,0,0,0,0,0,0,3633,0,3735,0,0,
0,0,0,0,0,0,0,0,0,0,3633,0,0,0,0,0,0,0,0,0,0,0,0,0,0,0,0,0,0,0,0,0,3633,0,0,0,0,0,0,0,0,0,0,0,0,0,0,0,0,0,0,0,0,0,3633,0,0,0,0,
0,0,0,3599,3599,3599,3599,3599,3599,3599,3599,3622,0,0,0,0,0,0,0,0,0,0,0,0,0,3599,3599,3599,3599,3599,3599,3599,3599,3622,0,0,0,0,0,0,0,0,0,0,0,0,0,3599,3599,3599,3599,3599,3599,3599,3599,3622,0,0,0,
0,0,3583,3599,3599,3599,3599,3599,3564,0,0,3563,3622,0,0,0,0,0,0,0,0,0,0,0,3583,0,0,0,0,0,0,0,0,3563,3622,0,0,0,0,0,0,0,0,0,0,0,3583,0,0,0,0,0,0,0,0,3563,3622,0,0,
0,0,0,0,0,0,0,0,0,0,0,0,3581,0,0,0,0,0,0,0,0,0,0,0,0,0,0,0,0,0,0,0,0,0,3581,0,0,0,0,0,0,0,0,0,0,0,0,0,0,0,0,0,0,0,0,0,3581,0,0,
0,0,0,0,0,0,0,0,0,0,0,0,3581,0,0,0,0,0,0,0,0,0,0,0,0,0,0,0,0,0,0,0,0,0,3581,0,0,0,0,0,0,0,0,0,0,0,0,0,0,0,0,0,0,0,0,0,3581,0,0,
0,0,0,0,0,0,0,0,0,0,0,0,3581,0,0,0,0,0,0,0,0,0,0,0,0,0,0,0,0,0,0,0,0,0,3581,0,0,0,0,0,0,0,0,0,0,0,0,0,0,0,0,0,0,0,0,0,3581,0,0,
0,0,0,0,0,0,0,0,0,0,0,0,3581,0,0,0,0,0,0,0,0,0,0,0,0,0,0,0,0,0,0,0,0,0,3581,0,0,0,0,0,0,0,0,0,0,0,0,0,0,0,0,0,0,0,0,0,3581,0,0,
0,0,0,0,0,0,0,0,0,0,0,0,3581,0,0,0,0,0,0,0,0,0,0,0,0,0,0,0,0,0,0,0,0,0,3581,0,0,0,0,0,0,0,0,0,0,0,0,0,0,0,0,0,0,0,0,0,3581,0,0,
0,0,0,0,0,0,0,0,0,0,0,0,0,0,0,0,0,0,0,0,0,0,0,0,0,0,0,0,0,0,0,0,0,0,3581,0,0,0,0,0,0,0,0,0,0,0,0,0,0,0,0,0,0,0,0,0,0,0,0,
0,0,0,0,0,0,0,0,0,0,0,0,0,0,0,0,0,0,0,0,0,0,0,0,0,0,0,0,0,0,0,0,0,0,0,0,0,0,0,0,0,0,0,0,0,0,0,0,0,0,0,0,0,0,0,0,0,0,0,
0,0,0,3735,3735,3735,3735,3596,3735,3735,3735,3735,0,0,3735,3735,3735,3735,3735,3735,3735,3735,3735,0,0,3735,3735,3735,3735,3596,3735,3735,3735,3735,0,0,3735,3735,3735,0,0,0,3735,3735,3735,0,0,3735,3735,3735,3735,3596,3735,3735,3735,3735,0,0,0,
0,3735,3735,0,0,0,0,3633,0,0,0,0,3735,3735,0,0,0,0,0,0,0,0,0,3735,3735,0,0,0,0,3633,0,0,0,0,3735,3735,0,0,0,0,0,0,0,0,0,3735,3735,0,0,0,0,3633,0,0,0,0,3735,0,0,
0,0,0,0,0,0,3599,3599,3599,0,0,0,0,0,0,0,0,0,0,0,0,0,0,0,0,0,0,0,3599,3599,3599,0,0,0,0,0,0,0,0,3603,3603,3622,0,0,0,0,0,0,0,0,3599,3599,3599,0,0,0,0,0,0,
0,0,0,0,0,0,0,0,0,0,0,0,0,0,0,0,0,0,0,0,0,0,0,0,0,0,0,0,0,0,0,0,0,0,0,0,0,0,0,0,0,0,0,0,0,0,0,0,0,0,0,0,0,0,0,0,0,0,0,
0,3599,3599,3599,3599,3599,3599,3599,3599,3599,3599,3599,3599,3599,3599,3599,3599,3599,3599,3599,3599,3599,3599,3599,3599,3599,3599,3599,3599,3599,3599,3599,3599,3599,3599,3599,3599,3599,3599,3599,3599,3599,3599,3599,3599,3599,3599,3599,3599,3599,3599,3599,3599,3599,3599,3599,3622,0,0,
0,0,0,0,0,0,0,0,0,0,0,0,0,0,0,0,0,0,0,0,0,0,0,0,0,0,0,0,0,0,0,0,0,0,0,0,0,0,0,0,0,0,0,0,0,0,0,0,0,0,0,0,0,0,0,0,3581,0,0,
0,0,0,0,0,0,0,0,0,0,0,0,0,0,0,0,0,0,0,0,0,0,0,0,0,0,0,0,0,0,0,0,0,0,0,0,0,0,0,0,0,0,0,0,0,0,0,0,0,0,0,0,0,0,0,0,3581,0,0,
0,0,0,0,0,0,0,0,0,0,0,0,0,0,0,0,0,0,0,0,0,0,0,0,0,0,0,0,0,0,0,0,0,0,3581,0,0,0,0,0,0,0,0,0,0,0,0,0,0,0,0,0,0,0,0,0,0,0,0,
0,0,0,0,0,0,0,3596,0,0,0,0,0,0,0,0,0,0,0,0,0,0,0,0,0,0,0,0,0,3596,0,0,0,0,0,0,0,0,0,0,0,0,0,0,0,0,0,0,0,0,0,3596,0,0,0,0,0,0,0,
0,0,0,0,0,0,0,0,0,0,0,0,0,0,0,0,0,0,0,0,0,0,0,0,0,0,0,0,0,0,0,0,0,0,0,0,0,0,0,0,0,0,0,0,0,0,0,0,0,0,0,0,0,0,0,0,0,0,0,
0,0,0,0,0,0,0,0,0,0,0,0,0,0,0,0,0,0,0,0,0,0,0,0,0,0,0,0,0,0,0,0,0,0,0,0,0,0,0,0,0,0,0,0,0,0,0,0,0,0,0,0,0,0,0,0,0,0,0,
0,0,0,0,0,0,0,0,0,0,0,0,0,0,0,0,0,0,0,0,0,0,0,0,0,0,0,0,0,0,0,0,0,0,0,0,0,0,0,0,0,0,0,0,0,0,0,0,0,0,0,0,0,0,0,0,0,0,0,
0,0,0,0,0,0,0,0,0,0,0,0,0,0,0,0,0,0,0,0,0,0,0,0,0,0,0,0,0,0,0,0,0,0,0,0,0,0,0,0,0,0,0,0,0,0,0,0,0,0,0,0,0,0,0,0,0,0,0,
0,0,0,0,0,0,0,0,0,0,0,0,0,0,0,0,0,0,0,0,0,0,0,0,0,0,0,0,0,0,0,0,0,0,0,0,0,0,0,0,0,0,0,0,0,0,0,0,0,0,0,0,0,0,0,0,0,0,0,
0,0,0,0,0,0,0,0,0,0,0,0,0,0,0,0,0,0,0,0,0,0,0,0,0,0,0,0,0,0,0,0,0,0,0,0,0,0,0,0,0,0,0,0,0,0,0,0,0,0,0,0,0,0,0,0,0,0,0
</data>
 </layer>
 <layer id="15" name="Back4" width="59" height="36">
  <data encoding="csv">
0,0,0,0,0,0,0,0,0,0,0,0,0,0,0,0,0,0,0,0,0,0,0,0,0,0,0,0,0,0,0,0,0,0,0,0,0,0,0,0,0,0,0,0,0,0,0,0,0,0,0,0,0,0,0,0,0,0,0,
0,0,0,3736,3736,3736,3736,3736,3736,3736,3736,3715,0,0,0,0,0,0,0,0,0,0,0,0,0,0,0,0,0,0,0,0,0,3715,0,0,0,0,0,0,0,0,0,0,0,0,0,3736,3736,3736,3736,3736,3736,3736,3736,3715,0,0,0,
0,0,3736,0,0,0,0,0,0,0,0,3715,3715,0,0,0,0,0,0,0,0,0,0,0,0,0,0,0,0,0,0,0,0,3715,3715,0,0,0,0,0,0,0,0,0,0,0,3736,0,0,0,0,0,0,0,0,3715,3736,0,0,
0,0,0,0,0,0,0,0,0,0,0,3715,3715,0,0,0,0,0,0,0,0,0,0,0,0,0,0,0,0,0,0,0,0,3715,3715,0,0,0,0,0,0,0,0,0,0,0,0,0,0,0,0,0,0,0,0,3715,0,0,0,
0,0,0,3736,3736,3736,3736,3736,3736,3736,3736,3736,3715,0,0,0,0,0,0,0,0,0,0,0,0,3736,3736,3736,3736,3736,3736,3736,3736,3736,3715,0,0,0,0,0,0,0,0,0,0,0,0,3736,3736,3736,3736,3736,3736,3736,3736,3736,0,0,0,
0,0,3739,0,0,0,0,0,0,0,0,3734,3735,0,0,0,0,0,0,0,0,0,0,0,3739,0,0,0,0,0,0,0,0,3734,3735,0,0,0,0,0,0,0,0,0,0,0,3739,0,0,0,0,0,0,0,0,3734,3735,0,0,
0,0,0,0,0,0,0,0,0,0,0,0,0,0,0,0,0,0,0,0,0,0,0,0,0,0,0,0,0,0,0,0,0,0,0,0,0,0,0,0,0,0,0,0,0,0,0,0,0,0,0,0,0,0,0,0,0,0,0,
0,0,0,0,0,0,0,0,0,0,0,0,0,0,0,0,0,0,0,0,0,0,0,0,0,0,0,0,0,0,0,0,0,0,0,0,0,0,0,0,0,0,0,0,0,0,0,0,0,0,0,0,0,0,0,0,0,0,0,
0,0,0,0,0,0,0,0,0,0,0,0,0,0,0,0,0,0,0,0,0,0,0,0,0,0,0,0,0,0,0,0,0,0,0,0,0,0,0,0,0,0,0,0,0,0,0,0,0,0,0,0,0,0,0,0,0,0,0,
0,0,0,0,0,0,0,0,0,0,0,3715,0,0,0,0,0,0,0,0,0,0,0,0,0,0,0,0,0,0,0,0,0,3715,0,0,0,0,0,0,0,0,0,0,0,0,0,0,0,0,0,0,0,0,0,3715,0,0,0,
0,0,0,0,0,0,0,0,0,0,3600,3715,3715,0,0,0,0,0,0,0,0,0,0,0,0,0,0,0,0,0,0,0,3600,3715,3715,0,0,0,0,0,0,0,0,0,0,0,0,0,0,0,0,0,0,0,3600,3715,3715,0,0,
0,0,0,0,0,0,0,0,0,0,3633,3715,3715,0,0,0,0,0,0,0,0,0,0,0,0,0,0,0,0,0,0,0,3633,3715,3715,0,0,0,0,0,0,0,0,0,0,0,0,0,0,0,0,0,0,0,3633,3715,3715,0,0,
0,0,0,3736,3736,3736,3736,3736,3736,2147487363,3736,3736,3715,0,0,0,0,0,0,0,0,0,0,0,0,3736,3736,3736,3736,3736,3736,3736,3736,3736,3715,0,0,0,0,0,0,0,0,0,0,0,0,3736,3736,3736,3736,3736,3736,3736,3736,3736,3715,0,0,
0,0,3739,3736,3736,3736,3736,3736,3739,2147487363,0,3734,3736,0,0,0,0,0,0,0,0,0,0,0,3739,0,0,0,0,0,0,0,0,3734,3736,0,0,0,0,0,0,0,0,0,0,0,3739,0,3734,0,0,0,0,0,0,3734,3736,0,0,
0,0,0,0,0,0,0,0,0,2147487363,0,0,3715,0,0,0,0,0,0,0,0,0,0,0,0,0,0,0,0,0,0,0,0,0,3715,0,0,0,0,0,0,0,0,0,0,0,0,0,0,0,0,0,0,0,0,0,3715,0,0,
0,0,0,0,0,0,0,0,0,2147487363,0,0,3715,0,0,0,0,0,0,0,0,0,0,0,0,0,0,0,0,0,0,0,0,0,3715,0,0,0,0,0,0,0,0,0,0,0,0,0,0,0,0,0,0,0,0,0,3715,0,0,
0,0,3736,3736,3736,3736,3736,3736,3739,0,0,0,3715,0,0,0,0,0,0,0,0,0,0,0,0,0,0,0,0,0,0,0,0,0,3715,0,0,0,0,0,0,0,0,0,0,0,0,0,0,0,0,0,0,0,0,0,3715,0,0,
0,0,0,0,0,0,0,0,0,0,0,0,3715,0,0,0,0,0,0,0,0,0,0,0,0,0,0,0,0,0,0,0,0,0,3715,0,0,0,0,0,0,0,0,0,0,0,0,0,0,0,0,0,0,0,0,0,3715,0,0,
0,0,0,0,0,0,0,0,0,0,0,0,3715,0,0,0,0,0,0,0,0,0,0,0,0,0,0,0,0,0,0,0,0,0,3715,0,0,0,0,0,0,0,0,0,0,0,0,0,0,0,0,0,0,0,0,0,3715,0,0,
0,0,0,0,0,0,0,0,0,0,0,0,0,0,0,0,0,0,0,0,0,0,0,0,0,0,0,0,0,0,0,0,0,0,0,0,0,0,0,0,0,0,0,0,0,0,0,0,0,0,0,0,0,0,0,0,0,0,0,
0,0,0,0,0,0,0,0,0,0,0,0,0,0,0,0,0,0,0,0,0,0,0,0,0,0,0,0,0,0,0,0,0,0,0,0,0,0,0,0,0,0,0,0,0,0,0,0,0,0,0,0,0,0,0,0,0,0,0,
0,0,0,0,0,0,3715,3600,3715,0,0,3715,0,0,0,0,0,0,0,0,0,0,3715,0,0,0,0,0,3715,3600,3715,0,0,3715,0,0,0,0,0,0,0,0,0,0,3715,0,0,0,0,0,0,3600,3715,0,0,3715,0,0,0,
0,0,0,0,0,0,0,3633,3715,0,0,3715,0,0,0,0,0,0,0,0,0,0,3715,0,0,0,0,0,0,3633,3715,0,0,3715,0,0,0,0,0,0,0,0,0,0,3715,0,0,0,0,0,0,3633,3715,0,0,3715,3715,0,0,
0,0,0,0,0,0,3736,3736,3736,0,0,3715,0,0,0,0,0,0,0,0,0,0,3715,0,0,0,0,0,3736,3736,3736,0,0,3715,0,0,0,0,0,3736,3736,3736,0,0,3715,0,0,0,0,0,3736,3736,3736,0,0,3715,3715,0,0,
0,0,0,0,0,0,0,0,0,0,0,0,0,0,0,0,0,0,0,0,0,0,0,0,0,0,0,0,0,0,0,0,0,0,0,0,0,0,0,0,0,0,0,0,0,0,0,0,0,0,0,0,0,0,0,0,3715,0,0,
0,3736,3736,3736,3736,3736,3736,3736,3736,3736,3736,3736,3736,3736,3736,3736,3736,3736,3736,3736,3736,3736,3736,3736,3736,3736,3736,3736,3736,3736,3736,3736,3736,3736,3736,3736,3736,3736,3736,3736,3736,3736,3736,3736,3736,3736,3736,3736,3736,3736,3736,3736,3736,3736,3736,3736,3736,0,0,
0,0,0,0,0,0,0,0,0,0,0,0,0,0,0,0,0,0,0,0,0,0,0,0,0,0,0,0,0,0,0,0,0,0,0,0,0,0,0,0,0,0,0,0,0,0,0,0,0,0,0,0,0,0,0,0,3715,0,0,
0,0,0,0,0,0,0,0,0,0,0,0,0,0,0,0,0,0,0,0,0,0,0,0,0,0,0,0,0,0,0,0,0,0,0,0,0,0,0,0,0,0,0,0,0,0,0,0,0,0,0,0,0,0,0,0,3715,0,0,
0,0,0,0,0,0,0,0,0,0,0,0,0,0,0,0,0,0,0,0,0,0,0,0,0,0,0,0,0,0,0,0,0,0,3715,0,0,0,0,0,0,0,0,0,0,0,0,0,0,0,0,0,0,0,0,0,0,0,0,
0,0,0,0,0,0,0,3600,0,0,0,0,0,0,0,0,0,0,0,0,0,0,0,0,0,0,0,0,0,0,0,0,0,0,0,0,0,0,0,0,0,0,0,0,0,0,0,0,0,0,0,3600,0,0,0,0,0,0,0,
0,0,0,0,0,0,0,0,0,0,0,0,0,0,0,0,0,0,0,0,0,0,0,0,0,0,0,0,0,0,0,0,0,0,0,0,0,0,0,0,0,0,0,0,0,0,0,0,0,0,0,0,0,0,0,0,0,0,0,
0,0,0,0,0,0,0,0,0,0,0,0,0,0,0,0,0,0,0,0,0,0,0,0,0,0,0,0,0,0,0,0,0,0,0,0,0,0,0,0,0,0,0,0,0,0,0,0,0,0,0,0,0,0,0,0,0,0,0,
0,0,0,0,0,0,0,0,0,0,0,0,0,0,0,0,0,0,0,0,0,0,0,0,0,0,0,0,0,0,0,0,0,0,0,0,0,0,0,0,0,0,0,0,0,0,0,0,0,0,0,0,0,0,0,0,0,0,0,
0,0,0,0,0,0,0,0,0,0,0,0,0,0,0,0,0,0,0,0,0,0,0,0,0,0,0,0,0,0,0,0,0,0,0,0,0,0,0,0,0,0,0,0,0,0,0,0,0,0,0,0,0,0,0,0,0,0,0,
0,0,0,0,0,0,0,0,0,0,0,0,0,0,0,0,0,0,0,0,0,0,0,0,0,0,0,0,0,0,0,0,0,0,0,0,0,0,0,0,0,0,0,0,0,0,0,0,0,0,0,0,0,0,0,0,0,0,0,
0,0,0,0,0,0,0,0,0,0,0,0,0,0,0,0,0,0,0,0,0,0,0,0,0,0,0,0,0,0,0,0,0,0,0,0,0,0,0,0,0,0,0,0,0,0,0,0,0,0,0,0,0,0,0,0,0,0,0
</data>
 </layer>
 <layer id="16" name="Back5" width="59" height="36">
  <data encoding="csv">
0,0,0,0,0,0,0,0,0,0,0,0,0,0,0,0,0,0,0,0,0,0,0,0,0,0,0,0,0,0,0,0,0,0,0,0,0,0,0,0,0,0,0,0,0,0,0,0,0,0,0,0,0,0,0,0,0,0,0,
0,0,0,0,0,0,0,0,0,0,0,0,0,0,0,0,0,0,0,0,0,0,0,0,0,0,0,0,0,0,0,0,0,0,0,0,0,0,0,0,0,0,0,0,0,0,0,0,0,0,0,0,0,0,0,0,0,0,0,
0,0,0,0,0,0,0,0,0,0,0,0,0,0,0,0,0,0,0,0,0,0,0,0,0,0,0,0,0,0,0,0,0,0,0,0,0,0,0,0,0,0,0,0,0,0,0,0,0,0,0,0,0,0,0,0,0,0,0,
0,0,0,0,0,0,0,0,0,0,0,0,0,0,0,0,0,0,0,0,0,0,0,0,0,0,0,0,0,0,0,0,0,0,0,0,0,0,0,0,0,0,0,0,0,0,0,0,0,0,0,0,0,0,0,0,0,0,0,
0,0,0,0,0,0,0,0,0,0,0,3715,0,0,0,0,0,0,0,0,0,0,0,0,0,0,0,0,0,0,0,0,0,3715,0,0,0,0,0,0,0,0,0,0,0,0,0,0,0,0,0,0,0,0,0,3715,0,0,0,
0,0,0,0,0,0,0,0,0,0,0,0,0,0,0,0,0,0,0,0,0,0,0,0,0,0,0,0,0,0,0,0,0,0,3715,0,0,0,0,0,0,0,0,0,0,0,0,0,0,0,0,0,0,0,0,0,0,0,0,
0,0,0,0,0,0,0,0,0,0,0,0,0,0,0,0,0,0,0,0,0,0,0,0,0,0,0,0,0,0,0,0,0,0,3715,0,0,0,0,0,0,0,0,0,0,0,0,0,0,0,0,0,0,0,0,0,0,0,0,
0,0,0,0,0,0,0,0,0,0,0,0,0,0,0,0,0,0,0,0,0,0,0,0,0,0,0,0,0,0,0,0,0,0,0,0,0,0,0,0,0,0,0,0,0,0,0,0,0,0,0,0,0,0,0,0,0,0,0,
0,0,0,0,0,0,0,0,0,0,0,0,0,0,0,0,0,0,0,0,0,0,0,0,0,0,0,0,0,0,0,0,0,0,0,0,0,0,0,0,0,0,0,0,0,0,0,0,0,0,0,0,0,0,0,0,0,0,0,
0,0,0,0,0,0,0,0,0,0,0,0,0,0,0,0,0,0,0,0,0,0,0,0,0,0,0,0,0,0,0,0,0,0,0,0,0,0,0,0,0,0,0,0,0,0,0,0,0,0,0,0,0,0,0,0,0,0,0,
0,0,0,0,0,0,0,0,0,0,0,0,0,0,0,0,0,0,0,0,0,0,0,0,0,0,0,0,0,0,0,0,0,0,0,0,0,0,0,0,0,0,0,0,0,0,0,0,0,0,0,0,0,0,0,0,0,0,0,
0,0,0,0,0,0,0,0,0,0,0,0,0,0,0,0,0,0,0,0,0,0,0,0,0,0,0,0,0,0,0,0,0,0,0,0,0,0,0,0,0,0,0,0,0,0,0,0,0,0,0,0,0,0,0,0,0,0,0,
0,0,0,0,0,0,0,0,0,3736,0,3715,0,0,0,0,0,0,0,0,0,0,0,0,0,0,0,0,0,0,0,0,0,3715,0,0,0,0,0,0,0,0,0,0,0,0,0,0,0,0,0,0,0,0,0,3715,0,0,0,
0,0,0,0,0,0,0,0,0,0,0,0,3715,0,0,0,0,0,0,0,0,0,0,0,0,0,0,0,0,0,0,0,0,0,3715,0,0,0,0,0,0,0,0,0,0,0,0,0,0,0,0,0,0,0,0,0,3715,0,0,
0,0,0,0,0,0,0,0,0,0,0,0,0,0,0,0,0,0,0,0,0,0,0,0,0,0,0,0,0,0,0,0,0,0,0,0,0,0,0,0,0,0,0,0,0,0,0,0,0,0,0,0,0,0,0,0,0,0,0,
0,0,0,0,0,0,0,0,0,0,0,0,0,0,0,0,0,0,0,0,0,0,0,0,0,0,0,0,0,0,0,0,0,0,0,0,0,0,0,0,0,0,0,0,0,0,0,0,0,0,0,0,0,0,0,0,0,0,0,
0,0,0,0,0,0,0,0,0,0,0,0,0,0,0,0,0,0,0,0,0,0,0,0,0,0,0,0,0,0,0,0,0,0,0,0,0,0,0,0,0,0,0,0,0,0,0,0,0,0,0,0,0,0,0,0,0,0,0,
0,0,0,0,0,0,0,0,0,0,0,0,0,0,0,0,0,0,0,0,0,0,0,0,0,0,0,0,0,0,0,0,0,0,0,0,0,0,0,0,0,0,0,0,0,0,0,0,0,0,0,0,0,0,0,0,0,0,0,
0,0,0,0,0,0,0,0,0,0,0,0,0,0,0,0,0,0,0,0,0,0,0,0,0,0,0,0,0,0,0,0,0,0,0,0,0,0,0,0,0,0,0,0,0,0,0,0,0,0,0,0,0,0,0,0,0,0,0,
0,0,0,0,0,0,0,0,0,0,0,0,0,0,0,0,0,0,0,0,0,0,0,0,0,0,0,0,0,0,0,0,0,0,0,0,0,0,0,0,0,0,0,0,0,0,0,0,0,0,0,0,0,0,0,0,0,0,0,
0,0,0,0,0,0,0,0,0,0,0,0,0,0,0,0,0,0,0,0,0,0,0,0,0,0,0,0,0,0,0,0,0,0,0,0,0,0,0,0,0,0,0,0,0,0,0,0,0,0,0,0,0,0,0,0,0,0,0,
0,0,0,0,0,0,0,0,0,0,0,0,0,0,0,0,0,0,0,0,0,0,0,0,0,0,0,0,0,0,0,0,0,0,0,0,0,0,0,0,0,0,0,0,0,0,0,0,0,0,0,0,0,0,0,0,0,0,0,
0,0,0,0,0,0,0,0,0,0,0,0,0,0,0,0,0,0,0,0,0,0,0,0,0,0,0,0,0,0,0,0,0,0,0,0,0,0,0,0,0,0,0,0,0,0,0,0,0,0,0,0,0,0,0,0,0,0,0,
0,0,0,0,0,0,0,0,0,0,0,0,0,0,0,0,0,0,0,0,0,0,0,0,0,0,0,0,0,0,0,0,0,0,0,0,0,0,0,0,0,3715,0,0,0,0,0,0,0,0,0,0,0,0,0,0,0,0,0,
0,0,0,0,0,0,0,0,0,0,0,0,0,0,0,0,0,0,0,0,0,0,0,0,0,0,0,0,0,0,0,0,0,0,0,0,0,0,0,0,0,0,0,0,0,0,0,0,0,0,0,0,0,0,0,0,0,0,0,
0,0,0,0,0,0,0,0,0,0,0,0,0,0,0,0,0,0,0,0,0,0,0,0,0,0,0,0,0,0,0,0,0,0,0,0,0,0,0,0,0,0,0,0,0,0,0,0,0,0,0,0,0,0,0,0,3715,0,0,
0,0,0,0,0,0,0,0,0,0,0,0,0,0,0,0,0,0,0,0,0,0,0,0,0,0,0,0,0,0,0,0,0,0,0,0,0,0,0,0,0,0,0,0,0,0,0,0,0,0,0,0,0,0,0,0,0,0,0,
0,0,0,0,0,0,0,0,0,0,0,0,0,0,0,0,0,0,0,0,0,0,0,0,0,0,0,0,0,0,0,0,0,0,0,0,0,0,0,0,0,0,0,0,0,0,0,0,0,0,0,0,0,0,0,0,0,0,0,
0,0,0,0,0,0,0,0,0,0,0,0,0,0,0,0,0,0,0,0,0,0,0,0,0,0,0,0,0,0,0,0,0,0,0,0,0,0,0,0,0,0,0,0,0,0,0,0,0,0,0,0,0,0,0,0,0,0,0,
0,0,0,0,0,0,0,0,0,0,0,0,0,0,0,0,0,0,0,0,0,0,0,0,0,0,0,0,0,0,0,0,0,0,0,0,0,0,0,0,0,0,0,0,0,0,0,0,0,0,0,0,0,0,0,0,0,0,0,
0,0,0,0,0,0,0,0,0,0,0,0,0,0,0,0,0,0,0,0,0,0,0,0,0,0,0,0,0,0,0,0,0,0,0,0,0,0,0,0,0,0,0,0,0,0,0,0,0,0,0,0,0,0,0,0,0,0,0,
0,0,0,0,0,0,0,0,0,0,0,0,0,0,0,0,0,0,0,0,0,0,0,0,0,0,0,0,0,0,0,0,0,0,0,0,0,0,0,0,0,0,0,0,0,0,0,0,0,0,0,0,0,0,0,0,0,0,0,
0,0,0,0,0,0,0,0,0,0,0,0,0,0,0,0,0,0,0,0,0,0,0,0,0,0,0,0,0,0,0,0,0,0,0,0,0,0,0,0,0,0,0,0,0,0,0,0,0,0,0,0,0,0,0,0,0,0,0,
0,0,0,0,0,0,0,0,0,0,0,0,0,0,0,0,0,0,0,0,0,0,0,0,0,0,0,0,0,0,0,0,0,0,0,0,0,0,0,0,0,0,0,0,0,0,0,0,0,0,0,0,0,0,0,0,0,0,0,
0,0,0,0,0,0,0,0,0,0,0,0,0,0,0,0,0,0,0,0,0,0,0,0,0,0,0,0,0,0,0,0,0,0,0,0,0,0,0,0,0,0,0,0,0,0,0,0,0,0,0,0,0,0,0,0,0,0,0,
0,0,0,0,0,0,0,0,0,0,0,0,0,0,0,0,0,0,0,0,0,0,0,0,0,0,0,0,0,0,0,0,0,0,0,0,0,0,0,0,0,0,0,0,0,0,0,0,0,0,0,0,0,0,0,0,0,0,0
</data>
 </layer>
 <layer id="4" name="Buildings" width="59" height="36">
  <data encoding="csv">
86,86,30,56,56,56,56,56,56,56,56,56,34,86,86,86,86,86,86,86,86,86,86,86,30,56,56,56,56,56,56,56,56,56,34,86,86,86,86,86,86,86,86,86,86,86,30,56,56,56,56,56,56,56,56,56,34,86,86,
86,30,29,0,0,6143,6144,0,6525,6526,0,0,27,34,86,86,86,86,86,86,86,86,86,30,29,0,0,0,0,0,0,0,0,0,27,34,86,86,86,86,86,86,86,86,86,30,29,0,0,0,0,0,0,0,0,0,27,34,86,
86,77,829,0,0,6175,6176,0,6557,6558,0,0,827,79,86,86,86,86,86,86,86,86,86,77,1517,1442,1442,1442,1442,1442,1442,1442,1442,1442,1516,79,86,86,86,86,86,86,86,86,86,77,904,0,0,0,0,0,0,0,0,0,902,79,86,
86,77,829,853,15564,15565,15566,853,853,853,853,853,827,79,86,86,86,86,86,86,86,86,86,77,1549,1474,1474,1474,1474,1474,1474,1474,1474,1474,1548,79,86,86,86,86,86,86,86,86,86,77,929,16008,16009,16010,928,928,928,928,928,928,927,79,86,
86,77,854,14829,0,0,0,0,13501,14620,14621,0,852,79,86,86,86,86,86,86,86,86,86,77,1581,0,0,0,0,0,0,0,0,0,1580,79,86,86,86,86,86,86,86,86,86,77,954,0,0,0,0,13227,13267,13268,14815,14816,952,79,86,
86,77,14828,0,15628,15629,15630,0,0,14652,14653,0,6478,79,86,86,86,86,86,86,86,86,86,77,0,0,0,0,0,0,0,0,0,0,0,79,86,86,86,86,86,86,86,86,86,77,14216,16072,16073,16074,0,0,0,0,0,0,2057,79,86,
86,52,0,0,0,0,0,0,0,0,0,0,6510,104,86,86,86,86,86,86,86,86,86,52,0,0,0,0,0,0,0,0,0,0,0,104,86,86,86,86,86,86,86,86,86,52,14248,0,0,0,0,0,0,0,0,0,2089,104,86,
86,86,52,6439,14175,14176,13502,14175,14176,0,0,0,104,86,86,86,86,86,86,86,86,86,86,86,52,0,0,0,0,0,0,0,0,0,104,86,86,86,86,86,86,86,86,86,86,86,52,14185,14186,14977,14185,14186,14977,0,0,13508,104,86,86,
86,86,30,56,56,56,56,56,56,56,0,56,34,86,86,86,86,86,86,86,86,86,86,86,30,56,56,56,56,56,56,56,0,56,34,86,86,86,86,86,86,86,86,86,86,86,30,56,56,56,56,56,56,56,0,56,34,86,86,
86,30,29,6523,6524,6525,6526,6528,0,829,0,827,27,34,86,86,86,86,86,86,86,86,86,30,29,0,0,0,0,0,0,1517,0,1516,27,34,86,86,86,86,86,86,86,86,86,30,29,0,15015,15016,15017,0,0,904,0,902,27,34,86,
86,77,829,6555,6556,6557,6558,6559,0,829,0,827,827,79,86,86,86,86,86,86,86,86,86,77,1517,1442,1442,1442,1442,1442,1442,1549,0,1548,1516,79,86,86,86,86,86,86,86,86,86,77,904,0,15047,15048,15049,1672,1671,904,0,902,902,79,86,
86,77,829,853,853,853,853,853,853,854,1482,852,827,79,86,86,86,86,86,86,86,86,86,77,1549,1474,1474,1474,1474,1474,1474,1581,1482,1580,1548,79,86,86,86,86,86,86,86,86,86,77,929,928,928,928,928,928,928,929,1482,927,927,79,86,
86,77,854,6619,6620,6621,6622,6623,1857,0,0,1814,852,79,86,86,86,86,86,86,86,86,86,77,1581,0,0,0,0,0,0,0,0,0,1580,79,86,86,86,86,86,86,86,86,86,77,954,13227,15000,15001,15002,5181,5182,11002,0,0,952,79,86,
86,77,2162,0,0,0,0,0,0,0,0,0,0,79,86,86,86,86,86,86,86,86,86,77,0,0,0,0,0,0,0,0,0,0,0,79,86,86,86,86,86,86,86,86,86,77,0,0,0,0,0,0,0,0,0,0,0,79,86,
86,77,2194,0,0,0,0,0,0,0,0,0,6381,79,86,86,86,86,86,86,86,86,86,77,0,0,0,0,0,0,0,0,0,0,0,79,86,86,86,86,86,86,86,86,86,77,5234,13704,14624,14625,0,0,0,0,0,0,0,79,86,
86,77,2226,0,0,0,0,0,0,0,0,0,6413,79,86,86,86,86,86,86,86,86,86,77,0,0,0,0,0,0,0,0,0,0,0,79,86,86,86,86,86,86,86,86,86,77,5259,13736,14656,14657,0,0,0,0,0,0,5234,79,86,
86,77,1725,0,0,0,0,0,0,0,0,0,6381,79,86,86,86,86,86,86,86,86,86,77,0,0,0,0,0,0,0,0,0,0,0,79,86,86,86,86,86,86,86,86,86,77,5284,0,13705,13706,0,0,0,0,0,0,5259,79,86,
86,77,14206,1754,0,0,0,0,0,0,0,0,6413,79,86,86,86,86,86,86,86,86,86,77,0,0,0,0,0,0,0,0,0,0,0,79,86,86,86,86,86,86,86,86,86,77,5309,0,0,0,0,0,0,0,0,0,5284,79,86,
86,52,14238,2017,2018,2019,1915,0,0,0,0,0,6251,104,86,86,86,86,86,86,86,86,86,52,0,0,0,0,0,0,0,0,0,0,0,104,86,86,86,86,86,86,86,86,86,52,11002,0,0,0,5856,0,14975,0,0,13506,5309,104,86,
86,86,52,2049,2050,2051,104,0,52,14553,14554,14555,104,86,86,86,86,86,86,86,86,86,86,86,52,0,0,0,104,0,52,0,0,0,104,86,86,86,86,86,86,86,86,86,86,86,52,7543,7544,9675,0,0,0,16823,16824,16825,104,86,86,
86,86,30,56,56,56,57,0,57,56,56,56,34,30,56,56,56,56,56,56,56,56,56,34,30,56,56,56,57,0,57,56,56,56,34,30,56,56,56,56,56,56,56,56,56,34,30,56,56,56,57,0,57,56,56,56,34,86,86,
86,30,29,0,0,829,829,0,827,827,0,0,27,29,0,0,0,0,0,0,0,0,0,27,29,0,0,829,829,0,827,827,0,0,27,29,0,0,829,0,0,0,827,0,0,27,29,0,0,829,829,0,827,827,0,0,27,34,86,
86,77,829,0,0,829,854,1482,852,827,0,0,977,979,0,0,0,0,0,0,0,0,0,977,979,0,0,829,854,1482,852,827,0,0,977,829,0,0,829,0,0,0,827,0,0,977,829,0,0,829,854,1482,852,827,0,0,827,79,86,
86,77,1004,853,853,854,0,0,0,852,853,853,1002,1004,853,853,853,853,853,853,853,853,853,1002,1004,853,853,854,0,0,0,852,853,853,1002,1004,853,853,854,0,0,0,852,853,853,1002,1004,853,853,854,0,0,0,852,853,853,827,79,86,
86,77,1029,0,0,0,0,0,0,0,0,0,1027,1029,0,0,0,0,0,0,0,0,0,1027,1029,0,0,0,0,0,0,0,0,0,1027,1029,0,0,0,0,0,0,0,0,0,1027,1029,0,0,0,0,0,0,0,0,0,852,79,86,
86,77,0,0,0,0,0,0,0,0,0,0,0,0,0,0,0,0,0,0,0,0,0,0,0,0,0,0,0,0,0,0,0,0,0,0,0,0,0,0,0,0,0,0,0,0,0,0,0,0,0,0,0,0,0,0,0,79,86,
86,77,0,0,0,0,0,0,0,0,0,0,0,0,0,0,0,0,0,0,0,0,0,0,0,0,0,0,0,0,0,0,0,0,0,0,0,0,0,0,0,0,0,0,0,0,0,0,0,0,0,0,0,0,0,0,0,79,86,
86,52,0,0,0,0,0,0,0,0,0,0,0,0,0,0,0,0,0,0,0,0,0,0,0,0,0,0,0,0,0,0,0,0,0,0,0,0,0,0,0,0,0,0,0,0,0,0,0,0,0,0,0,0,0,0,0,104,86,
86,86,52,0,0,0,0,0,0,0,0,0,104,52,0,0,0,0,0,0,0,0,0,104,52,0,0,0,0,0,0,0,0,0,104,102,0,0,0,0,0,0,0,0,0,104,102,0,0,0,0,0,0,0,0,0,104,86,86,
86,86,86,86,86,86,52,0,104,86,86,86,86,86,86,86,86,86,86,86,86,86,86,86,86,86,86,86,52,0,104,86,86,86,86,86,86,86,86,86,86,86,86,86,86,86,86,86,86,86,52,0,104,86,86,86,86,86,86,
86,86,86,86,86,86,86,86,86,86,86,86,86,86,86,86,86,86,86,86,86,86,86,86,86,86,86,86,86,86,86,86,86,86,86,86,86,86,86,86,86,86,86,86,86,86,86,86,86,86,86,86,86,86,86,86,86,86,86,
86,86,86,86,86,86,86,86,86,86,86,86,86,86,86,86,86,86,86,86,86,86,86,86,86,86,86,86,86,86,86,86,86,86,86,86,86,86,86,86,86,86,86,86,86,86,86,86,86,86,86,86,86,86,86,86,86,86,86,
86,86,86,86,86,86,86,86,86,86,86,86,86,86,86,86,86,86,86,86,86,86,86,86,86,86,86,86,86,86,86,86,86,86,86,86,86,86,86,86,86,86,86,86,86,86,86,86,86,86,86,86,86,86,86,86,86,86,86,
86,86,86,86,86,86,86,86,86,86,86,86,86,86,86,86,86,86,86,86,86,86,86,86,86,86,86,86,86,86,86,86,86,86,86,86,86,86,86,86,86,86,86,86,86,86,86,86,86,86,86,86,86,86,86,86,86,86,86,
86,86,86,86,86,86,86,86,86,86,86,86,86,86,86,86,86,86,86,86,86,86,86,86,86,86,86,86,86,86,86,86,86,86,86,86,86,86,86,86,86,86,86,86,86,86,86,86,86,86,86,86,86,86,86,86,86,86,86,
86,86,86,86,86,86,86,86,86,86,86,86,86,86,86,86,86,86,86,86,86,86,86,86,86,86,86,86,86,86,86,86,86,86,86,86,86,86,86,86,86,86,86,86,86,86,86,86,86,86,86,86,86,86,86,86,86,86,86
</data>
 </layer>
 <layer id="14" name="Buildings2" width="59" height="36">
  <data encoding="csv">
0,0,0,0,0,0,0,0,0,0,0,0,0,0,0,0,0,0,0,0,0,0,0,0,0,0,0,0,0,0,0,0,0,0,0,0,0,0,0,0,0,0,0,0,0,0,0,0,0,0,0,0,0,0,0,0,0,0,0,
0,0,0,0,0,0,0,0,0,0,0,0,0,0,0,0,0,0,0,0,0,0,0,0,0,0,0,0,0,0,0,0,0,0,0,0,0,0,0,0,0,0,0,0,0,0,0,0,0,15069,16092,0,0,0,0,0,0,0,0,
0,0,0,0,0,0,0,0,0,0,0,0,0,0,0,0,0,0,0,0,0,0,0,0,0,0,0,0,0,0,0,0,0,0,0,0,0,0,0,0,0,0,0,0,0,0,0,0,0,15101,0,0,0,0,0,0,0,0,0,
0,0,0,0,0,0,0,0,0,0,0,0,0,0,0,0,0,0,0,0,0,0,0,0,0,0,0,0,0,0,0,0,0,0,0,0,0,0,0,0,0,0,0,0,0,0,0,0,0,0,16156,0,0,0,0,0,0,0,0,
0,0,0,0,0,0,0,0,0,0,0,0,0,0,0,0,0,0,0,0,0,0,0,0,0,0,0,0,0,0,0,0,0,0,0,0,0,0,0,0,0,0,0,0,0,0,0,0,0,0,0,0,0,0,0,0,0,0,0,
0,0,0,0,0,0,0,0,0,0,0,0,0,0,0,0,0,0,0,0,0,0,0,0,0,0,0,0,0,0,0,0,0,0,0,0,0,0,0,0,0,0,0,0,0,0,0,0,0,0,0,0,0,0,0,0,0,0,0,
0,0,0,0,0,0,0,0,0,0,0,0,0,0,0,0,0,0,0,0,0,0,0,0,0,0,0,0,0,0,0,0,0,0,0,0,0,0,0,0,0,0,0,0,0,0,0,0,0,0,0,0,0,0,0,0,0,0,0,
0,0,0,0,0,0,0,0,0,0,0,0,0,0,0,0,0,0,0,0,0,0,0,0,0,0,0,0,0,0,0,0,0,0,0,0,0,0,0,0,0,0,0,0,0,0,0,0,0,0,0,0,0,0,0,0,0,0,0,
0,0,0,0,0,0,0,0,0,0,0,0,0,0,0,0,0,0,0,0,0,0,0,0,0,0,0,0,0,0,0,0,0,0,0,0,0,0,0,0,0,0,0,0,0,0,0,0,0,0,0,0,0,0,0,0,0,0,0,
0,0,0,0,0,0,0,0,6113,6114,0,0,0,0,0,0,0,0,0,0,0,0,0,0,0,0,0,0,0,0,0,0,0,0,0,0,0,0,0,0,0,0,0,0,0,0,0,0,0,0,0,0,0,0,0,0,0,0,0,
0,0,0,0,0,0,0,0,6145,6146,0,0,0,0,0,0,0,0,0,0,0,0,0,0,0,0,0,0,0,0,0,0,0,0,0,0,0,0,0,0,0,0,0,0,0,0,0,0,0,0,0,0,0,0,0,0,0,0,0,
0,0,0,0,0,0,0,0,0,0,0,0,0,0,0,0,0,0,0,0,0,0,0,0,0,0,0,0,0,0,0,0,0,0,0,0,0,0,0,0,0,0,0,0,0,0,0,0,0,0,0,0,0,0,0,0,0,0,0,
0,0,0,0,0,0,0,0,0,0,0,0,0,0,0,0,0,0,0,0,0,0,0,0,0,0,0,0,0,0,0,0,0,0,0,0,0,0,0,0,0,0,0,0,0,0,0,0,0,0,0,0,0,0,0,0,0,0,0,
0,0,0,0,0,0,0,0,0,0,0,0,0,0,0,0,0,0,0,0,0,0,0,0,0,0,0,0,0,0,0,0,0,0,0,0,0,0,0,0,0,0,0,0,0,0,0,0,0,0,0,0,0,0,0,0,0,0,0,
0,0,0,0,0,0,0,0,0,0,0,0,0,0,0,0,0,0,0,0,0,0,0,0,0,0,0,0,0,0,0,0,0,0,0,0,0,0,0,0,0,0,0,0,0,0,0,0,0,0,0,0,0,0,0,0,0,0,0,
0,0,0,0,0,0,0,0,0,0,0,0,0,0,0,0,0,0,0,0,0,0,0,0,0,0,0,0,0,0,0,0,0,0,0,0,0,0,0,0,0,0,0,0,0,0,0,0,0,0,0,0,0,0,0,0,0,0,0,
0,0,0,0,0,0,0,0,0,0,0,0,0,0,0,0,0,0,0,0,0,0,0,0,0,0,0,0,0,0,0,0,0,0,0,0,0,0,0,0,0,0,0,0,0,0,0,0,0,0,0,0,0,0,0,0,0,0,0,
0,0,0,0,0,0,0,0,0,0,0,0,0,0,0,0,0,0,0,0,0,0,0,0,0,0,0,0,0,0,0,0,0,0,0,0,0,0,0,0,0,0,0,0,0,0,0,0,0,0,0,0,0,0,0,0,0,0,0,
0,0,0,0,0,0,0,0,0,0,0,0,0,0,0,0,0,0,0,0,0,0,0,0,0,0,0,0,0,0,0,0,0,0,0,0,0,0,0,0,0,0,0,0,0,0,0,0,0,0,0,0,0,0,0,0,0,0,0,
0,0,0,0,0,0,0,0,0,0,0,0,0,0,0,0,0,0,0,0,0,0,0,0,0,0,0,0,0,0,0,0,0,0,0,0,0,0,0,0,0,0,0,0,0,0,0,0,0,0,0,0,0,0,0,0,0,0,0,
0,0,0,0,0,0,0,0,0,0,0,0,0,0,0,0,0,0,0,0,0,0,0,0,0,0,0,0,0,0,0,0,0,0,0,0,0,0,0,0,0,0,0,0,0,0,0,0,0,0,0,0,0,0,0,0,0,0,0,
0,0,0,0,0,0,0,0,0,0,0,0,0,0,0,0,0,0,0,0,0,0,0,0,0,0,0,0,0,0,0,0,0,0,0,0,0,0,0,0,0,0,0,0,0,0,0,0,0,0,0,0,0,0,0,0,0,0,0,
0,0,0,0,0,0,0,0,0,0,0,0,0,0,0,0,0,0,0,0,0,0,0,0,0,0,0,0,0,0,0,0,0,0,0,0,0,0,0,0,0,0,0,0,0,0,0,0,0,0,0,0,0,0,0,0,0,0,0,
0,0,0,0,0,0,0,0,0,0,0,0,0,0,0,0,0,0,0,0,0,0,0,0,0,0,0,0,0,0,0,0,0,0,0,0,0,0,0,0,0,0,0,0,0,0,0,0,0,0,0,0,0,0,0,0,0,0,0,
0,0,0,0,0,0,0,0,0,0,0,0,0,0,0,0,0,0,0,0,0,0,0,0,0,0,0,0,0,0,0,0,0,0,0,0,0,0,0,0,0,0,0,0,0,0,0,0,0,0,0,0,0,0,0,0,0,0,0,
0,0,0,0,0,0,0,0,0,0,0,0,0,0,0,0,0,0,0,0,0,0,0,0,0,0,0,0,0,0,0,0,0,0,0,0,0,0,0,0,0,0,0,0,0,0,0,0,0,0,0,0,0,0,0,0,0,0,0,
0,0,0,0,0,0,0,0,0,0,0,0,0,0,0,0,0,0,0,0,0,0,0,0,0,0,0,0,0,0,0,0,0,0,0,0,0,0,0,0,0,0,0,0,0,0,0,0,0,0,0,0,0,0,0,0,0,0,0,
0,0,0,0,0,0,0,0,0,0,0,0,0,0,0,0,0,0,0,0,0,0,0,0,0,0,0,0,0,0,0,0,0,0,0,0,0,0,0,0,0,0,0,0,0,0,0,0,0,0,0,0,0,0,0,0,0,0,0,
0,0,0,0,0,0,0,0,0,0,0,0,0,0,0,0,0,0,0,0,0,0,0,0,0,0,0,0,0,0,0,0,0,0,0,0,0,0,0,0,0,0,0,0,0,0,0,0,0,0,0,0,0,0,0,0,0,0,0,
0,0,0,0,0,0,0,0,0,0,0,0,0,0,0,0,0,0,0,0,0,0,0,0,0,0,0,0,0,0,0,0,0,0,0,0,0,0,0,0,0,0,0,0,0,0,0,0,0,0,0,0,0,0,0,0,0,0,0,
0,0,0,0,0,0,0,0,0,0,0,0,0,0,0,0,0,0,0,0,0,0,0,0,0,0,0,0,0,0,0,0,0,0,0,0,0,0,0,0,0,0,0,0,0,0,0,0,0,0,0,0,0,0,0,0,0,0,0,
0,0,0,0,0,0,0,0,0,0,0,0,0,0,0,0,0,0,0,0,0,0,0,0,0,0,0,0,0,0,0,0,0,0,0,0,0,0,0,0,0,0,0,0,0,0,0,0,0,0,0,0,0,0,0,0,0,0,0,
0,0,0,0,0,0,0,0,0,0,0,0,0,0,0,0,0,0,0,0,0,0,0,0,0,0,0,0,0,0,0,0,0,0,0,0,0,0,0,0,0,0,0,0,0,0,0,0,0,0,0,0,0,0,0,0,0,0,0,
0,0,0,0,0,0,0,0,0,0,0,0,0,0,0,0,0,0,0,0,0,0,0,0,0,0,0,0,0,0,0,0,0,0,0,0,0,0,0,0,0,0,0,0,0,0,0,0,0,0,0,0,0,0,0,0,0,0,0,
0,0,0,0,0,0,0,0,0,0,0,0,0,0,0,0,0,0,0,0,0,0,0,0,0,0,0,0,0,0,0,0,0,0,0,0,0,0,0,0,0,0,0,0,0,0,0,0,0,0,0,0,0,0,0,0,0,0,0,
0,0,0,0,0,0,0,0,0,0,0,0,0,0,0,0,0,0,0,0,0,0,0,0,0,0,0,0,0,0,0,0,0,0,0,0,0,0,0,0,0,0,0,0,0,0,0,0,0,0,0,0,0,0,0,0,0,0,0
</data>
 </layer>
 <layer id="5" name="Paths" width="59" height="36">
  <data encoding="csv">
0,0,0,0,0,0,0,0,0,0,0,0,0,0,0,0,0,0,0,0,0,0,0,0,0,0,0,0,0,0,0,0,0,0,0,0,0,0,0,0,0,0,0,0,0,0,0,0,0,0,0,0,0,0,0,0,0,0,0,
0,0,0,0,0,0,0,0,0,0,0,0,0,0,0,0,0,0,0,0,0,0,0,0,0,0,0,0,0,0,0,0,0,0,0,0,0,0,0,0,0,0,0,0,0,0,0,0,0,0,0,0,0,0,0,0,0,0,0,
0,0,0,0,1334,0,0,1334,0,0,1334,0,0,0,0,0,0,0,0,0,0,0,0,0,0,0,1334,0,0,1334,0,0,1334,0,0,0,0,0,0,0,0,0,0,0,0,0,0,0,1334,0,0,1334,0,0,1334,0,0,0,0,
0,0,0,0,0,0,0,0,0,0,0,0,0,0,0,0,0,0,0,0,0,0,0,0,0,0,0,0,0,0,0,0,0,0,0,0,0,0,0,0,0,0,0,0,0,0,0,0,0,0,0,0,0,0,0,0,0,0,0,
0,0,0,0,0,0,0,0,0,0,0,0,0,0,0,0,0,0,0,0,0,0,0,0,0,0,0,0,0,0,0,0,0,0,0,0,0,0,0,0,0,0,0,0,0,0,0,0,0,0,0,0,0,0,0,0,0,0,0,
0,0,0,0,0,0,0,0,0,0,0,0,0,0,0,0,0,0,0,0,0,0,0,0,0,0,0,0,0,0,0,0,0,0,0,0,0,0,0,0,0,0,0,0,0,0,0,0,0,0,0,0,0,0,0,1334,0,0,0,
0,0,0,0,0,0,0,0,0,0,0,0,0,0,0,0,0,0,0,0,0,0,0,0,0,0,0,0,0,0,0,0,0,0,0,0,0,0,0,0,0,0,0,0,0,0,0,1334,1334,0,1334,1334,0,0,0,0,0,0,0,
0,0,0,0,0,0,0,0,0,0,0,0,0,0,0,0,0,0,0,0,0,0,0,0,0,0,0,0,0,0,0,0,0,0,0,0,0,0,0,0,0,0,0,0,0,0,0,1334,1334,0,1334,1334,0,0,0,0,0,0,0,
0,0,0,0,0,0,0,0,0,0,0,0,0,0,0,0,0,0,0,0,0,0,0,0,0,0,0,0,0,0,0,0,0,0,0,0,0,0,0,0,0,0,0,0,0,0,0,0,0,0,0,0,0,0,0,0,0,0,0,
0,0,0,0,0,0,0,0,0,0,0,0,0,0,0,0,0,0,0,0,0,0,0,0,0,0,0,0,0,0,0,0,0,0,0,0,0,0,0,0,0,0,0,0,0,0,0,0,0,0,0,0,0,0,0,0,0,0,0,
0,0,0,0,0,0,0,0,0,0,0,0,0,0,0,0,0,0,0,0,0,0,0,0,0,0,0,0,0,0,0,0,0,0,0,0,0,0,0,0,0,0,0,0,0,0,0,0,0,0,0,0,0,0,0,0,0,0,0,
0,0,0,0,0,0,0,0,0,0,0,0,0,0,0,0,0,0,0,0,0,0,0,0,0,0,0,0,0,0,0,0,0,0,0,0,0,0,0,0,0,0,0,0,0,0,0,0,0,0,0,0,0,0,0,0,0,0,0,
0,0,0,0,0,0,0,0,0,0,0,0,0,0,0,0,0,0,0,0,0,0,0,0,0,0,0,0,0,0,0,0,0,0,0,0,0,0,0,0,0,0,0,0,0,0,0,0,0,0,0,0,0,0,0,0,0,0,0,
0,0,0,1334,1334,0,0,1334,1334,0,0,0,1334,0,0,0,0,0,0,0,0,0,0,0,0,0,0,0,0,0,0,0,0,0,0,0,0,0,0,0,0,0,0,0,0,0,0,0,1334,1334,0,0,0,0,1334,1334,0,0,0,
0,0,0,1334,1334,0,0,1334,1334,0,0,0,0,0,0,0,0,0,0,0,0,0,0,0,0,0,0,0,1334,1334,1334,0,0,0,0,0,0,0,0,0,0,0,0,0,0,0,0,0,1334,1334,0,0,0,0,1334,1334,0,0,0,
0,0,0,0,0,0,0,0,0,0,0,0,0,0,0,0,0,0,0,0,0,0,0,0,0,0,0,0,1334,1334,1334,0,0,0,0,0,0,0,0,0,0,0,0,0,0,0,0,0,0,0,0,0,0,0,0,0,0,0,0,
0,0,0,0,0,0,0,0,0,0,0,0,1334,0,0,0,0,0,0,0,0,0,0,0,0,0,0,0,1334,1334,1334,0,0,0,0,0,0,0,0,0,0,0,0,0,0,0,0,0,0,0,0,0,0,0,0,0,0,0,0,
0,0,0,0,0,0,0,0,0,0,0,0,0,0,0,0,0,0,0,0,0,0,0,0,0,0,0,0,0,0,0,0,0,0,0,0,0,0,0,0,0,0,0,0,0,0,0,0,0,0,0,0,0,0,1334,1334,0,0,0,
0,0,0,0,1334,0,0,0,0,0,0,0,0,0,0,0,0,0,0,0,0,0,0,0,0,0,0,0,0,0,0,0,0,0,0,0,0,0,0,0,0,0,0,0,0,0,0,0,1334,0,0,0,0,0,1334,1334,0,0,0,
0,0,0,0,0,0,0,0,0,0,0,0,1334,0,0,0,0,0,0,0,0,0,0,0,0,0,0,0,0,0,0,0,0,0,0,0,0,0,0,0,0,0,0,0,0,0,0,0,0,0,0,0,0,0,0,0,0,0,0,
0,0,0,0,0,0,0,0,0,0,0,0,0,0,0,0,0,0,0,0,0,0,0,0,0,0,0,0,0,0,0,0,0,0,0,0,0,0,0,0,0,0,0,0,0,0,0,0,0,0,0,0,0,0,0,0,0,0,0,
0,0,0,0,0,0,0,0,0,0,0,0,0,0,0,0,0,0,0,0,0,0,0,0,0,0,0,0,0,0,0,0,0,0,0,0,0,0,0,0,0,0,0,0,0,0,0,0,0,0,0,0,0,0,0,0,0,0,0,
0,0,0,0,1334,0,0,0,0,0,1334,0,0,0,0,1334,0,0,1334,0,0,1334,0,0,0,0,1334,0,0,0,0,0,1334,0,0,0,0,1334,0,0,0,0,0,1334,0,0,0,0,1334,0,0,0,0,0,1334,0,0,0,0,
0,0,0,0,0,0,0,0,0,0,0,0,0,0,0,0,0,0,0,0,0,0,0,0,0,0,0,0,0,0,0,0,0,0,0,0,0,0,0,0,0,0,0,0,0,0,0,0,0,0,0,0,0,0,0,0,0,0,0,
0,0,0,0,0,0,0,0,0,0,0,0,0,0,0,0,0,0,0,0,0,0,0,0,0,0,0,0,0,0,0,0,0,0,0,0,0,0,0,0,0,0,0,0,0,0,0,0,0,0,0,0,0,0,0,0,0,0,0,
0,0,1334,0,1334,0,0,1334,0,0,1334,0,1334,1334,0,1334,0,0,1334,0,0,1334,0,1334,1334,0,1334,0,0,1334,0,0,1334,0,1334,1334,0,1334,0,0,1334,0,0,1334,0,1334,1334,0,1334,0,0,1334,0,0,1334,0,1334,0,0,
0,0,1334,0,0,0,0,0,0,0,0,0,1334,1334,0,0,0,0,0,0,0,0,0,1334,1334,0,0,0,0,0,0,0,0,0,1334,1334,0,0,0,0,0,0,0,0,0,1334,1334,0,0,0,0,0,0,0,0,0,1334,0,0,
0,0,0,0,0,0,0,0,0,0,0,0,0,0,0,0,0,0,0,0,0,0,0,0,0,0,0,0,0,0,0,0,0,0,0,0,0,0,0,0,0,0,0,0,0,0,0,0,0,0,0,0,0,0,0,0,0,0,0,
0,0,0,0,1334,0,0,1334,0,0,1334,0,0,0,0,1334,0,0,1334,0,0,1334,0,0,0,0,1334,0,0,1334,0,0,1334,0,0,0,0,1334,0,0,1334,0,0,1334,0,0,0,0,1334,0,0,1334,0,0,1334,0,0,0,0,
0,0,0,0,0,0,0,0,0,0,0,0,0,0,0,0,0,0,0,0,0,0,0,0,0,0,0,0,0,0,0,0,0,0,0,0,0,0,0,0,0,0,0,0,0,0,0,0,0,0,0,0,0,0,0,0,0,0,0,
0,0,0,0,0,0,0,0,0,0,0,0,0,0,0,0,0,0,0,0,0,0,0,0,0,0,0,0,0,0,0,0,0,0,0,0,0,0,0,0,0,0,0,0,0,0,0,0,0,0,0,0,0,0,0,0,0,0,0,
0,0,0,0,0,0,0,0,0,0,0,0,0,0,0,0,0,0,0,0,0,0,0,0,0,0,0,0,0,0,0,0,0,0,0,0,0,0,0,0,0,0,0,0,0,0,0,0,0,0,0,0,0,0,0,0,0,0,0,
0,0,0,0,0,0,0,0,0,0,0,0,0,0,0,0,0,0,0,0,0,0,0,0,0,0,0,0,0,0,0,0,0,0,0,0,0,0,0,0,0,0,0,0,0,0,0,0,0,0,0,0,0,0,0,0,0,0,0,
0,0,0,0,0,0,0,0,0,0,0,0,0,0,0,0,0,0,0,0,0,0,0,0,0,0,0,0,0,0,0,0,0,0,0,0,0,0,0,0,0,0,0,0,0,0,0,0,0,0,0,0,0,0,0,0,0,0,0,
0,0,0,0,0,0,0,0,0,0,0,0,0,0,0,0,0,0,0,0,0,0,0,0,0,0,0,0,0,0,0,0,0,0,0,0,0,0,0,0,0,0,0,0,0,0,0,0,0,0,0,0,0,0,0,0,0,0,0,
0,0,0,0,0,0,0,0,0,0,0,0,0,0,0,0,0,0,0,0,0,0,0,0,0,0,0,0,0,0,0,0,0,0,0,0,0,0,0,0,0,0,0,0,0,0,0,0,0,0,0,0,0,0,0,0,0,0,0
</data>
 </layer>
 <layer id="3" name="Front" width="59" height="36">
  <data encoding="csv">
0,0,0,0,0,0,0,0,0,0,0,0,0,0,0,0,0,0,0,0,0,0,0,0,0,0,0,0,0,0,0,0,0,0,0,0,0,0,0,0,0,0,0,0,0,0,0,0,0,0,0,0,0,0,0,0,0,0,0,
0,0,0,0,1587,0,0,1587,0,0,1587,0,0,0,0,0,0,0,0,0,0,0,0,0,0,0,1587,0,0,1587,0,0,1587,0,0,0,0,0,0,0,0,0,0,0,0,0,0,0,1587,0,0,1587,0,0,1587,0,0,0,0,
0,0,0,0,1619,0,0,1619,0,0,1619,0,0,0,0,0,0,0,0,0,0,0,0,0,0,0,1619,0,0,1619,0,0,1619,0,0,0,0,0,0,0,0,0,0,0,0,0,0,0,1619,0,16124,1619,0,0,1619,0,0,0,0,
0,0,0,14797,0,0,0,0,13469,14588,14589,0,0,0,0,0,0,0,0,0,0,0,0,0,0,0,0,0,0,0,0,0,0,0,0,0,0,0,0,0,0,0,0,0,0,0,0,0,0,0,0,13214,13254,13255,14783,14784,0,0,0,
0,0,14796,0,15599,15600,15601,0,0,0,0,0,6446,0,0,0,0,0,0,0,0,0,0,0,0,0,0,0,0,0,0,0,0,0,0,0,0,0,0,0,0,0,0,0,0,0,14184,16043,16044,16045,0,0,0,0,0,0,2025,0,0,
0,0,0,0,0,0,0,0,0,0,0,0,0,0,0,0,0,0,0,0,0,0,0,0,0,0,0,0,0,0,0,0,0,0,0,0,0,0,0,0,0,0,0,0,0,0,0,0,0,0,0,0,0,0,0,0,0,0,0,
0,0,134,6407,0,0,13470,0,0,0,0,0,130,0,0,0,0,0,0,0,0,0,0,0,134,0,0,0,0,0,0,0,0,0,130,0,0,0,0,0,0,0,0,0,0,0,134,0,0,14945,0,0,14945,0,0,13476,130,0,0,
0,0,0,0,0,0,132,0,0,0,131,131,0,0,0,0,0,0,0,0,0,0,0,0,0,131,131,131,131,131,131,131,0,131,0,0,0,0,0,0,0,0,0,0,0,0,0,131,131,131,131,131,131,131,0,131,0,0,0,
0,0,0,0,0,0,0,0,0,0,0,0,0,0,0,0,0,0,0,0,0,0,0,0,0,0,0,0,0,0,0,0,0,0,0,0,0,0,0,0,0,0,0,0,0,0,0,0,0,0,0,0,0,0,0,0,0,0,0,
0,0,0,0,0,0,0,0,0,0,0,0,0,0,0,0,0,0,0,0,0,0,0,0,0,0,0,0,0,0,0,0,0,0,0,0,0,0,0,0,0,0,0,0,0,0,0,0,0,0,0,0,0,0,0,0,0,0,0,
0,0,0,0,0,0,0,0,0,0,0,0,0,0,0,0,0,0,0,0,0,0,0,0,0,0,0,0,0,0,0,0,0,0,0,0,0,0,0,0,0,0,0,0,0,0,0,0,0,0,0,0,0,0,0,0,0,0,0,
0,0,0,6587,6588,6589,6590,6591,1825,0,0,2708,0,0,0,0,0,0,0,0,0,0,0,0,0,0,0,0,0,0,0,0,0,0,0,0,0,0,0,0,0,0,0,0,0,0,0,13214,14968,14969,14970,5156,5157,10976,0,0,0,0,0,
0,0,2098,0,0,0,0,0,0,0,0,0,0,0,0,0,0,0,0,0,0,0,0,0,0,0,0,0,0,0,0,0,0,0,0,0,0,0,0,0,0,0,0,0,0,0,0,0,0,0,0,0,0,0,0,0,0,0,0,
0,0,0,0,0,0,0,0,0,0,0,0,6349,0,0,0,0,0,0,0,0,0,0,0,0,0,0,0,0,0,0,0,0,0,0,0,0,0,0,0,0,0,0,0,0,0,5209,13672,14592,14593,0,0,0,0,0,0,0,0,0,
0,0,0,0,0,0,0,0,0,0,0,0,0,0,0,0,0,0,0,0,0,0,0,0,0,0,0,0,0,0,0,0,0,0,0,0,0,0,0,0,0,0,0,0,0,0,0,0,0,0,0,0,0,0,0,0,5209,0,0,
0,0,1693,0,0,0,0,0,0,0,0,0,6349,0,0,0,0,0,0,0,0,0,0,0,0,0,0,0,0,0,0,0,0,0,0,0,0,0,0,0,0,0,0,0,0,0,0,0,13673,13674,0,0,0,0,0,0,0,0,0,
0,0,14174,1722,0,0,0,0,0,0,0,0,0,0,0,0,0,0,0,0,0,0,0,0,0,0,0,0,0,0,0,0,0,0,0,0,0,0,0,0,0,0,0,0,0,0,0,0,0,0,0,0,0,0,0,0,0,0,0,
0,0,0,1985,1986,1987,0,0,0,0,0,0,6219,0,0,0,0,0,0,0,0,0,0,0,0,0,0,0,0,0,0,0,0,0,0,0,0,0,0,0,0,0,0,0,0,0,10976,0,0,0,0,0,14943,0,0,13474,0,0,0,
0,0,134,0,0,0,130,0,134,14521,14522,14523,130,0,0,0,0,0,0,0,0,0,0,0,134,0,0,0,130,0,134,0,0,0,130,0,0,0,0,0,0,0,0,0,0,0,134,7517,7518,9649,130,0,134,16798,16799,16800,130,0,0,
0,0,0,0,0,131,0,0,0,131,131,131,0,0,0,0,0,0,0,0,0,0,0,0,0,131,131,131,131,131,131,131,131,131,0,0,0,0,0,0,0,0,0,0,0,0,0,131,131,131,131,131,131,131,131,131,0,0,0,
0,0,0,0,0,0,0,0,0,0,0,0,0,0,0,0,0,0,0,0,0,0,0,0,0,0,0,0,0,0,0,0,0,0,0,0,0,0,0,0,0,0,0,0,0,0,0,0,0,0,0,0,0,0,0,0,0,0,0,
0,0,0,0,0,0,0,0,0,0,0,0,0,0,0,0,0,0,0,0,0,0,0,0,0,0,0,0,0,0,0,0,0,0,0,0,0,0,0,0,0,0,0,0,0,0,0,0,0,0,0,0,0,0,0,0,0,0,0,
0,0,0,0,2706,0,0,0,0,0,2706,0,0,0,0,2706,0,0,2706,0,0,2706,0,0,0,0,2706,0,0,0,0,0,2706,0,0,0,0,2706,0,0,0,0,0,2706,0,0,0,0,2706,0,0,0,0,0,2706,0,0,0,0,
0,0,0,0,0,0,0,0,0,0,0,0,0,0,0,0,0,0,0,0,0,0,0,0,0,0,0,0,0,0,0,0,0,0,0,0,0,0,0,0,0,0,0,0,0,0,0,0,0,0,0,0,0,0,0,0,0,0,0,
0,0,0,0,0,0,0,0,0,0,0,0,0,0,0,0,0,0,0,0,0,0,0,0,0,0,0,0,0,0,0,0,0,0,0,0,0,0,0,0,0,0,0,0,0,0,0,0,0,0,0,0,0,0,0,0,0,0,0,
0,0,0,0,0,0,0,0,0,0,0,0,0,0,0,0,0,0,0,0,0,0,0,0,0,0,0,0,0,0,0,0,0,0,0,0,0,0,0,0,0,0,0,0,0,0,0,0,0,0,0,0,0,0,0,0,0,0,0,
0,0,0,0,0,0,0,0,0,0,0,0,0,0,0,0,0,0,0,0,0,0,0,0,0,0,0,0,0,0,0,0,0,0,0,0,0,0,0,0,0,0,0,0,0,0,0,0,0,0,0,0,0,0,0,0,0,0,0,
0,0,134,0,0,0,0,0,0,0,0,0,130,134,0,0,0,0,0,0,0,0,0,130,134,0,0,0,0,0,0,0,0,0,130,134,0,0,0,0,0,0,0,0,0,130,134,0,0,0,0,0,0,0,0,0,130,0,0,
0,0,0,131,131,131,134,0,130,131,131,131,0,0,131,131,131,131,131,131,131,131,131,0,0,131,131,131,134,0,130,131,131,131,0,0,131,131,131,131,131,131,131,131,131,0,0,131,131,131,134,0,130,131,131,131,0,0,0,
0,0,0,0,0,0,0,131,0,0,0,0,0,0,0,0,0,0,0,0,0,0,0,0,0,0,0,0,0,131,0,0,0,0,0,0,0,0,0,0,0,0,0,0,0,0,0,0,0,0,0,131,0,0,0,0,0,0,0,
0,0,0,0,0,0,0,0,0,0,0,0,0,0,0,0,0,0,0,0,0,0,0,0,0,0,0,0,0,0,0,0,0,0,0,0,0,0,0,0,0,0,0,0,0,0,0,0,0,0,0,0,0,0,0,0,0,0,0,
0,0,0,0,0,0,0,0,0,0,0,0,0,0,0,0,0,0,0,0,0,0,0,0,0,0,0,0,0,0,0,0,0,0,0,0,0,0,0,0,0,0,0,0,0,0,0,0,0,0,0,0,0,0,0,0,0,0,0,
0,0,0,0,0,0,0,0,0,0,0,0,0,0,0,0,0,0,0,0,0,0,0,0,0,0,0,0,0,0,0,0,0,0,0,0,0,0,0,0,0,0,0,0,0,0,0,0,0,0,0,0,0,0,0,0,0,0,0,
0,0,0,0,0,0,0,0,0,0,0,0,0,0,0,0,0,0,0,0,0,0,0,0,0,0,0,0,0,0,0,0,0,0,0,0,0,0,0,0,0,0,0,0,0,0,0,0,0,0,0,0,0,0,0,0,0,0,0,
0,0,0,0,0,0,0,0,0,0,0,0,0,0,0,0,0,0,0,0,0,0,0,0,0,0,0,0,0,0,0,0,0,0,0,0,0,0,0,0,0,0,0,0,0,0,0,0,0,0,0,0,0,0,0,0,0,0,0,
0,0,0,0,0,0,0,0,0,0,0,0,0,0,0,0,0,0,0,0,0,0,0,0,0,0,0,0,0,0,0,0,0,0,0,0,0,0,0,0,0,0,0,0,0,0,0,0,0,0,0,0,0,0,0,0,0,0,0
</data>
 </layer>
 <layer id="17" name="Front2" width="59" height="36">
  <data encoding="csv">
0,0,0,0,0,0,0,0,0,0,0,0,0,0,0,0,0,0,0,0,0,0,0,0,0,0,0,0,0,0,0,0,0,0,0,0,0,0,0,0,0,0,0,0,0,0,0,0,0,0,0,0,0,0,0,0,0,0,0,
0,0,0,0,0,0,0,0,0,0,0,0,0,0,0,0,0,0,0,0,0,0,0,0,0,0,0,0,0,0,0,0,0,0,0,0,0,0,0,0,0,0,0,0,0,0,0,0,0,0,0,0,0,0,0,0,0,0,0,
0,0,0,0,15532,15533,15534,0,0,0,0,0,0,0,0,0,0,0,0,0,0,0,0,0,0,0,0,0,0,0,0,0,0,0,0,0,0,0,0,0,0,0,0,0,0,0,0,15976,15977,15978,0,0,0,0,0,0,0,0,0,
0,0,0,0,0,0,0,0,0,0,0,0,0,0,0,0,0,0,0,0,0,0,0,0,0,0,0,0,0,0,0,0,0,0,0,0,0,0,0,0,0,0,0,0,0,0,0,0,0,0,0,0,0,0,0,0,0,0,0,
0,0,0,0,0,0,0,0,0,0,0,0,0,0,0,0,0,0,0,0,0,0,0,0,0,0,0,0,0,0,0,0,0,0,0,0,0,0,0,0,0,0,0,0,0,0,0,0,0,0,0,0,0,0,0,0,0,0,0,
0,0,0,6375,0,0,0,0,0,0,0,0,0,0,0,0,0,0,0,0,0,0,0,0,0,0,0,0,0,0,0,0,0,0,0,0,0,0,0,0,0,0,0,0,0,0,0,0,0,0,0,0,0,0,0,0,0,0,0,
0,0,0,0,0,0,0,0,0,0,0,0,0,0,0,0,0,0,0,0,0,0,0,0,0,0,0,0,0,0,0,0,0,0,0,0,0,0,0,0,0,0,0,0,0,0,0,0,0,0,0,0,0,0,0,0,0,0,0,
0,0,0,0,0,0,0,0,0,0,0,0,0,0,0,0,0,0,0,0,0,0,0,0,0,0,0,0,0,0,0,0,0,0,0,0,0,0,0,0,0,0,0,0,0,0,0,0,0,0,0,0,0,0,0,0,0,0,0,
0,0,0,0,0,0,0,0,0,0,0,0,0,0,0,0,0,0,0,0,0,0,0,0,0,0,0,0,0,0,0,0,0,0,0,0,0,0,0,0,0,0,0,0,0,0,0,0,0,0,0,0,0,0,0,0,0,0,0,
0,0,0,0,0,0,0,0,0,0,0,0,0,0,0,0,0,0,0,0,0,0,0,0,0,0,0,0,0,0,0,0,0,0,0,0,0,0,0,0,0,0,0,0,0,0,0,0,0,0,0,0,0,0,0,0,0,0,0,
0,0,0,0,0,0,0,0,0,0,0,0,0,0,0,0,0,0,0,0,0,0,0,0,0,0,0,0,0,0,0,0,0,0,0,0,0,0,0,0,0,0,0,0,0,0,0,0,0,0,0,0,0,0,0,0,0,0,0,
0,0,0,2392,0,0,0,0,0,0,0,0,0,0,0,0,0,0,0,0,0,0,0,0,0,0,0,0,0,0,0,0,0,0,0,0,0,0,0,0,0,0,0,0,0,0,0,0,0,0,0,0,0,0,0,0,0,0,0,
0,0,0,0,0,0,0,0,0,0,0,0,0,0,0,0,0,0,0,0,0,0,0,0,0,0,0,0,0,0,0,0,0,0,0,0,0,0,0,0,0,0,0,0,0,0,0,0,0,0,0,0,0,0,0,0,0,0,0,
0,0,0,0,0,0,0,0,0,0,0,0,0,0,0,0,0,0,0,0,0,0,0,0,0,0,0,0,0,0,0,0,0,0,0,0,0,0,0,0,0,0,0,0,0,0,0,0,0,0,0,0,0,0,0,0,0,0,0,
0,0,0,0,0,0,0,0,0,0,0,0,0,0,0,0,0,0,0,0,0,0,0,0,0,0,0,0,0,0,0,0,0,0,0,0,0,0,0,0,0,0,0,0,0,0,0,0,0,0,0,0,0,0,0,0,0,0,0,
0,0,0,0,0,0,0,0,0,0,0,0,0,0,0,0,0,0,0,0,0,0,0,0,0,0,0,0,0,0,0,0,0,0,0,0,0,0,0,0,0,0,0,0,0,0,0,0,0,0,0,0,0,0,0,0,0,0,0,
0,0,0,0,0,0,0,0,0,0,0,0,0,0,0,0,0,0,0,0,0,0,0,0,0,0,0,0,0,0,0,0,0,0,0,0,0,0,0,0,0,0,0,0,0,0,0,0,0,0,0,0,0,0,0,0,0,0,0,
0,0,0,0,0,0,0,0,0,0,0,0,0,0,0,0,0,0,0,0,0,0,0,0,0,0,0,0,0,0,0,0,0,0,0,0,0,0,0,0,0,0,0,0,0,0,0,0,0,0,0,0,0,0,0,0,0,0,0,
0,0,0,0,0,0,0,0,0,0,0,0,0,0,0,0,0,0,0,0,0,0,0,0,0,0,0,0,0,0,0,0,0,0,0,0,0,0,0,0,0,0,0,0,0,0,0,0,0,0,0,0,0,0,0,0,0,0,0,
0,0,0,0,0,0,0,0,0,0,0,0,0,0,0,0,0,0,0,0,0,0,0,0,0,0,0,0,0,0,0,0,0,0,0,0,0,0,0,0,0,0,0,0,0,0,0,0,0,0,0,0,0,0,0,0,0,0,0,
0,0,0,0,0,0,0,0,0,0,0,0,0,0,0,0,0,0,0,0,0,0,0,0,0,0,0,0,0,0,0,0,0,0,0,0,0,0,0,0,0,0,0,0,0,0,0,0,0,0,0,0,0,0,0,0,0,0,0,
0,0,0,0,0,0,0,0,0,0,0,0,0,0,0,0,0,0,0,0,0,0,0,0,0,0,0,0,0,0,0,0,0,0,0,0,0,0,0,0,0,0,0,0,0,0,0,0,0,0,0,0,0,0,0,0,0,0,0,
0,0,0,0,0,0,0,0,0,0,0,0,0,0,0,0,0,0,0,0,0,0,0,0,0,0,0,0,0,0,0,0,0,0,0,0,0,0,0,0,0,0,0,0,0,0,0,0,0,0,0,0,0,0,0,0,0,0,0,
0,0,0,0,0,0,0,0,0,0,0,0,0,0,0,0,0,0,0,0,0,0,0,0,0,0,0,0,0,0,0,0,0,0,0,0,0,0,0,0,0,0,0,0,0,0,0,0,0,0,0,0,0,0,0,0,0,0,0,
0,0,0,0,0,0,0,0,0,0,0,0,0,0,0,0,0,0,0,0,0,0,0,0,0,0,0,0,0,0,0,0,0,0,0,0,0,0,0,0,0,0,0,0,0,0,0,0,0,0,0,0,0,0,0,0,0,0,0,
0,0,0,0,0,0,0,0,0,0,0,0,0,0,0,0,0,0,0,0,0,0,0,0,0,0,0,0,0,0,0,0,0,0,0,0,0,0,0,0,0,0,0,0,0,0,0,0,0,0,0,0,0,0,0,0,0,0,0,
0,0,0,0,0,0,0,0,0,0,0,0,0,0,0,0,0,0,0,0,0,0,0,0,0,0,0,0,0,0,0,0,0,0,0,0,0,0,0,0,0,0,0,0,0,0,0,0,0,0,0,0,0,0,0,0,0,0,0,
0,0,0,0,0,0,0,0,0,0,0,0,0,0,0,0,0,0,0,0,0,0,0,0,0,0,0,0,0,0,0,0,0,0,0,0,0,0,0,0,0,0,0,0,0,0,0,0,0,0,0,0,0,0,0,0,0,0,0,
0,0,0,0,0,0,0,0,0,0,0,0,0,0,0,0,0,0,0,0,0,0,0,0,0,0,0,0,0,0,0,0,0,0,0,0,0,0,0,0,0,0,0,0,0,0,0,0,0,0,0,0,0,0,0,0,0,0,0,
0,0,0,0,0,0,0,0,0,0,0,0,0,0,0,0,0,0,0,0,0,0,0,0,0,0,0,0,0,0,0,0,0,0,0,0,0,0,0,0,0,0,0,0,0,0,0,0,0,0,0,0,0,0,0,0,0,0,0,
0,0,0,0,0,0,0,0,0,0,0,0,0,0,0,0,0,0,0,0,0,0,0,0,0,0,0,0,0,0,0,0,0,0,0,0,0,0,0,0,0,0,0,0,0,0,0,0,0,0,0,0,0,0,0,0,0,0,0,
0,0,0,0,0,0,0,0,0,0,0,0,0,0,0,0,0,0,0,0,0,0,0,0,0,0,0,0,0,0,0,0,0,0,0,0,0,0,0,0,0,0,0,0,0,0,0,0,0,0,0,0,0,0,0,0,0,0,0,
0,0,0,0,0,0,0,0,0,0,0,0,0,0,0,0,0,0,0,0,0,0,0,0,0,0,0,0,0,0,0,0,0,0,0,0,0,0,0,0,0,0,0,0,0,0,0,0,0,0,0,0,0,0,0,0,0,0,0,
0,0,0,0,0,0,0,0,0,0,0,0,0,0,0,0,0,0,0,0,0,0,0,0,0,0,0,0,0,0,0,0,0,0,0,0,0,0,0,0,0,0,0,0,0,0,0,0,0,0,0,0,0,0,0,0,0,0,0,
0,0,0,0,0,0,0,0,0,0,0,0,0,0,0,0,0,0,0,0,0,0,0,0,0,0,0,0,0,0,0,0,0,0,0,0,0,0,0,0,0,0,0,0,0,0,0,0,0,0,0,0,0,0,0,0,0,0,0,
0,0,0,0,0,0,0,0,0,0,0,0,0,0,0,0,0,0,0,0,0,0,0,0,0,0,0,0,0,0,0,0,0,0,0,0,0,0,0,0,0,0,0,0,0,0,0,0,0,0,0,0,0,0,0,0,0,0,0
</data>
 </layer>
 <layer id="1" name="AlwaysFront" width="59" height="36">
  <data encoding="csv">
0,0,0,0,0,0,0,0,0,0,0,0,0,0,0,0,0,0,0,0,0,0,0,0,0,0,0,0,0,0,0,0,0,0,0,0,0,0,0,0,0,0,0,0,0,0,0,0,0,0,0,0,0,0,0,0,0,0,0,
0,0,0,0,0,0,0,0,0,0,0,0,0,0,0,0,0,0,0,0,0,0,0,0,0,0,0,0,0,0,0,0,0,0,0,0,0,0,0,0,0,0,0,0,0,0,0,0,0,0,0,0,0,0,0,0,0,0,0,
0,0,0,14765,0,0,0,0,0,0,0,0,0,0,0,0,0,0,0,0,0,0,0,0,0,0,0,0,0,0,0,0,0,0,0,0,0,0,0,0,0,0,0,0,0,0,0,0,0,0,0,0,13241,13242,14751,14752,0,0,0,
0,0,14764,0,0,15568,15569,0,0,0,0,0,0,0,0,0,0,0,0,0,0,0,0,0,0,0,0,0,0,0,0,0,0,0,0,0,0,0,0,0,0,0,0,0,0,0,0,16011,16012,16013,0,0,0,0,0,0,0,0,0,
0,0,0,0,0,0,0,0,0,0,0,0,0,0,0,0,0,0,0,0,0,0,0,0,0,0,0,0,0,0,0,0,0,0,0,0,0,0,0,0,0,0,0,0,0,0,0,0,0,0,0,0,0,0,0,0,0,0,0,
0,0,0,0,0,0,0,0,0,0,0,0,0,0,0,0,0,0,0,0,0,0,0,0,0,0,0,0,0,0,0,0,0,0,0,0,0,0,0,0,0,0,0,0,0,0,0,0,0,14913,0,0,14913,0,0,0,0,0,0,
0,0,0,0,0,0,0,0,0,0,0,0,0,0,0,0,0,0,0,0,0,0,0,0,0,0,0,0,0,0,0,0,0,0,0,0,0,0,0,0,0,0,0,0,0,0,0,0,0,0,0,0,0,0,0,0,0,0,0,
0,0,0,132,132,132,0,132,132,131,131,131,0,0,0,0,0,0,0,0,0,0,0,0,0,0,0,0,0,0,0,131,131,131,0,0,0,0,0,0,0,0,0,0,0,0,0,0,0,0,0,0,0,131,131,131,0,0,0,
0,0,0,0,0,0,0,0,0,28,32,28,0,0,0,0,0,0,0,0,0,0,0,0,0,0,0,0,0,0,0,28,32,28,0,0,0,0,0,0,0,0,0,0,0,0,0,0,0,0,0,0,0,28,32,28,0,0,0,
0,0,0,0,0,0,0,0,0,0,0,0,0,0,0,0,0,0,0,0,0,0,0,0,0,0,0,0,0,0,0,0,0,0,0,0,0,0,0,0,0,0,0,0,0,0,0,0,0,0,0,0,0,0,0,0,0,0,0,
0,0,0,0,0,0,0,0,0,0,0,0,0,0,0,0,0,0,0,0,0,0,0,0,0,0,0,0,0,0,0,0,0,0,0,0,0,0,0,0,0,0,0,0,0,0,0,0,14936,14937,14938,0,0,10950,0,0,0,0,0,
0,0,0,0,0,0,0,0,0,0,0,0,0,0,0,0,0,0,0,0,0,0,0,0,0,0,0,0,0,0,0,0,0,0,0,0,0,0,0,0,0,0,0,0,0,0,0,0,0,0,0,0,0,0,0,0,0,0,0,
0,0,0,0,0,0,0,0,0,0,0,0,0,0,0,0,0,0,0,0,0,0,0,0,0,0,0,0,0,0,0,0,0,0,0,0,0,0,0,0,0,0,0,0,0,0,0,0,0,0,0,0,0,0,0,0,0,0,0,
0,0,0,0,0,0,0,0,0,0,0,0,0,0,0,0,0,0,0,0,0,0,0,0,0,0,0,0,0,0,0,0,0,0,0,0,0,0,0,0,0,0,0,0,0,0,0,0,0,0,0,0,0,0,0,0,0,0,0,
0,0,0,0,0,0,0,0,0,0,0,0,0,0,0,0,0,0,0,0,0,0,0,0,0,0,0,0,0,0,0,0,0,0,0,0,0,0,0,0,0,0,0,0,0,0,0,0,0,0,0,0,0,0,0,0,0,0,0,
0,0,0,0,0,0,0,0,0,0,0,0,0,0,0,0,0,0,0,0,0,0,0,0,0,0,0,0,0,0,0,0,0,0,0,0,0,0,0,0,0,0,0,0,0,0,0,0,0,0,0,0,0,0,0,0,0,0,0,
0,0,0,0,0,0,0,0,0,14457,14458,14459,6187,0,0,0,0,0,0,0,0,0,0,0,0,0,0,0,0,0,0,0,0,0,0,0,0,0,0,0,0,0,0,0,0,0,10950,0,0,0,0,0,14911,0,0,0,0,0,0,
0,0,0,0,0,0,0,0,0,14489,14490,14491,0,0,0,0,0,0,0,0,0,0,0,0,0,0,0,0,0,0,0,0,0,0,0,0,0,0,0,0,0,0,0,0,0,0,0,7491,7492,9623,0,0,0,0,0,0,0,0,0,
0,0,0,0,0,0,0,131,0,0,0,0,0,0,0,0,0,0,0,0,0,0,0,0,0,0,0,0,0,131,0,0,0,0,0,0,0,0,0,0,0,0,0,0,0,0,0,0,0,0,0,131,0,0,0,0,0,0,0,
0,0,0,131,131,0,104,78,102,0,0,0,0,0,0,0,0,78,78,78,0,0,0,0,0,0,0,0,104,78,102,0,0,0,0,0,0,0,78,78,78,78,78,0,0,0,0,0,0,131,104,78,102,131,0,0,0,0,0,
0,0,0,0,0,32,32,32,32,0,0,0,0,0,0,0,56,56,56,56,56,0,0,0,0,0,0,32,32,32,32,32,0,0,0,0,0,0,56,56,57,58,58,0,0,0,0,0,0,28,32,32,32,32,0,0,0,0,0,
0,0,0,0,0,0,0,0,0,0,0,0,0,0,0,0,0,0,0,0,0,0,0,0,0,0,0,0,0,0,0,0,0,0,0,0,0,0,0,0,0,0,0,0,0,0,0,0,0,0,0,0,0,0,0,0,0,0,0,
0,0,0,0,0,0,0,0,0,0,0,0,0,0,0,0,0,0,0,0,0,0,0,0,0,0,0,0,0,0,0,0,0,0,0,0,0,0,0,0,0,0,0,0,0,0,0,0,0,0,0,0,0,0,0,0,0,0,0,
0,0,0,0,0,0,0,0,0,0,0,0,0,0,0,0,0,0,0,0,0,0,0,0,0,0,0,0,0,0,0,0,0,0,0,0,0,0,0,0,0,0,0,0,0,0,0,0,0,0,0,0,0,0,0,0,0,0,0,
0,0,0,0,0,0,0,0,0,0,0,0,0,0,0,0,0,0,0,0,0,0,0,0,0,0,0,0,0,0,0,0,0,0,0,0,0,0,0,0,0,0,0,0,0,0,0,0,0,0,0,0,0,0,0,0,0,0,0,
0,0,0,0,0,0,0,0,0,0,0,0,0,0,0,0,0,0,0,0,0,0,0,0,0,0,0,0,0,0,0,0,0,0,0,0,0,0,0,0,0,0,0,0,0,0,0,0,0,0,0,0,0,0,0,0,0,0,0,
0,0,0,0,0,0,0,0,0,0,0,0,0,0,0,0,0,0,0,0,0,0,0,0,0,0,0,0,0,0,0,0,0,0,0,0,0,0,0,0,0,0,0,0,0,0,0,0,0,0,0,0,0,0,0,0,0,0,0,
0,0,0,0,0,0,0,0,0,0,0,0,0,0,0,0,0,0,0,0,0,0,0,0,0,0,0,0,0,0,0,0,0,0,0,0,0,0,0,0,0,0,0,0,0,0,0,0,0,0,0,0,0,0,0,0,0,0,0,
0,0,0,0,0,0,0,0,0,0,0,0,0,0,0,0,0,0,0,0,0,0,0,0,0,0,0,0,0,0,0,0,0,0,0,0,0,0,0,0,0,0,0,0,0,0,0,0,0,0,0,0,0,0,0,0,0,0,0,
0,0,0,0,0,0,0,0,0,0,0,0,0,0,0,0,0,0,0,0,0,0,0,0,0,0,0,0,0,0,0,0,0,0,0,0,0,0,0,0,0,0,0,0,0,0,0,0,0,0,0,0,0,0,0,0,0,0,0,
0,0,0,0,0,0,0,0,0,0,0,0,0,0,0,0,0,0,0,0,0,0,0,0,0,0,0,0,0,0,0,0,0,0,0,0,0,0,0,0,0,0,0,0,0,0,0,0,0,0,0,0,0,0,0,0,0,0,0,
0,0,0,0,0,0,0,0,0,0,0,0,0,0,0,0,0,0,0,0,0,0,0,0,0,0,0,0,0,0,0,0,0,0,0,0,0,0,0,0,0,0,0,0,0,0,0,0,0,0,0,0,0,0,0,0,0,0,0,
0,0,0,0,0,0,0,0,0,0,0,0,0,0,0,0,0,0,0,0,0,0,0,0,0,0,0,0,0,0,0,0,0,0,0,0,0,0,0,0,0,0,0,0,0,0,0,0,0,0,0,0,0,0,0,0,0,0,0,
0,0,0,0,0,0,0,0,0,0,0,0,0,0,0,0,0,0,0,0,0,0,0,0,0,0,0,0,0,0,0,0,0,0,0,0,0,0,0,0,0,0,0,0,0,0,0,0,0,0,0,0,0,0,0,0,0,0,0,
0,0,0,0,0,0,0,0,0,0,0,0,0,0,0,0,0,0,0,0,0,0,0,0,0,0,0,0,0,0,0,0,0,0,0,0,0,0,0,0,0,0,0,0,0,0,0,0,0,0,0,0,0,0,0,0,0,0,0,
0,0,0,0,0,0,0,0,0,0,0,0,0,0,0,0,0,0,0,0,0,0,0,0,0,0,0,0,0,0,0,0,0,0,0,0,0,0,0,0,0,0,0,0,0,0,0,0,0,0,0,0,0,0,0,0,0,0,0
</data>
 </layer>
 <layer id="18" name="AlwaysFront2" width="59" height="36">
  <data encoding="csv">
0,0,0,0,0,0,0,0,0,0,0,0,0,0,0,0,0,0,0,0,0,0,0,0,0,0,0,0,0,0,0,0,0,0,0,0,0,0,0,0,0,0,0,0,0,0,0,0,0,0,0,0,0,0,0,0,0,0,0,
0,0,0,0,0,0,0,0,0,0,0,0,0,0,0,0,0,0,0,0,0,0,0,0,0,0,0,0,0,0,0,0,0,0,0,0,0,0,0,0,0,0,0,0,0,0,0,0,0,0,0,0,0,0,0,0,0,0,0,
0,0,0,0,0,0,0,0,0,0,0,0,0,0,0,0,0,0,0,0,0,0,0,0,0,0,0,0,0,0,0,0,0,0,0,0,0,0,0,0,0,0,0,0,0,0,0,0,0,0,0,0,0,0,0,0,0,0,0,
0,0,0,0,0,0,0,0,0,0,0,0,0,0,0,0,0,0,0,0,0,0,0,0,0,0,0,0,0,0,0,0,0,0,0,0,0,0,0,0,0,0,0,0,0,0,0,0,0,0,0,0,0,0,0,0,0,0,0,
0,0,0,0,0,0,0,0,0,0,0,0,0,0,0,0,0,0,0,0,0,0,0,0,0,0,0,0,0,0,0,0,0,0,0,0,0,0,0,0,0,0,0,0,0,0,0,0,0,0,0,0,0,0,0,0,0,0,0,
0,0,0,0,0,0,0,0,0,0,0,0,0,0,0,0,0,0,0,0,0,0,0,0,0,0,0,0,0,0,0,0,0,0,0,0,0,0,0,0,0,0,0,0,0,0,0,0,0,0,0,0,0,0,0,0,0,0,0,
0,0,0,0,0,0,0,0,0,0,0,0,0,0,0,0,0,0,0,0,0,0,0,0,0,0,0,0,0,0,0,0,0,0,0,0,0,0,0,0,0,0,0,0,0,0,0,0,0,0,0,0,0,0,0,0,0,0,0,
0,0,0,0,0,0,0,0,0,0,0,0,0,0,0,0,0,0,0,0,0,0,0,0,0,0,0,0,0,0,0,0,0,0,0,0,0,0,0,0,0,0,0,0,0,0,0,0,0,0,0,0,0,0,0,0,0,0,0,
0,0,0,0,0,0,0,0,0,0,0,0,0,0,0,0,0,0,0,0,0,0,0,0,0,0,0,0,0,0,0,0,0,0,0,0,0,0,0,0,0,0,0,0,0,0,0,0,0,0,0,0,0,0,0,0,0,0,0,
0,0,0,0,0,0,0,0,0,0,0,0,0,0,0,0,0,0,0,0,0,0,0,0,0,0,0,0,0,0,0,0,0,0,0,0,0,0,0,0,0,0,0,0,0,0,0,0,0,0,0,0,0,0,0,0,0,0,0,
0,0,0,0,0,0,0,0,0,0,0,0,0,0,0,0,0,0,0,0,0,0,0,0,0,0,0,0,0,0,0,0,0,0,0,0,0,0,0,0,0,0,0,0,0,0,0,0,0,0,0,0,0,0,0,0,0,0,0,
0,0,0,0,0,0,0,0,0,0,0,0,0,0,0,0,0,0,0,0,0,0,0,0,0,0,0,0,0,0,0,0,0,0,0,0,0,0,0,0,0,0,0,0,0,0,0,0,0,0,0,0,0,0,0,0,0,0,0,
0,0,0,0,0,0,0,0,0,0,0,0,0,0,0,0,0,0,0,0,0,0,0,0,0,0,0,0,0,0,0,0,0,0,0,0,0,0,0,0,0,0,0,0,0,0,0,0,0,0,0,0,0,0,0,0,0,0,0,
0,0,0,0,0,0,0,0,0,0,0,0,0,0,0,0,0,0,0,0,0,0,0,0,0,0,0,0,0,0,0,0,0,0,0,0,0,0,0,0,0,0,0,0,0,0,0,0,0,0,0,0,0,0,0,0,0,0,0,
0,0,0,0,0,0,0,0,0,0,0,0,0,0,0,0,0,0,0,0,0,0,0,0,0,0,0,0,0,0,0,0,0,0,0,0,0,0,0,0,0,0,0,0,0,0,0,0,0,0,0,0,0,0,0,0,0,0,0,
0,0,0,0,0,0,0,0,0,0,0,0,0,0,0,0,0,0,0,0,0,0,0,0,0,0,0,0,0,0,0,0,0,0,0,0,0,0,0,0,0,0,0,0,0,0,0,0,0,0,0,0,0,0,0,0,0,0,0,
0,0,0,0,0,0,0,0,0,0,0,0,0,0,0,0,0,0,0,0,0,0,0,0,0,0,0,0,0,0,0,0,0,0,0,0,0,0,0,0,0,0,0,0,0,0,0,0,0,0,0,0,0,0,0,0,0,0,0,
0,0,0,0,0,0,0,0,0,0,0,0,0,0,0,0,0,0,0,0,0,0,0,0,0,0,0,0,0,0,0,0,0,0,0,0,0,0,0,0,0,0,0,0,0,0,0,0,0,0,0,0,0,0,0,0,0,0,0,
0,0,0,0,0,0,0,0,0,0,0,0,0,0,0,0,0,0,0,0,0,0,0,0,0,0,0,0,0,0,0,0,0,0,0,0,0,0,0,0,0,0,0,0,0,0,0,0,0,0,0,0,0,0,0,0,0,0,0,
0,0,0,0,0,0,0,0,0,0,0,0,0,0,0,0,0,0,0,0,0,0,0,0,0,0,0,0,0,0,0,0,0,0,0,0,0,0,0,0,0,0,0,0,0,0,0,0,0,0,0,0,0,0,0,0,0,0,0,
0,0,0,0,0,0,0,0,0,0,0,0,0,0,0,0,0,0,0,0,0,0,0,0,0,0,0,0,0,0,0,0,0,0,0,0,0,0,0,0,0,0,0,0,0,0,0,0,0,0,0,0,0,0,0,0,0,0,0,
0,0,0,0,0,0,0,0,0,0,0,0,0,0,0,0,0,0,0,0,0,0,0,0,0,0,0,0,0,0,0,0,0,0,0,0,0,0,0,0,0,0,0,0,0,0,0,0,0,0,0,0,0,0,0,0,0,0,0,
0,0,0,0,0,0,0,0,0,0,0,0,0,0,0,0,0,0,0,0,0,0,0,0,0,0,0,0,0,0,0,0,0,0,0,0,0,0,0,0,0,0,0,0,0,0,0,0,0,0,0,0,0,0,0,0,0,0,0,
0,0,0,0,0,0,0,0,0,0,0,0,0,0,0,0,0,0,0,0,0,0,0,0,0,0,0,0,0,0,0,0,0,0,0,0,0,0,0,0,0,0,0,0,0,0,0,0,0,0,0,0,0,0,0,0,0,0,0,
0,0,0,0,0,0,0,0,0,0,0,0,0,0,0,0,0,0,0,0,0,0,0,0,0,0,0,0,0,0,0,0,0,0,0,0,0,0,0,0,0,0,0,0,0,0,0,0,0,0,0,0,0,0,0,0,0,0,0,
0,0,0,0,0,0,0,0,0,0,0,0,0,0,0,0,0,0,0,0,0,0,0,0,0,0,0,0,0,0,0,0,0,0,0,0,0,0,0,0,0,0,0,0,0,0,0,0,0,0,0,0,0,0,0,0,0,0,0,
0,0,0,0,0,0,0,0,0,0,0,0,0,0,0,0,0,0,0,0,0,0,0,0,0,0,0,0,0,0,0,0,0,0,0,0,0,0,0,0,0,0,0,0,0,0,0,0,0,0,0,0,0,0,0,0,0,0,0,
0,0,0,0,0,0,0,0,0,0,0,0,0,0,0,0,0,0,0,0,0,0,0,0,0,0,0,0,0,0,0,0,0,0,0,0,0,0,0,0,0,0,0,0,0,0,0,0,0,0,0,0,0,0,0,0,0,0,0,
0,0,0,0,0,0,0,0,0,0,0,0,0,0,0,0,0,0,0,0,0,0,0,0,0,0,0,0,0,0,0,0,0,0,0,0,0,0,0,0,0,0,0,0,0,0,0,0,0,0,0,0,0,0,0,0,0,0,0,
0,0,0,0,0,0,0,0,0,0,0,0,0,0,0,0,0,0,0,0,0,0,0,0,0,0,0,0,0,0,0,0,0,0,0,0,0,0,0,0,0,0,0,0,0,0,0,0,0,0,0,0,0,0,0,0,0,0,0,
0,0,0,0,0,0,0,0,0,0,0,0,0,0,0,0,0,0,0,0,0,0,0,0,0,0,0,0,0,0,0,0,0,0,0,0,0,0,0,0,0,0,0,0,0,0,0,0,0,0,0,0,0,0,0,0,0,0,0,
0,0,0,0,0,0,0,0,0,0,0,0,0,0,0,0,0,0,0,0,0,0,0,0,0,0,0,0,0,0,0,0,0,0,0,0,0,0,0,0,0,0,0,0,0,0,0,0,0,0,0,0,0,0,0,0,0,0,0,
0,0,0,0,0,0,0,0,0,0,0,0,0,0,0,0,0,0,0,0,0,0,0,0,0,0,0,0,0,0,0,0,0,0,0,0,0,0,0,0,0,0,0,0,0,0,0,0,0,0,0,0,0,0,0,0,0,0,0,
0,0,0,0,0,0,0,0,0,0,0,0,0,0,0,0,0,0,0,0,0,0,0,0,0,0,0,0,0,0,0,0,0,0,0,0,0,0,0,0,0,0,0,0,0,0,0,0,0,0,0,0,0,0,0,0,0,0,0,
0,0,0,0,0,0,0,0,0,0,0,0,0,0,0,0,0,0,0,0,0,0,0,0,0,0,0,0,0,0,0,0,0,0,0,0,0,0,0,0,0,0,0,0,0,0,0,0,0,0,0,0,0,0,0,0,0,0,0,
0,0,0,0,0,0,0,0,0,0,0,0,0,0,0,0,0,0,0,0,0,0,0,0,0,0,0,0,0,0,0,0,0,0,0,0,0,0,0,0,0,0,0,0,0,0,0,0,0,0,0,0,0,0,0,0,0,0,0
</data>
 </layer>
 <objectgroup id="10" name="Back" visible="0">
  <object id="51" name="TileData" x="400" y="16" width="16" height="16">
   <properties>
    <property name="WallID" value="Wall"/>
   </properties>
  </object>
  <object id="52" name="TileData" x="416" y="16" width="16" height="16">
   <properties>
    <property name="WallID" value="Wall"/>
   </properties>
  </object>
  <object id="53" name="TileData" x="432" y="16" width="16" height="16">
   <properties>
    <property name="WallID" value="Wall"/>
   </properties>
  </object>
  <object id="54" name="TileData" x="448" y="16" width="16" height="16">
   <properties>
    <property name="WallID" value="Wall"/>
   </properties>
  </object>
  <object id="55" name="TileData" x="464" y="16" width="16" height="16">
   <properties>
    <property name="WallID" value="Wall"/>
   </properties>
  </object>
  <object id="56" name="TileData" x="480" y="16" width="16" height="16">
   <properties>
    <property name="WallID" value="Wall"/>
   </properties>
  </object>
  <object id="57" name="TileData" x="496" y="16" width="16" height="16">
   <properties>
    <property name="WallID" value="Wall"/>
   </properties>
  </object>
  <object id="58" name="TileData" x="512" y="16" width="16" height="16">
   <properties>
    <property name="WallID" value="Wall"/>
   </properties>
  </object>
  <object id="59" name="TileData" x="528" y="16" width="16" height="16">
   <properties>
    <property name="WallID" value="Wall"/>
   </properties>
  </object>
  <object id="60" name="TileData" x="544" y="32" width="16" height="16">
   <properties>
    <property name="WallID" value="Wall"/>
   </properties>
  </object>
  <object id="61" name="TileData" x="384" y="32" width="16" height="16">
   <properties>
    <property name="WallID" value="Wall"/>
   </properties>
  </object>
  <object id="77" name="TileData" x="400" y="64" width="16" height="16">
   <properties>
    <property name="FloorID" value="Floor"/>
   </properties>
  </object>
  <object id="78" name="TileData" x="416" y="64" width="16" height="16">
   <properties>
    <property name="FloorID" value="Floor"/>
   </properties>
  </object>
  <object id="79" name="TileData" x="432" y="64" width="16" height="16">
   <properties>
    <property name="FloorID" value="Floor"/>
   </properties>
  </object>
  <object id="80" name="TileData" x="448" y="64" width="16" height="16">
   <properties>
    <property name="FloorID" value="Floor"/>
   </properties>
  </object>
  <object id="81" name="TileData" x="464" y="64" width="16" height="16">
   <properties>
    <property name="FloorID" value="Floor"/>
   </properties>
  </object>
  <object id="82" name="TileData" x="480" y="64" width="16" height="16">
   <properties>
    <property name="FloorID" value="Floor"/>
   </properties>
  </object>
  <object id="83" name="TileData" x="496" y="64" width="16" height="16">
   <properties>
    <property name="FloorID" value="Floor"/>
   </properties>
  </object>
  <object id="84" name="TileData" x="512" y="64" width="16" height="16">
   <properties>
    <property name="FloorID" value="Floor"/>
   </properties>
  </object>
  <object id="85" name="TileData" x="528" y="64" width="16" height="16">
   <properties>
    <property name="FloorID" value="Floor"/>
   </properties>
  </object>
  <object id="93" name="TileData" x="384" y="80" width="16" height="16">
   <properties>
    <property name="FloorID" value="Floor"/>
   </properties>
  </object>
  <object id="94" name="TileData" x="400" y="80" width="16" height="16">
   <properties>
    <property name="FloorID" value="Floor"/>
   </properties>
  </object>
  <object id="95" name="TileData" x="416" y="80" width="16" height="16">
   <properties>
    <property name="FloorID" value="Floor"/>
   </properties>
  </object>
  <object id="96" name="TileData" x="432" y="80" width="16" height="16">
   <properties>
    <property name="FloorID" value="Floor"/>
   </properties>
  </object>
  <object id="97" name="TileData" x="448" y="80" width="16" height="16">
   <properties>
    <property name="FloorID" value="Floor"/>
   </properties>
  </object>
  <object id="98" name="TileData" x="464" y="80" width="16" height="16">
   <properties>
    <property name="FloorID" value="Floor"/>
   </properties>
  </object>
  <object id="99" name="TileData" x="480" y="80" width="16" height="16">
   <properties>
    <property name="FloorID" value="Floor"/>
   </properties>
  </object>
  <object id="100" name="TileData" x="496" y="80" width="16" height="16">
   <properties>
    <property name="FloorID" value="Floor"/>
   </properties>
  </object>
  <object id="101" name="TileData" x="512" y="80" width="16" height="16">
   <properties>
    <property name="FloorID" value="Floor"/>
   </properties>
  </object>
  <object id="102" name="TileData" x="528" y="80" width="16" height="16">
   <properties>
    <property name="FloorID" value="Floor"/>
   </properties>
  </object>
  <object id="103" name="TileData" x="544" y="80" width="16" height="16">
   <properties>
    <property name="FloorID" value="Floor"/>
   </properties>
  </object>
  <object id="110" name="TileData" x="384" y="96" width="16" height="16">
   <properties>
    <property name="FloorID" value="Floor"/>
   </properties>
  </object>
  <object id="111" name="TileData" x="400" y="96" width="16" height="16">
   <properties>
    <property name="FloorID" value="Floor"/>
   </properties>
  </object>
  <object id="112" name="TileData" x="416" y="96" width="16" height="16">
   <properties>
    <property name="FloorID" value="Floor"/>
   </properties>
  </object>
  <object id="113" name="TileData" x="432" y="96" width="16" height="16">
   <properties>
    <property name="FloorID" value="Floor"/>
   </properties>
  </object>
  <object id="114" name="TileData" x="448" y="96" width="16" height="16">
   <properties>
    <property name="FloorID" value="Floor"/>
   </properties>
  </object>
  <object id="115" name="TileData" x="464" y="96" width="16" height="16">
   <properties>
    <property name="FloorID" value="Floor"/>
   </properties>
  </object>
  <object id="116" name="TileData" x="480" y="96" width="16" height="16">
   <properties>
    <property name="FloorID" value="Floor"/>
   </properties>
  </object>
  <object id="117" name="TileData" x="496" y="96" width="16" height="16">
   <properties>
    <property name="FloorID" value="Floor"/>
   </properties>
  </object>
  <object id="118" name="TileData" x="512" y="96" width="16" height="16">
   <properties>
    <property name="FloorID" value="Floor"/>
   </properties>
  </object>
  <object id="119" name="TileData" x="528" y="96" width="16" height="16">
   <properties>
    <property name="FloorID" value="Floor"/>
   </properties>
  </object>
  <object id="120" name="TileData" x="544" y="96" width="16" height="16">
   <properties>
    <property name="FloorID" value="Floor"/>
   </properties>
  </object>
  <object id="128" name="TileData" x="400" y="112" width="16" height="16">
   <properties>
    <property name="FloorID" value="Floor"/>
   </properties>
  </object>
  <object id="129" name="TileData" x="416" y="112" width="16" height="16">
   <properties>
    <property name="FloorID" value="Floor"/>
   </properties>
  </object>
  <object id="130" name="TileData" x="432" y="112" width="16" height="16">
   <properties>
    <property name="FloorID" value="Floor"/>
   </properties>
  </object>
  <object id="131" name="TileData" x="448" y="112" width="16" height="16">
   <properties>
    <property name="FloorID" value="Floor"/>
   </properties>
  </object>
  <object id="132" name="TileData" x="464" y="112" width="16" height="16">
   <properties>
    <property name="FloorID" value="Floor"/>
   </properties>
  </object>
  <object id="133" name="TileData" x="480" y="112" width="16" height="16">
   <properties>
    <property name="FloorID" value="Floor"/>
   </properties>
  </object>
  <object id="134" name="TileData" x="496" y="112" width="16" height="16">
   <properties>
    <property name="FloorID" value="Floor"/>
   </properties>
  </object>
  <object id="135" name="TileData" x="512" y="112" width="16" height="16">
   <properties>
    <property name="FloorID" value="Floor"/>
   </properties>
  </object>
  <object id="136" name="TileData" x="528" y="112" width="16" height="16">
   <properties>
    <property name="FloorID" value="Floor"/>
   </properties>
  </object>
  <object id="243" name="TileData" x="384" y="160" width="16" height="16">
   <properties>
    <property name="WallID" value="Wall"/>
   </properties>
  </object>
  <object id="244" name="TileData" x="544" y="160" width="16" height="16">
   <properties>
    <property name="WallID" value="Wall"/>
   </properties>
  </object>
  <object id="245" name="TileData" x="528" y="144" width="16" height="16">
   <properties>
    <property name="WallID" value="Wall"/>
   </properties>
  </object>
  <object id="246" name="TileData" x="512" y="144" width="16" height="16">
   <properties>
    <property name="WallID" value="Wall"/>
   </properties>
  </object>
  <object id="247" name="TileData" x="496" y="144" width="16" height="16">
   <properties>
    <property name="WallID" value="Wall"/>
   </properties>
  </object>
  <object id="248" name="TileData" x="480" y="144" width="16" height="16">
   <properties>
    <property name="WallID" value="Wall"/>
   </properties>
  </object>
  <object id="249" name="TileData" x="464" y="144" width="16" height="16">
   <properties>
    <property name="WallID" value="Wall"/>
   </properties>
  </object>
  <object id="250" name="TileData" x="448" y="144" width="16" height="16">
   <properties>
    <property name="WallID" value="Wall"/>
   </properties>
  </object>
  <object id="251" name="TileData" x="432" y="144" width="16" height="16">
   <properties>
    <property name="WallID" value="Wall"/>
   </properties>
  </object>
  <object id="252" name="TileData" x="416" y="144" width="16" height="16">
   <properties>
    <property name="WallID" value="Wall"/>
   </properties>
  </object>
  <object id="253" name="TileData" x="400" y="144" width="16" height="16">
   <properties>
    <property name="WallID" value="Wall"/>
   </properties>
  </object>
  <object id="254" name="TileData" x="528" y="304" width="16" height="16">
   <properties>
    <property name="FloorID" value="Floor"/>
   </properties>
  </object>
  <object id="255" name="TileData" x="512" y="304" width="16" height="16">
   <properties>
    <property name="FloorID" value="Floor"/>
   </properties>
  </object>
  <object id="256" name="TileData" x="496" y="304" width="16" height="16">
   <properties>
    <property name="FloorID" value="Floor"/>
   </properties>
  </object>
  <object id="257" name="TileData" x="480" y="304" width="16" height="16">
   <properties>
    <property name="FloorID" value="Floor"/>
   </properties>
  </object>
  <object id="258" name="TileData" x="464" y="304" width="16" height="16">
   <properties>
    <property name="FloorID" value="Floor"/>
   </properties>
  </object>
  <object id="259" name="TileData" x="448" y="304" width="16" height="16">
   <properties>
    <property name="FloorID" value="Floor"/>
   </properties>
  </object>
  <object id="260" name="TileData" x="432" y="304" width="16" height="16">
   <properties>
    <property name="FloorID" value="Floor"/>
   </properties>
  </object>
  <object id="261" name="TileData" x="416" y="304" width="16" height="16">
   <properties>
    <property name="FloorID" value="Floor"/>
   </properties>
  </object>
  <object id="262" name="TileData" x="400" y="304" width="16" height="16">
   <properties>
    <property name="FloorID" value="Floor"/>
   </properties>
  </object>
  <object id="263" name="TileData" x="544" y="288" width="16" height="16">
   <properties>
    <property name="FloorID" value="Floor"/>
   </properties>
  </object>
  <object id="264" name="TileData" x="528" y="288" width="16" height="16">
   <properties>
    <property name="FloorID" value="Floor"/>
   </properties>
  </object>
  <object id="265" name="TileData" x="512" y="288" width="16" height="16">
   <properties>
    <property name="FloorID" value="Floor"/>
   </properties>
  </object>
  <object id="266" name="TileData" x="496" y="288" width="16" height="16">
   <properties>
    <property name="FloorID" value="Floor"/>
   </properties>
  </object>
  <object id="267" name="TileData" x="480" y="288" width="16" height="16">
   <properties>
    <property name="FloorID" value="Floor"/>
   </properties>
  </object>
  <object id="268" name="TileData" x="464" y="288" width="16" height="16">
   <properties>
    <property name="FloorID" value="Floor"/>
   </properties>
  </object>
  <object id="269" name="TileData" x="448" y="288" width="16" height="16">
   <properties>
    <property name="FloorID" value="Floor"/>
   </properties>
  </object>
  <object id="270" name="TileData" x="432" y="288" width="16" height="16">
   <properties>
    <property name="FloorID" value="Floor"/>
   </properties>
  </object>
  <object id="271" name="TileData" x="416" y="288" width="16" height="16">
   <properties>
    <property name="FloorID" value="Floor"/>
   </properties>
  </object>
  <object id="272" name="TileData" x="400" y="288" width="16" height="16">
   <properties>
    <property name="FloorID" value="Floor"/>
   </properties>
  </object>
  <object id="273" name="TileData" x="384" y="288" width="16" height="16">
   <properties>
    <property name="FloorID" value="Floor"/>
   </properties>
  </object>
  <object id="274" name="TileData" x="544" y="272" width="16" height="16">
   <properties>
    <property name="FloorID" value="Floor"/>
   </properties>
  </object>
  <object id="275" name="TileData" x="528" y="272" width="16" height="16">
   <properties>
    <property name="FloorID" value="Floor"/>
   </properties>
  </object>
  <object id="276" name="TileData" x="512" y="272" width="16" height="16">
   <properties>
    <property name="FloorID" value="Floor"/>
   </properties>
  </object>
  <object id="277" name="TileData" x="496" y="272" width="16" height="16">
   <properties>
    <property name="FloorID" value="Floor"/>
   </properties>
  </object>
  <object id="278" name="TileData" x="480" y="272" width="16" height="16">
   <properties>
    <property name="FloorID" value="Floor"/>
   </properties>
  </object>
  <object id="279" name="TileData" x="464" y="272" width="16" height="16">
   <properties>
    <property name="FloorID" value="Floor"/>
   </properties>
  </object>
  <object id="280" name="TileData" x="448" y="272" width="16" height="16">
   <properties>
    <property name="FloorID" value="Floor"/>
   </properties>
  </object>
  <object id="281" name="TileData" x="432" y="272" width="16" height="16">
   <properties>
    <property name="FloorID" value="Floor"/>
   </properties>
  </object>
  <object id="282" name="TileData" x="416" y="272" width="16" height="16">
   <properties>
    <property name="FloorID" value="Floor"/>
   </properties>
  </object>
  <object id="283" name="TileData" x="400" y="272" width="16" height="16">
   <properties>
    <property name="FloorID" value="Floor"/>
   </properties>
  </object>
  <object id="284" name="TileData" x="384" y="272" width="16" height="16">
   <properties>
    <property name="FloorID" value="Floor"/>
   </properties>
  </object>
  <object id="285" name="TileData" x="528" y="192" width="16" height="16">
   <properties>
    <property name="FloorID" value="Floor"/>
   </properties>
  </object>
  <object id="286" name="TileData" x="512" y="192" width="16" height="16">
   <properties>
    <property name="FloorID" value="Floor"/>
   </properties>
  </object>
  <object id="287" name="TileData" x="496" y="192" width="16" height="16">
   <properties>
    <property name="FloorID" value="Floor"/>
   </properties>
  </object>
  <object id="288" name="TileData" x="480" y="192" width="16" height="16">
   <properties>
    <property name="FloorID" value="Floor"/>
   </properties>
  </object>
  <object id="289" name="TileData" x="464" y="192" width="16" height="16">
   <properties>
    <property name="FloorID" value="Floor"/>
   </properties>
  </object>
  <object id="290" name="TileData" x="448" y="192" width="16" height="16">
   <properties>
    <property name="FloorID" value="Floor"/>
   </properties>
  </object>
  <object id="291" name="TileData" x="432" y="192" width="16" height="16">
   <properties>
    <property name="FloorID" value="Floor"/>
   </properties>
  </object>
  <object id="292" name="TileData" x="416" y="192" width="16" height="16">
   <properties>
    <property name="FloorID" value="Floor"/>
   </properties>
  </object>
  <object id="293" name="TileData" x="400" y="192" width="16" height="16">
   <properties>
    <property name="FloorID" value="Floor"/>
   </properties>
  </object>
  <object id="294" name="TileData" x="384" y="256" width="16" height="16">
   <properties>
    <property name="FloorID" value="Floor"/>
   </properties>
  </object>
  <object id="295" name="TileData" x="400" y="256" width="16" height="16">
   <properties>
    <property name="FloorID" value="Floor"/>
   </properties>
  </object>
  <object id="296" name="TileData" x="416" y="256" width="16" height="16">
   <properties>
    <property name="FloorID" value="Floor"/>
   </properties>
  </object>
  <object id="297" name="TileData" x="432" y="256" width="16" height="16">
   <properties>
    <property name="FloorID" value="Floor"/>
   </properties>
  </object>
  <object id="298" name="TileData" x="448" y="256" width="16" height="16">
   <properties>
    <property name="FloorID" value="Floor"/>
   </properties>
  </object>
  <object id="299" name="TileData" x="464" y="256" width="16" height="16">
   <properties>
    <property name="FloorID" value="Floor"/>
   </properties>
  </object>
  <object id="300" name="TileData" x="480" y="256" width="16" height="16">
   <properties>
    <property name="FloorID" value="Floor"/>
   </properties>
  </object>
  <object id="301" name="TileData" x="496" y="256" width="16" height="16">
   <properties>
    <property name="FloorID" value="Floor"/>
   </properties>
  </object>
  <object id="302" name="TileData" x="512" y="256" width="16" height="16">
   <properties>
    <property name="FloorID" value="Floor"/>
   </properties>
  </object>
  <object id="303" name="TileData" x="528" y="256" width="16" height="16">
   <properties>
    <property name="FloorID" value="Floor"/>
   </properties>
  </object>
  <object id="304" name="TileData" x="544" y="256" width="16" height="16">
   <properties>
    <property name="FloorID" value="Floor"/>
   </properties>
  </object>
  <object id="305" name="TileData" x="384" y="240" width="16" height="16">
   <properties>
    <property name="FloorID" value="Floor"/>
   </properties>
  </object>
  <object id="306" name="TileData" x="400" y="240" width="16" height="16">
   <properties>
    <property name="FloorID" value="Floor"/>
   </properties>
  </object>
  <object id="307" name="TileData" x="416" y="240" width="16" height="16">
   <properties>
    <property name="FloorID" value="Floor"/>
   </properties>
  </object>
  <object id="308" name="TileData" x="432" y="240" width="16" height="16">
   <properties>
    <property name="FloorID" value="Floor"/>
   </properties>
  </object>
  <object id="309" name="TileData" x="448" y="240" width="16" height="16">
   <properties>
    <property name="FloorID" value="Floor"/>
   </properties>
  </object>
  <object id="310" name="TileData" x="464" y="240" width="16" height="16">
   <properties>
    <property name="FloorID" value="Floor"/>
   </properties>
  </object>
  <object id="311" name="TileData" x="480" y="240" width="16" height="16">
   <properties>
    <property name="FloorID" value="Floor"/>
   </properties>
  </object>
  <object id="312" name="TileData" x="496" y="240" width="16" height="16">
   <properties>
    <property name="FloorID" value="Floor"/>
   </properties>
  </object>
  <object id="313" name="TileData" x="512" y="240" width="16" height="16">
   <properties>
    <property name="FloorID" value="Floor"/>
   </properties>
  </object>
  <object id="314" name="TileData" x="528" y="240" width="16" height="16">
   <properties>
    <property name="FloorID" value="Floor"/>
   </properties>
  </object>
  <object id="315" name="TileData" x="544" y="240" width="16" height="16">
   <properties>
    <property name="FloorID" value="Floor"/>
   </properties>
  </object>
  <object id="316" name="TileData" x="384" y="224" width="16" height="16">
   <properties>
    <property name="FloorID" value="Floor"/>
   </properties>
  </object>
  <object id="317" name="TileData" x="400" y="224" width="16" height="16">
   <properties>
    <property name="FloorID" value="Floor"/>
   </properties>
  </object>
  <object id="318" name="TileData" x="416" y="224" width="16" height="16">
   <properties>
    <property name="FloorID" value="Floor"/>
   </properties>
  </object>
  <object id="319" name="TileData" x="432" y="224" width="16" height="16">
   <properties>
    <property name="FloorID" value="Floor"/>
   </properties>
  </object>
  <object id="320" name="TileData" x="448" y="224" width="16" height="16">
   <properties>
    <property name="FloorID" value="Floor"/>
   </properties>
  </object>
  <object id="321" name="TileData" x="464" y="224" width="16" height="16">
   <properties>
    <property name="FloorID" value="Floor"/>
   </properties>
  </object>
  <object id="322" name="TileData" x="480" y="224" width="16" height="16">
   <properties>
    <property name="FloorID" value="Floor"/>
   </properties>
  </object>
  <object id="323" name="TileData" x="496" y="224" width="16" height="16">
   <properties>
    <property name="FloorID" value="Floor"/>
   </properties>
  </object>
  <object id="324" name="TileData" x="512" y="224" width="16" height="16">
   <properties>
    <property name="FloorID" value="Floor"/>
   </properties>
  </object>
  <object id="325" name="TileData" x="528" y="224" width="16" height="16">
   <properties>
    <property name="FloorID" value="Floor"/>
   </properties>
  </object>
  <object id="326" name="TileData" x="544" y="224" width="16" height="16">
   <properties>
    <property name="FloorID" value="Floor"/>
   </properties>
  </object>
  <object id="327" name="TileData" x="384" y="208" width="16" height="16">
   <properties>
    <property name="FloorID" value="Floor"/>
   </properties>
  </object>
  <object id="328" name="TileData" x="400" y="208" width="16" height="16">
   <properties>
    <property name="FloorID" value="Floor"/>
   </properties>
  </object>
  <object id="329" name="TileData" x="416" y="208" width="16" height="16">
   <properties>
    <property name="FloorID" value="Floor"/>
   </properties>
  </object>
  <object id="330" name="TileData" x="432" y="208" width="16" height="16">
   <properties>
    <property name="FloorID" value="Floor"/>
   </properties>
  </object>
  <object id="331" name="TileData" x="448" y="208" width="16" height="16">
   <properties>
    <property name="FloorID" value="Floor"/>
   </properties>
  </object>
  <object id="332" name="TileData" x="464" y="208" width="16" height="16">
   <properties>
    <property name="FloorID" value="Floor"/>
   </properties>
  </object>
  <object id="333" name="TileData" x="480" y="208" width="16" height="16">
   <properties>
    <property name="FloorID" value="Floor"/>
   </properties>
  </object>
  <object id="334" name="TileData" x="496" y="208" width="16" height="16">
   <properties>
    <property name="FloorID" value="Floor"/>
   </properties>
  </object>
  <object id="335" name="TileData" x="512" y="208" width="16" height="16">
   <properties>
    <property name="FloorID" value="Floor"/>
   </properties>
  </object>
  <object id="336" name="TileData" x="528" y="208" width="16" height="16">
   <properties>
    <property name="FloorID" value="Floor"/>
   </properties>
  </object>
  <object id="337" name="TileData" x="544" y="208" width="16" height="16">
   <properties>
    <property name="FloorID" value="Floor"/>
   </properties>
  </object>
  <object id="338" name="TileData" x="464" y="336" width="16" height="16">
   <properties>
    <property name="FloorID" value="Floor"/>
   </properties>
  </object>
  <object id="339" name="TileData" x="464" y="320" width="16" height="16">
   <properties>
    <property name="FloorID" value="Floor"/>
   </properties>
  </object>
  <object id="340" name="TileData" x="464" y="352" width="16" height="16">
   <properties>
    <property name="FloorID" value="Floor"/>
   </properties>
  </object>
 </objectgroup>
 <objectgroup id="12" name="Back2"/>
 <objectgroup id="9" name="Buildings">
  <object id="42" name="TileData" x="160" y="176" width="16" height="16">
   <properties>
    <property name="Action" value="Door"/>
   </properties>
  </object>
  <object id="43" name="TileData" x="112" y="352" width="16" height="16">
   <properties>
    <property name="Action" value="Door"/>
   </properties>
  </object>
  <object id="44" name="TileData" x="464" y="352" width="16" height="16">
   <properties>
    <property name="Action" value="Door"/>
   </properties>
  </object>
  <object id="46" name="TileData" x="816" y="352" width="16" height="16">
   <properties>
    <property name="Action" value="Door"/>
   </properties>
  </object>
  <object id="47" name="TileData" x="864" y="176" width="16" height="16">
   <properties>
    <property name="Action" value="Door"/>
   </properties>
  </object>
  <object id="341" name="TileData" x="512" y="176" width="16" height="16">
   <properties>
    <property name="Action" value="Door"/>
   </properties>
  </object>
 </objectgroup>
 <objectgroup id="8" name="Paths"/>
 <objectgroup id="7" name="Front"/>
 <objectgroup id="6" name="AlwaysFront"/>
</map>
