<?xml version="1.0" encoding="UTF-8"?>
<map version="1.4" tiledversion="1.4.3" orientation="orthogonal" renderorder="right-down" width="24" height="20" tilewidth="16" tileheight="16" infinite="0" nextlayerid="18" nextobjectid="66">
 <properties>
  <property name="AmbientLight" value="95 95 95"/>
  <property name="DayTiles" value="Front 7 2 256 Front 7 3 288"/>
  <property name="NightTiles" value="Front 7 2 1253 Front 7 3 1285"/>
  <property name="Warp" value="11 18 Custom_MapleBridge 47 23 12 18 Custom_MapleBridge 48 23"/>
 </properties>
 <tileset firstgid="1" name="LiLaoliu's Tilesheets" tilewidth="16" tileheight="16" tilecount="1325" columns="25">
  <image source="LiLaoliu_RedPandaBazaar_Tilesheets.png" width="400" height="848"/>
 </tileset>
 <tileset firstgid="1326" name="paths" tilewidth="16" tileheight="16" tilecount="36" columns="4">
  <image source="paths.png" width="64" height="144"/>
 </tileset>
 <tileset firstgid="1362" name="townInterior" tilewidth="16" tileheight="16" tilecount="2176" columns="32">
  <image source="townInterior.png" width="512" height="1088"/>
 </tileset>
 <tileset firstgid="3538" name="Vanilla_RedPandaBazaar_Shadows" tilewidth="16" tileheight="16" tilecount="475" columns="19">
  <image source="Vanilla_RedPandaBazaar_Shadows.png" width="304" height="400"/>
 </tileset>
 <tileset firstgid="4013" name="LiLaoliu_RedPandaBazaar_Tilesheets5" tilewidth="16" tileheight="16" tilecount="1150" columns="25">
  <image source="LiLaoliu_RedPandaBazaar_Tilesheets5.png" width="400" height="736"/>
 </tileset>
 <tileset firstgid="5163" name="townInterior_2" tilewidth="16" tileheight="16" tilecount="1312" columns="32">
  <image source="townInterior_2.png" width="512" height="656"/>
 </tileset>
 <tileset firstgid="6475" name="walls_and_floors" tilewidth="16" tileheight="16" tilecount="688" columns="16">
  <image source="walls_and_floors.png" width="256" height="688"/>
 </tileset>
 <tileset firstgid="7163" name="LiLaoliu_RedPandaBazaar_Tilesheets2" tilewidth="16" tileheight="16" tilecount="1500" columns="25">
  <image source="LiLaoliu_RedPandaBazaar_Tilesheets2.png" width="400" height="960"/>
 </tileset>
 <layer id="2" name="Back" width="24" height="20">
  <data encoding="csv">
0,0,0,0,0,0,0,0,0,0,0,0,0,0,0,0,0,0,0,0,0,0,0,0,
0,0,0,0,0,0,0,0,0,0,0,0,0,0,0,0,0,0,0,0,0,0,0,0,
0,0,0,6237,6237,6237,6237,6237,0,0,0,6113,6113,0,0,0,0,0,0,0,0,0,0,0,
0,0,6237,6269,6269,6269,6269,6269,6237,0,0,6145,6145,0,0,0,0,0,0,0,0,0,0,0,
0,0,6269,6301,6301,6301,6301,6301,6269,0,0,6177,6177,0,0,0,0,0,0,0,0,0,0,0,
0,0,6301,748,747,748,747,723,6301,0,0,723,722,6113,6113,6113,6113,6113,520,520,6113,6113,6113,0,
0,723,722,748,747,748,747,748,747,0,0,748,747,6145,6145,6145,6145,6145,517,517,6145,6145,6145,0,
0,748,747,723,722,723,722,723,722,0,0,722,723,6177,6177,6177,6177,6177,517,517,6177,6177,6177,0,
0,723,722,748,747,748,747,748,747,0,0,723,722,723,722,723,722,723,722,723,722,723,722,0,
0,748,747,723,722,723,722,723,722,0,0,748,747,748,747,748,747,748,747,748,747,748,747,0,
0,0,0,748,747,748,722,723,722,0,0,723,722,0,0,0,723,722,723,722,723,722,0,0,
0,0,6113,748,6113,6113,747,748,747,6113,6113,748,747,6113,6113,6113,748,747,748,747,748,747,6113,0,
0,0,6145,723,6145,6145,722,723,722,6145,6145,724,725,6145,6145,6145,724,725,724,725,724,725,6145,0,
0,0,6177,800,6177,6177,747,748,747,6177,6177,517,517,6177,6177,6177,517,517,517,517,517,517,6177,0,
0,0,722,723,722,723,722,723,722,723,722,723,722,723,722,723,722,723,722,723,722,723,722,723,
0,0,747,748,747,748,747,748,747,748,747,748,747,748,747,748,747,748,747,748,747,748,747,748,
0,0,722,723,722,723,722,723,722,723,722,723,722,723,722,723,722,723,722,723,722,723,722,723,
0,0,747,748,747,748,747,748,747,748,747,748,747,748,747,748,747,748,747,748,747,748,747,748,
0,722,723,722,723,722,723,722,723,722,723,722,723,722,723,722,723,722,723,722,723,722,723,0,
0,747,748,747,748,747,748,747,748,747,748,747,748,747,748,747,748,747,748,747,748,747,748,0
</data>
 </layer>
 <layer id="11" name="Back2" width="24" height="20">
  <data encoding="csv">
0,0,0,0,0,0,0,0,0,0,0,0,0,0,0,0,0,0,0,0,0,0,0,0,
0,0,0,0,0,0,0,0,0,0,0,0,0,0,0,0,0,0,0,0,0,0,0,0,
0,0,0,0,0,0,0,0,0,0,0,4471,4471,0,0,0,0,0,0,0,0,0,0,0,
0,0,0,0,0,0,0,0,0,0,0,4471,4471,0,0,0,0,0,0,0,0,0,0,0,
0,0,0,0,0,0,0,0,0,0,0,4471,4471,0,0,0,0,0,0,0,0,0,0,0,
0,0,0,0,0,0,0,0,0,0,0,0,0,0,0,0,0,0,0,0,4470,4471,4470,0,
0,0,0,0,0,0,0,0,0,0,0,0,0,0,0,0,0,0,0,0,4470,4471,4470,0,
0,0,0,0,0,0,0,0,0,0,0,0,0,0,0,0,0,0,0,0,4470,4471,4470,0,
0,0,0,0,0,0,0,0,0,0,0,0,0,0,0,0,0,0,6164,6166,0,0,0,0,
0,0,0,0,0,0,0,0,0,0,0,0,0,0,0,0,0,0,6196,6198,0,0,0,0,
0,0,0,0,0,0,0,0,0,0,0,0,0,0,0,0,0,0,0,0,0,0,0,0,
0,0,7952,0,7945,7946,0,0,0,7949,7950,0,0,0,0,0,0,0,0,0,0,0,0,0,
0,0,7977,0,7970,7971,0,0,0,7974,7975,0,0,0,0,0,0,0,0,0,0,0,0,0,
0,0,0,0,0,0,6164,6165,6166,0,0,0,0,0,0,0,0,0,0,0,0,0,0,0,
0,0,0,0,0,0,6196,6197,6198,0,0,0,0,0,0,0,0,0,0,0,0,0,0,0,
0,0,0,0,0,0,0,0,0,0,0,0,0,0,0,0,0,0,0,0,0,0,0,0,
0,0,0,0,0,0,0,0,0,0,0,0,0,0,0,0,0,0,0,0,0,0,0,0,
0,0,0,0,0,0,0,0,0,0,4705,4706,4707,4708,0,0,0,0,0,0,0,0,0,0,
0,0,0,0,0,0,0,0,0,0,4730,4731,4732,4733,0,0,0,0,0,0,0,0,0,0,
0,0,0,0,0,0,0,0,0,0,0,0,0,0,0,0,0,0,0,0,0,0,0,0
</data>
 </layer>
 <layer id="13" name="Back3" width="24" height="20">
  <data encoding="csv">
0,0,0,0,0,0,0,0,0,0,0,0,0,0,0,0,0,0,0,0,0,0,0,0,
0,0,0,0,0,0,0,0,0,0,0,0,0,0,0,0,0,0,0,0,0,0,0,0,
0,0,0,0,0,0,0,0,0,0,0,0,0,0,0,0,0,0,0,0,0,0,0,0,
0,0,0,0,0,0,0,0,0,0,0,0,0,0,0,0,0,0,0,0,0,0,0,0,
0,0,0,0,0,0,0,0,0,0,0,0,0,0,0,0,0,0,0,0,0,0,0,0,
0,0,0,3735,3735,3735,3735,3735,0,0,0,3735,3735,0,0,0,0,0,0,0,0,0,0,0,
0,0,3739,0,0,0,0,3734,3735,0,0,0,3696,0,0,0,0,0,0,0,0,0,0,0,
0,0,0,0,0,0,0,0,3696,0,0,0,3696,0,0,0,0,0,0,0,0,0,0,0,
0,0,0,0,0,0,0,0,3696,0,0,0,3734,3735,3735,3735,3735,3735,3735,3735,3735,3735,3735,0,
0,0,0,0,0,0,0,0,0,0,0,0,3677,0,0,0,0,0,0,0,0,3677,0,0,
0,0,0,0,0,0,0,0,0,0,0,0,3696,0,0,0,0,0,0,0,0,3696,0,0,
0,0,0,0,0,0,0,0,0,0,0,0,3696,0,0,0,0,0,0,0,0,3696,0,0,
0,0,0,0,0,0,0,0,0,0,0,0,3696,0,0,0,0,0,0,0,0,3696,0,0,
0,0,0,3715,0,0,0,0,0,0,0,0,0,0,0,0,0,0,0,0,0,0,0,0,
0,0,3739,3734,3735,3735,3735,3735,3735,3735,3735,3735,3735,3735,3735,3735,3735,3735,3735,3735,3735,3735,3696,0,
0,0,0,0,0,0,0,0,0,0,0,0,0,0,0,0,0,0,0,0,0,0,3696,0,
0,0,0,0,0,0,0,0,0,0,0,0,0,0,0,0,0,0,0,0,0,0,3696,0,
0,0,0,0,0,0,0,0,0,0,0,0,0,0,0,0,0,0,0,0,0,0,3696,0,
0,0,0,0,0,0,0,0,0,0,0,0,0,0,0,0,0,0,0,0,0,0,0,0,
0,0,0,0,0,0,0,0,0,0,0,0,0,0,0,0,0,0,0,0,0,0,0,0
</data>
 </layer>
 <layer id="15" name="Back4" width="24" height="20">
  <data encoding="csv">
0,0,0,0,0,0,0,0,0,0,0,0,0,0,0,0,0,0,0,0,0,0,0,0,
0,0,0,0,0,0,0,0,0,0,0,0,0,0,0,0,0,0,0,0,0,0,0,0,
0,0,0,0,0,0,0,0,0,0,0,0,0,0,0,0,0,0,0,0,0,0,0,0,
0,0,0,0,0,0,0,0,0,0,0,0,0,0,0,0,0,0,0,0,0,0,0,0,
0,0,0,0,0,0,0,0,0,0,0,0,0,0,0,0,0,0,0,0,0,0,0,0,
0,0,0,0,0,0,0,3715,0,0,0,0,3715,0,0,0,0,0,0,0,0,0,0,0,
0,0,0,0,0,0,0,0,3715,0,0,0,0,0,0,0,0,0,0,0,0,0,0,0,
0,0,0,0,0,0,0,0,0,0,0,0,0,0,0,0,0,0,0,0,0,0,0,0,
0,0,0,0,0,0,0,0,0,0,0,0,0,0,0,0,0,0,0,0,0,0,3715,0,
0,0,0,0,0,0,0,0,0,0,0,0,0,0,0,0,0,0,0,0,0,0,0,0,
0,0,0,0,0,0,0,0,0,0,0,0,0,0,0,0,0,0,0,0,0,0,0,0,
0,0,0,0,0,0,0,0,0,0,0,0,0,0,0,0,0,0,0,0,0,0,0,0,
0,0,0,0,0,0,0,0,0,0,0,0,0,0,0,0,0,0,0,0,0,0,0,0,
0,0,0,3735,0,0,3633,3633,3633,3633,0,0,0,0,0,0,0,0,0,0,0,0,0,0,
0,0,0,0,0,0,0,0,0,0,0,0,0,0,0,0,0,0,0,0,0,0,3735,0,
0,0,0,0,0,0,0,0,0,0,0,0,0,0,0,0,0,0,0,0,0,0,0,0,
0,0,0,0,0,0,0,0,0,0,0,0,0,0,0,0,0,0,0,0,0,0,0,0,
0,0,0,0,0,0,0,0,0,0,0,0,0,0,0,0,0,0,0,0,0,0,0,0,
0,0,0,0,0,0,0,0,0,0,0,0,0,0,0,0,0,0,0,0,0,0,0,0,
0,0,0,0,0,0,0,0,0,0,0,0,0,0,0,0,0,0,0,0,0,0,0,0
</data>
 </layer>
 <layer id="16" name="Back5" width="24" height="20">
  <data encoding="csv">
0,0,0,0,0,0,0,0,0,0,0,0,0,0,0,0,0,0,0,0,0,0,0,0,
0,0,0,0,0,0,0,0,0,0,0,0,0,0,0,0,0,0,0,0,0,0,0,0,
0,0,0,0,0,0,0,0,0,0,0,0,0,0,0,0,0,0,0,0,0,0,0,0,
0,0,0,0,0,0,0,0,0,0,0,0,0,0,0,0,0,0,0,0,0,0,0,0,
0,0,0,0,0,0,0,0,0,0,0,0,0,0,0,0,0,0,0,0,0,0,0,0,
0,0,0,3599,3599,3599,3599,3622,0,0,0,3599,3622,0,0,0,0,0,0,0,0,0,0,0,
0,0,3604,0,0,0,0,3563,3622,0,0,0,3581,0,0,0,0,0,0,0,0,0,0,0,
0,0,0,0,0,0,0,0,3581,0,0,0,3581,0,0,0,0,0,0,0,0,0,0,0,
0,0,0,0,0,0,0,0,3581,0,0,0,3563,3599,3599,3599,3599,3599,3599,3599,3599,3599,3599,0,
0,0,0,0,0,0,0,0,0,0,0,0,3562,0,0,0,0,0,0,0,0,3562,0,0,
0,0,0,0,0,0,0,0,0,0,0,0,3581,0,0,0,0,0,0,0,0,3581,0,0,
0,0,0,0,0,0,0,0,0,0,0,0,3581,0,0,0,0,0,0,0,0,3581,0,0,
0,0,0,0,0,0,0,0,0,0,0,0,3581,0,0,0,0,0,0,0,0,3581,0,0,
0,0,0,3622,0,0,0,0,0,0,0,0,3581,0,0,0,0,0,0,0,0,0,0,0,
0,0,3604,3563,3599,3599,3599,3599,3599,3599,3583,0,3563,3599,3599,3583,0,0,0,0,0,0,3581,0,
0,0,0,0,0,0,0,0,0,0,0,0,0,0,0,0,0,0,0,0,0,0,3581,0,
0,0,0,0,0,0,0,0,0,0,0,0,0,0,0,0,0,0,0,0,0,0,3581,0,
0,0,0,0,0,0,0,0,0,0,0,0,0,0,0,0,0,0,0,0,0,0,3581,0,
0,0,0,3596,3596,3596,3596,0,0,0,0,3596,3596,0,0,0,0,3596,3596,3596,3596,3596,0,0,
0,0,0,0,0,0,0,0,0,0,0,0,0,0,0,0,0,0,0,0,0,0,0,0
</data>
 </layer>
 <layer id="4" name="Buildings" width="24" height="20">
  <data encoding="csv">
78,78,78,78,78,78,78,78,78,78,78,78,78,78,78,78,78,78,78,78,78,78,78,78,
78,78,55,28,28,28,28,28,59,78,30,31,31,59,78,78,78,78,78,78,78,78,78,78,
78,55,29,0,0,0,0,0,27,59,77,0,0,79,78,78,78,78,78,78,78,78,78,78,
78,77,829,0,0,0,0,0,827,79,77,0,0,79,78,78,78,78,78,78,78,78,78,78,
78,77,829,853,853,853,853,853,827,79,77,853,853,27,28,28,28,28,28,28,28,28,28,34,
78,77,4546,2962,2963,2964,2965,4620,852,79,77,0,5565,827,0,0,0,829,0,0,827,0,0,79,
78,77,4571,2994,2995,2996,2997,0,4252,79,77,0,0,827,0,0,0,829,0,0,827,0,0,79,
78,77,4596,0,0,0,0,0,4059,79,77,0,0,852,853,853,853,854,517,517,852,853,853,79,
78,102,4621,0,0,0,0,0,4084,104,77,0,0,0,0,0,0,0,0,0,0,0,5564,54,
78,78,102,0,0,0,0,0,104,78,77,0,0,79,78,77,0,0,0,0,0,0,79,78,
78,30,28,0,28,28,28,28,28,28,29,0,0,27,28,29,0,0,0,0,0,0,27,34,
78,77,979,0,977,979,0,0,0,977,979,0,0,977,0,979,0,0,0,0,0,0,977,79,
78,77,1004,4082,1002,1004,0,4120,0,1002,1004,0,0,1002,1003,1004,0,0,0,0,0,0,1002,79,
78,77,1029,0,1027,1029,4604,4605,4606,1027,1029,0,0,1027,1028,1029,0,0,0,0,0,0,1027,79,
78,77,4058,0,0,7916,0,0,0,0,0,0,0,0,0,0,0,0,0,0,0,0,4059,79,
78,77,4083,0,0,0,0,0,0,0,0,0,0,0,0,0,0,0,0,0,0,0,4084,79,
78,77,4058,0,0,0,0,0,0,0,0,0,0,0,0,0,0,0,0,0,0,0,4059,79,
78,102,4083,0,0,0,0,0,0,0,0,0,0,0,0,0,0,0,0,0,0,0,4084,54,
78,78,102,5018,5019,5018,5019,54,78,78,102,0,0,104,78,78,102,4802,4803,4804,4802,4803,54,78,
78,78,78,78,78,78,78,78,78,78,78,78,78,78,78,78,78,78,78,78,78,78,78,78
</data>
 </layer>
 <layer id="14" name="Buildings2" width="24" height="20">
  <data encoding="csv">
0,0,0,0,0,0,0,0,0,0,0,0,0,0,0,0,0,0,0,0,0,0,0,0,
0,0,0,0,0,0,0,0,0,0,0,0,0,0,0,0,0,0,0,0,0,0,0,0,
0,0,0,0,0,0,0,0,0,0,0,0,0,0,0,0,0,0,0,0,0,0,0,0,
0,0,0,0,0,0,0,0,0,0,0,0,0,0,0,0,0,0,0,0,0,0,0,0,
0,0,0,0,0,0,0,0,0,0,0,0,0,0,0,0,0,0,0,0,0,0,0,0,
0,0,0,0,0,0,0,0,0,0,0,0,0,5064,5065,5066,5067,5068,0,0,0,0,0,0,
0,0,0,0,0,0,0,0,0,0,0,0,0,5089,5090,5091,5092,5093,0,0,0,0,0,0,
0,0,0,0,0,0,0,0,0,0,0,0,0,5114,5115,5116,5117,5118,0,0,0,0,0,0,
0,0,0,0,0,0,0,0,0,0,0,0,0,0,0,0,0,0,0,0,0,0,0,0,
0,0,0,0,0,0,0,0,0,0,0,0,0,0,0,0,0,0,0,0,0,0,0,0,
0,0,0,0,0,0,0,0,0,0,0,0,0,0,0,0,0,0,0,0,0,0,0,0,
0,0,0,0,0,0,0,0,0,0,0,0,0,0,0,0,0,0,0,0,0,0,0,0,
0,0,0,0,0,0,0,0,0,0,0,0,0,0,0,0,0,0,0,0,0,0,0,0,
0,0,0,0,0,0,0,0,0,0,0,0,0,0,0,0,0,0,0,0,0,0,0,0,
0,0,0,0,0,0,0,0,0,0,0,0,0,0,0,0,0,0,0,0,0,0,0,0,
0,0,0,0,0,0,0,0,0,0,0,0,0,0,0,0,0,0,0,0,0,0,0,0,
0,0,0,0,0,0,0,0,0,0,0,0,0,0,0,0,0,0,0,0,0,0,0,0,
0,0,0,0,0,0,0,0,0,0,0,0,0,0,0,0,0,0,0,0,0,0,0,0,
0,0,0,0,0,0,0,0,0,0,0,0,0,0,0,0,0,0,0,0,0,0,0,0,
0,0,0,0,0,0,0,0,0,0,0,0,0,0,0,0,0,0,0,0,0,0,0,0
</data>
 </layer>
 <layer id="5" name="Paths" width="24" height="20">
  <data encoding="csv">
0,0,0,0,0,0,0,0,0,0,0,0,0,0,0,0,0,0,0,0,0,0,0,0,
0,0,0,0,0,0,0,0,0,0,0,0,0,0,0,0,0,0,0,0,0,0,0,0,
0,0,0,0,0,0,0,0,0,0,0,0,0,0,0,0,0,0,0,0,0,0,0,0,
0,0,0,0,0,0,0,1334,0,0,0,0,0,0,0,0,0,0,0,0,0,0,0,0,
0,0,0,0,0,0,0,0,0,0,0,0,0,0,0,0,0,0,0,0,0,0,0,0,
0,0,0,0,0,0,0,0,0,0,0,0,0,0,0,0,0,0,0,0,0,0,0,0,
0,0,0,1334,0,0,0,1334,0,0,0,1334,0,0,0,0,0,0,0,0,0,0,0,0,
0,0,0,0,0,0,0,0,0,0,0,0,0,0,0,0,0,0,0,0,0,0,0,0,
0,0,0,1334,0,0,0,1334,0,0,0,0,0,0,0,0,0,0,0,0,0,0,0,0,
0,0,0,0,0,0,0,0,0,0,0,0,0,0,0,0,0,0,0,0,0,0,0,0,
0,0,0,0,0,0,0,0,0,0,0,0,0,0,0,0,0,0,1334,1334,0,0,0,0,
0,0,0,0,0,0,0,0,0,0,0,1334,0,0,0,0,0,0,1334,1334,0,0,0,0,
0,0,0,0,0,0,0,0,0,0,0,0,0,0,0,0,0,0,0,0,0,0,0,0,
0,0,0,0,0,0,0,0,0,0,0,0,0,0,0,0,0,0,0,0,0,0,0,0,
0,0,0,0,0,0,0,0,0,0,0,0,0,0,0,0,0,0,0,0,0,0,0,0,
0,0,1334,1334,0,0,0,0,1334,1334,0,0,0,0,1334,1334,0,0,0,0,0,1334,1334,0,
0,0,1334,1334,0,0,0,0,1334,1334,0,0,0,0,1334,1334,0,0,0,0,0,1334,1334,0,
0,0,0,0,0,0,0,0,0,0,0,0,0,0,0,0,0,0,0,0,0,0,0,0,
0,0,0,0,0,0,0,0,0,0,0,0,0,0,0,0,0,0,0,0,0,0,0,0,
0,0,0,0,0,0,0,0,0,0,0,0,0,0,0,0,0,0,0,0,0,0,0,0
</data>
 </layer>
 <layer id="3" name="Front" width="24" height="20">
  <data encoding="csv">
0,0,0,0,0,0,0,0,0,0,0,0,0,0,0,0,0,0,0,0,0,0,0,0,
0,0,0,0,0,0,0,0,0,0,0,0,0,0,0,0,0,0,0,0,0,0,0,0,
0,0,0,0,0,0,0,1587,0,0,0,0,0,0,0,0,0,0,0,0,0,0,0,0,
0,0,0,0,0,0,0,1619,0,0,0,0,0,0,0,0,0,0,0,0,0,0,0,0,
0,0,4521,0,0,0,0,4595,0,0,0,0,5533,0,0,0,0,0,0,0,0,0,0,0,
0,0,0,0,0,0,0,0,4227,0,0,0,0,0,0,0,0,0,0,0,0,0,0,0,
0,0,0,0,0,0,0,0,4034,0,0,0,0,0,0,0,0,0,0,0,0,0,0,0,
0,0,0,0,0,0,0,0,0,0,0,0,0,0,0,0,0,0,0,0,0,0,5532,0,
0,0,134,0,0,0,0,0,130,0,0,0,0,128,103,129,0,0,0,0,0,0,128,0,
0,0,0,0,103,103,103,103,0,0,0,0,0,0,0,0,0,0,0,0,0,0,0,0,
0,0,0,0,0,0,0,0,0,0,0,0,0,0,0,0,0,0,0,0,0,0,0,0,
0,0,0,4057,0,0,0,4095,0,0,0,0,0,0,0,0,0,0,0,0,0,0,0,0,
0,0,0,0,0,0,4208,4209,4210,0,0,0,0,0,0,0,0,0,0,0,0,0,0,0,
0,0,4033,0,0,7891,0,0,0,0,0,0,0,0,0,0,0,0,0,0,0,0,4034,0,
0,0,0,0,0,0,0,0,0,0,0,0,0,0,0,0,0,0,0,0,0,0,0,0,
0,0,4033,0,0,0,0,0,0,0,0,0,0,0,0,0,0,0,0,0,0,0,4034,0,
0,0,0,0,0,0,0,0,0,0,0,0,0,0,0,0,0,0,0,0,0,0,0,0,
0,0,129,4999,5000,4999,5000,128,103,103,129,0,0,128,103,103,129,4777,4778,4779,4777,4778,128,0,
0,0,0,103,103,103,103,0,0,0,0,103,103,0,0,0,0,103,103,103,103,103,0,0,
0,0,0,0,0,0,0,0,0,0,0,0,0,0,0,0,0,0,0,0,0,0,0,0
</data>
 </layer>
 <layer id="17" name="Front2" width="24" height="20">
  <data encoding="csv">
0,0,0,0,0,0,0,0,0,0,0,0,0,0,0,0,0,0,0,0,0,0,0,0,
0,0,0,0,0,0,0,0,0,0,0,0,0,0,0,0,0,0,0,0,0,0,0,0,
0,0,0,0,0,0,0,0,0,0,0,0,0,0,0,0,0,0,0,0,0,0,0,0,
0,0,0,0,0,0,0,0,0,0,0,0,0,0,0,0,0,0,0,0,0,0,0,0,
0,0,0,0,0,0,0,0,0,0,0,0,0,0,0,0,0,0,0,0,0,0,0,0,
0,0,0,0,0,0,0,0,0,0,0,0,0,0,0,0,0,0,0,0,0,0,0,0,
0,0,0,0,0,0,0,0,0,0,0,0,0,0,0,0,0,0,0,0,0,0,0,0,
0,0,0,0,0,0,0,0,0,0,0,0,0,0,0,0,0,0,0,0,0,0,0,0,
0,0,0,0,0,0,0,0,0,0,0,0,0,0,0,0,0,0,0,0,0,0,0,0,
0,0,0,0,0,0,0,0,0,0,0,0,0,0,0,0,0,0,0,0,0,0,0,0,
0,0,0,0,0,0,0,0,0,0,0,0,0,0,0,0,0,0,0,0,0,0,0,0,
0,0,0,0,0,0,3735,0,0,0,0,0,0,0,0,0,0,0,0,0,0,0,0,0,
0,0,0,0,0,0,0,0,0,0,0,0,0,0,0,0,0,0,0,0,0,0,0,0,
0,0,0,0,0,0,0,0,0,0,0,0,0,0,0,0,0,0,0,0,0,0,0,0,
0,0,0,0,0,0,0,0,0,0,0,0,0,0,0,0,0,0,0,0,0,0,0,0,
0,0,0,0,0,0,0,0,0,0,0,0,0,0,0,0,0,0,0,0,0,0,0,0,
0,0,0,0,0,0,0,0,0,0,0,0,0,0,0,0,0,0,0,0,0,0,0,0,
0,0,0,0,0,0,0,0,0,0,0,0,0,0,0,0,0,0,0,0,0,0,0,0,
0,0,0,0,0,0,0,0,0,0,0,0,0,0,0,0,0,0,0,0,0,0,0,0,
0,0,0,0,0,0,0,0,0,0,0,0,0,0,0,0,0,0,0,0,0,0,0,0
</data>
 </layer>
 <layer id="1" name="AlwaysFront" width="24" height="20">
  <data encoding="csv">
0,0,0,0,0,0,0,0,0,0,0,0,0,0,0,0,0,0,0,0,0,0,0,0,
0,0,0,0,0,0,0,0,0,0,0,0,0,0,0,0,0,0,0,0,0,0,0,0,
0,0,0,2866,2867,2868,2869,0,0,0,0,0,0,0,0,0,0,0,0,0,0,0,0,0,
0,0,0,2898,2899,2900,2901,0,0,0,0,4291,5501,0,0,0,0,0,0,0,0,0,0,0,
0,0,0,2930,2931,2932,2933,0,0,0,0,4316,0,0,0,0,0,0,0,0,0,0,0,0,
0,0,0,0,0,0,0,0,0,0,0,4341,0,0,0,0,0,0,0,0,0,0,0,0,
0,0,0,0,0,0,0,0,0,0,0,0,0,0,0,0,0,0,0,0,0,0,5500,0,
0,0,0,0,0,0,0,0,0,0,0,4291,0,0,0,0,0,0,0,0,0,0,0,0,
0,0,0,0,0,0,0,0,0,0,0,4316,0,0,0,0,0,0,0,0,0,0,0,0,
0,0,0,103,103,0,0,0,0,0,0,4341,0,0,0,0,0,0,0,0,0,0,0,0,
0,0,28,28,28,0,0,0,0,0,0,0,0,0,0,0,0,0,0,0,0,0,0,0,
0,0,0,0,0,0,4183,4184,4185,0,0,0,0,8264,8265,8266,0,0,0,0,0,0,0,0,
0,0,0,0,0,0,0,0,0,0,0,0,0,8264,8265,8266,0,0,0,0,0,0,0,0,
0,0,0,0,0,0,0,0,0,0,0,0,0,0,0,0,0,0,0,0,0,0,0,0,
0,0,0,0,0,0,0,0,0,0,0,0,0,0,0,0,0,0,0,0,0,0,0,0,
0,0,0,0,0,0,0,0,0,0,0,0,0,0,0,0,0,0,0,0,0,0,0,0,
0,0,0,0,0,0,0,0,0,0,0,0,0,0,0,0,0,0,0,0,0,0,0,0,
0,0,0,0,0,0,0,0,0,0,0,0,0,0,0,0,0,0,0,0,0,0,0,0,
0,0,0,0,0,0,0,0,0,0,0,0,0,0,0,0,0,0,0,0,0,0,0,0,
0,0,0,0,0,0,0,0,0,0,0,0,0,0,0,0,0,0,0,0,0,0,0,0
</data>
 </layer>
 <objectgroup id="10" name="Back"/>
 <objectgroup id="12" name="Back2"/>
 <objectgroup id="9" name="Buildings"/>
 <objectgroup id="8" name="Paths"/>
 <objectgroup id="7" name="Front"/>
 <objectgroup id="6" name="AlwaysFront"/>
</map>
