<?xml version="1.0" encoding="UTF-8"?>
<map version="1.4" tiledversion="1.4.3" orientation="orthogonal" renderorder="right-down" width="19" height="32" tilewidth="16" tileheight="16" infinite="0" nextlayerid="19" nextobjectid="342">
 <properties>
  <property name="AmbientLight" value="95 95 95"/>
  <property name="DayTiles" value="Front 4 1 225 Front 4 2 257 Front 7 1 225 Front 7 2 257 Front 10 1 225 Front 10 2 257 Front 4 22 1344 Front 10 22 1344 Front 15 22 1344 Front 21 22 1344"/>
  <property name="Doors" value="10 11 1 120 7 22 1 120"/>
  <property name="NPCWarp" value="17 23 Custom_BazaarWest.30.19 1 13 17 23 Custom_BazaarWest.42.19 1 13 17 23 Custom_BazaarWest.54.19 1 13"/>
  <property name="NightTiles" value="Front 4 1 1222 Front 4 2 1254 Front 7 1 1222 Front 7 2 1254 Front 10 1 1222 Front 10 2 1254 Front 4 22 1345 Front 10 22 1345 Front 15 22 1345 Front 21 22 1345"/>
  <property name="WallIDs" value="Wall"/>
  <property name="Warp" value="7 29 Custom_BazaarWest 30 20"/>
 </properties>
 <tileset firstgid="1" name="LiLaoliu's Tilesheets" tilewidth="16" tileheight="16" tilecount="1325" columns="25">
  <image source="LiLaoliu_RedPandaBazaar_Tilesheets.png" width="400" height="848"/>
 </tileset>
 <tileset firstgid="1326" name="paths" tilewidth="16" tileheight="16" tilecount="36" columns="4">
  <image source="paths.png" width="64" height="144"/>
 </tileset>
 <tileset firstgid="1362" name="townInterior" tilewidth="16" tileheight="16" tilecount="2176" columns="32">
  <image source="townInterior.png" width="512" height="1088"/>
 </tileset>
 <tileset firstgid="3538" name="Vanilla_RedPandaBazaar_Shadows" tilewidth="16" tileheight="16" tilecount="475" columns="19">
  <image source="Vanilla_RedPandaBazaar_Shadows.png" width="304" height="400"/>
 </tileset>
 <tileset firstgid="4013" name="Vanilla_RedPandaBazaar_walls_and_floors" tilewidth="16" tileheight="16" tilecount="688" columns="16">
  <image source="Vanilla_RedPandaBazaar_walls_and_floors.png" width="256" height="688"/>
 </tileset>
 <tileset firstgid="4701" name="LiLaoliu_RedPandaBazaar_Tilesheets5" tilewidth="16" tileheight="16" tilecount="1150" columns="25">
  <image source="LiLaoliu_RedPandaBazaar_Tilesheets5.png" width="400" height="736"/>
 </tileset>
 <tileset firstgid="5851" name="townInterior_2" tilewidth="16" tileheight="16" tilecount="1312" columns="32">
  <image source="townInterior_2.png" width="512" height="656"/>
  <tile id="1218">
   <animation>
    <frame tileid="1218" duration="125"/>
    <frame tileid="1218" duration="125"/>
    <frame tileid="1218" duration="125"/>
    <frame tileid="1218" duration="125"/>
    <frame tileid="1219" duration="125"/>
    <frame tileid="1219" duration="125"/>
    <frame tileid="1219" duration="125"/>
    <frame tileid="1219" duration="125"/>
    <frame tileid="1220" duration="125"/>
    <frame tileid="1220" duration="125"/>
    <frame tileid="1220" duration="125"/>
    <frame tileid="1220" duration="125"/>
    <frame tileid="1220" duration="125"/>
    <frame tileid="1220" duration="125"/>
    <frame tileid="1220" duration="125"/>
    <frame tileid="1220" duration="125"/>
    <frame tileid="1219" duration="125"/>
    <frame tileid="1219" duration="125"/>
    <frame tileid="1219" duration="125"/>
    <frame tileid="1219" duration="125"/>
    <frame tileid="1218" duration="125"/>
    <frame tileid="1218" duration="125"/>
    <frame tileid="1218" duration="125"/>
   </animation>
  </tile>
  <tile id="1250">
   <animation>
    <frame tileid="1250" duration="125"/>
    <frame tileid="1250" duration="125"/>
    <frame tileid="1250" duration="125"/>
    <frame tileid="1250" duration="125"/>
    <frame tileid="1251" duration="125"/>
    <frame tileid="1251" duration="125"/>
    <frame tileid="1251" duration="125"/>
    <frame tileid="1251" duration="125"/>
    <frame tileid="1252" duration="125"/>
    <frame tileid="1252" duration="125"/>
    <frame tileid="1252" duration="125"/>
    <frame tileid="1252" duration="125"/>
    <frame tileid="1252" duration="125"/>
    <frame tileid="1252" duration="125"/>
    <frame tileid="1252" duration="125"/>
    <frame tileid="1252" duration="125"/>
    <frame tileid="1251" duration="125"/>
    <frame tileid="1251" duration="125"/>
    <frame tileid="1251" duration="125"/>
    <frame tileid="1251" duration="125"/>
    <frame tileid="1250" duration="125"/>
    <frame tileid="1250" duration="125"/>
    <frame tileid="1250" duration="125"/>
    <frame tileid="1250" duration="125"/>
   </animation>
  </tile>
 </tileset>
 <tileset firstgid="7163" name="LiLaoliu_RedPandaBazaar_Tilesheets6" tilewidth="16" tileheight="16" tilecount="3458" columns="26">
  <image source="LiLaoliu_RedPandaBazaar_Tilesheets6.png" width="416" height="2128"/>
 </tileset>
 <tileset firstgid="10621" name="LiLaoliu_RedPandaBazaar_Tilesheets7" tilewidth="16" tileheight="16" tilecount="546" columns="26">
  <image source="LiLaoliu_RedPandaBazaar_Tilesheets7.png" width="416" height="336"/>
 </tileset>
 <layer id="2" name="Back" width="19" height="32">
  <data encoding="csv">
0,0,0,0,0,0,0,0,0,0,0,0,0,0,0,0,0,0,0,
0,0,0,722,723,722,723,722,0,0,0,0,0,0,0,0,0,0,0,
0,0,0,1163,1163,1163,1163,6925,6925,6925,6925,6925,6925,6925,6925,6925,6925,747,0,
0,0,0,1188,1188,1188,1188,6957,6957,6957,6957,6957,6957,6957,6957,6957,6957,722,0,
0,0,0,1213,1213,1213,1213,6989,6989,6989,6989,6989,6989,6989,6989,6989,6989,747,0,
0,0,0,722,723,722,723,4616,4615,4616,4615,4616,4615,4616,4615,4616,4615,722,0,
0,0,0,747,748,747,748,4632,4631,4632,4631,4632,4631,4632,4631,4632,4631,747,0,
0,0,0,722,723,722,723,4616,4615,4616,4615,4616,4615,4616,4615,4616,4615,722,0,
0,0,0,747,748,747,748,4632,4631,4632,4631,4632,4631,4632,4631,4632,4631,747,0,
0,0,0,722,723,722,723,4616,4615,4616,4615,4616,4615,4616,4615,4616,4615,722,0,
0,0,0,747,748,747,748,4632,4631,4632,4631,4632,4631,4632,4631,4632,4631,0,0,
0,1163,6801,520,520,6801,6801,4616,6801,6801,6801,6801,6801,6801,6801,6801,6801,0,0,
0,1188,6833,517,517,6833,6833,4632,6833,6833,6833,6833,6833,6833,6833,6833,6833,0,0,
0,1213,6865,517,517,6865,6865,517,6865,6865,6865,6865,6865,6865,6865,6865,6865,0,0,
0,669,4615,4616,4615,4616,4615,4616,4615,4616,4615,4616,4615,4616,4615,4616,4615,0,0,
0,694,4631,4632,4631,4632,4631,4632,4631,4632,4631,4632,4631,4632,4631,4632,4631,0,0,
0,748,4615,4616,4615,4616,4615,4616,4615,4616,4615,4616,4615,4616,4615,4616,4615,0,0,
0,723,6801,4632,4631,4632,4631,4632,6801,6801,4631,4632,4631,4632,4631,6801,6801,0,0,
0,748,6833,4616,4615,4616,4615,4616,6833,6833,4615,4616,4615,4616,4615,6833,6833,0,0,
0,723,6865,4632,4631,4632,4631,4632,6865,6865,668,669,668,669,668,6865,6865,0,0,
0,748,668,669,668,669,668,669,668,669,668,669,668,669,668,669,668,669,0,
0,723,693,694,693,694,693,694,693,694,693,694,693,694,693,694,693,694,0,
0,748,668,669,668,669,668,669,668,669,668,669,668,669,668,669,668,0,0,
0,0,693,694,693,694,693,694,693,694,693,694,693,694,693,694,693,0,0,
0,0,0,0,0,0,0,0,0,0,0,0,0,0,0,0,0,0,0,
0,0,0,0,0,0,0,0,0,0,0,0,0,0,0,0,0,0,0,
0,0,0,0,0,0,0,0,0,0,0,0,0,0,0,0,0,0,0,
0,0,0,0,0,0,0,0,0,0,0,0,0,0,0,0,0,0,0,
0,0,0,0,0,0,0,0,0,0,0,0,0,0,0,0,0,0,0,
0,0,0,0,0,0,0,0,0,0,0,0,0,0,0,0,0,0,0,
0,0,0,0,0,0,0,0,0,0,0,0,0,0,0,0,0,0,0,
0,0,0,0,0,0,0,0,0,0,0,0,0,0,0,0,0,0,0
</data>
 </layer>
 <layer id="11" name="Back2" width="19" height="32">
  <data encoding="csv">
0,0,0,0,0,0,0,0,0,0,0,0,0,0,0,0,0,0,0,
0,0,0,0,0,0,0,0,0,0,0,0,0,0,0,0,0,0,0,
0,0,0,0,0,0,0,0,0,0,0,0,0,0,0,0,0,0,0,
0,0,0,0,0,0,0,0,0,0,0,0,0,0,0,0,0,0,0,
0,0,0,0,0,0,0,0,0,0,0,0,0,0,0,0,0,0,0,
0,0,0,0,0,0,0,0,0,0,0,0,0,0,0,0,0,0,0,
0,0,0,0,0,0,0,0,0,0,0,0,0,0,0,0,0,0,0,
0,0,0,0,0,0,0,0,0,0,0,0,0,0,0,0,0,0,0,
0,0,0,0,0,0,0,0,0,0,0,0,0,0,0,0,0,0,0,
0,0,0,0,0,0,0,0,0,0,0,0,0,0,0,0,0,0,0,
0,0,0,0,0,0,0,0,0,0,0,0,0,0,0,0,0,0,0,
0,0,0,0,0,0,0,0,0,0,0,0,0,0,0,0,0,0,0,
0,0,0,0,0,0,0,855,0,0,0,0,0,0,0,0,0,0,0,
0,0,0,0,0,0,0,0,0,0,0,0,0,0,0,0,0,0,0,
0,0,0,0,0,0,0,0,0,0,0,0,0,0,0,0,0,0,0,
0,0,0,0,0,0,0,0,0,0,0,0,0,0,0,0,0,0,0,
0,0,0,0,0,0,0,0,0,0,0,0,0,0,0,0,0,0,0,
0,0,0,0,0,0,0,0,0,0,0,0,0,0,0,0,0,0,0,
0,0,0,0,0,0,0,0,0,0,0,0,0,0,0,0,0,0,0,
0,0,0,855,855,855,855,855,0,0,0,0,0,0,0,0,0,0,0,
0,0,0,0,0,0,0,0,0,0,0,0,0,0,0,0,0,0,0,
0,0,0,0,0,0,0,0,0,0,0,0,0,0,0,0,0,0,0,
0,0,0,0,0,0,0,0,0,0,0,0,0,6435,6436,6437,6438,0,0,
0,0,0,0,0,0,0,0,0,0,0,0,0,6467,6468,6469,6470,0,0,
0,0,0,0,0,0,0,0,0,0,0,0,0,6499,6500,6501,6502,0,0,
0,0,0,0,0,0,0,0,0,0,0,0,0,0,0,0,0,0,0,
0,0,0,0,0,0,0,0,0,0,0,0,0,0,0,0,0,0,0,
0,0,0,0,0,0,0,0,0,0,0,0,0,0,0,0,0,0,0,
0,0,0,0,0,0,0,0,0,0,0,0,0,0,0,0,0,0,0,
0,0,0,0,0,0,0,0,0,0,0,0,0,0,0,0,0,0,0,
0,0,0,0,0,0,0,0,0,0,0,0,0,0,0,0,0,0,0,
0,0,0,0,0,0,0,0,0,0,0,0,0,0,0,0,0,0,0
</data>
 </layer>
 <layer id="13" name="Back3" width="19" height="32">
  <data encoding="csv">
0,0,0,0,0,0,0,0,0,0,0,0,0,0,0,0,0,0,0,
0,0,0,0,0,0,0,0,0,0,0,0,0,0,0,0,0,0,0,
0,0,0,0,0,0,0,0,0,0,0,0,0,0,0,0,0,0,0,
0,0,0,0,0,0,0,0,0,0,0,0,0,0,0,0,0,0,0,
0,0,0,0,0,0,0,0,0,0,0,0,0,0,0,0,0,0,0,
0,0,0,0,0,0,0,3599,3599,3599,3599,3599,3599,3599,3599,3599,3622,0,0,
0,0,0,0,0,0,0,0,0,3544,0,0,0,0,0,0,3581,0,0,
0,0,0,0,0,0,0,0,0,3581,0,0,0,0,0,0,3581,0,0,
0,0,0,0,0,0,0,0,0,3581,0,0,0,0,0,0,3581,0,0,
0,0,0,0,0,0,0,0,0,3581,0,0,0,0,0,0,3581,0,0,
0,0,0,0,0,0,0,0,0,0,0,0,0,0,0,0,0,0,0,
0,0,0,0,0,0,0,3544,0,0,0,0,0,0,0,0,0,0,0,
0,0,0,0,0,0,0,3581,0,0,0,0,0,0,0,0,0,0,0,
0,0,0,0,0,0,0,3581,0,0,0,0,0,0,0,0,0,0,0,
0,0,3599,3599,3599,3599,3599,3599,3599,3599,3599,3599,3599,3599,3599,3599,3622,0,0,
0,0,0,0,0,0,0,0,0,0,0,0,0,0,0,0,3581,0,0,
0,0,0,0,0,0,0,0,0,0,0,0,0,0,0,0,3581,0,0,
0,0,0,0,0,0,0,3562,0,0,3600,3600,3600,3600,3600,0,0,0,0,
0,0,0,0,0,0,0,3581,0,0,3599,3599,3599,3599,3599,0,0,0,0,
0,0,0,0,0,0,0,3581,0,0,0,0,0,0,0,0,0,0,0,
0,0,3599,3599,3599,3599,3599,3599,3599,3599,3599,3599,3599,3599,3599,3599,3599,0,0,
0,0,0,0,0,0,0,0,0,0,0,0,0,0,0,0,0,0,0,
0,0,0,0,0,0,0,0,0,0,0,0,0,0,0,0,0,0,0,
0,0,0,0,0,0,0,0,0,0,0,0,0,0,0,0,0,0,0,
0,0,0,0,0,0,0,0,0,0,0,0,0,0,0,0,0,0,0,
0,0,0,0,0,0,0,0,0,0,0,0,0,0,0,0,0,0,0,
0,0,0,0,0,0,0,0,0,0,0,0,0,0,0,0,0,0,0,
0,0,0,0,0,0,0,0,0,0,0,0,0,0,0,0,0,0,0,
0,0,0,0,0,0,0,0,0,0,0,0,0,0,0,0,0,0,0,
0,0,0,0,0,0,0,0,0,0,0,0,0,0,0,0,0,0,0,
0,0,0,0,0,0,0,0,0,0,0,0,0,0,0,0,0,0,0,
0,0,0,0,0,0,0,0,0,0,0,0,0,0,0,0,0,0,0
</data>
 </layer>
 <layer id="15" name="Back4" width="19" height="32">
  <data encoding="csv">
0,0,0,0,0,0,0,0,0,0,0,0,0,0,0,0,0,0,0,
0,0,0,0,0,0,0,0,0,0,0,0,0,0,0,0,0,0,0,
0,0,0,0,0,0,0,0,0,0,0,0,0,0,0,0,0,0,0,
0,0,0,0,0,0,0,0,0,0,0,0,0,0,0,0,0,0,0,
0,0,0,0,0,0,0,0,0,0,0,0,0,0,0,0,0,0,0,
0,0,0,0,0,0,0,3736,3736,3736,3736,3736,3736,3736,3736,3736,3736,0,0,
0,0,0,0,0,0,0,0,0,3677,0,0,0,0,0,0,3696,0,0,
0,0,0,0,0,0,0,0,0,3696,0,0,0,0,0,0,3696,0,0,
0,0,0,0,0,0,0,0,0,3696,0,0,0,0,0,0,3696,0,0,
0,0,0,0,0,0,0,0,0,3696,0,0,0,0,0,0,3696,0,0,
0,0,0,0,0,0,0,0,0,0,0,0,0,0,0,0,0,0,0,
0,0,0,0,0,0,0,3677,0,0,0,0,0,0,0,0,0,0,0,
0,0,0,0,0,0,0,3696,0,0,0,0,0,0,0,0,0,0,0,
0,0,0,0,0,0,0,3696,0,0,0,0,0,0,0,0,0,0,0,
0,0,3736,3736,3736,3736,3736,3736,3736,3736,3736,3736,3736,3736,3736,3736,3736,0,0,
0,0,0,0,0,0,0,0,0,0,0,0,0,0,0,0,3696,0,0,
0,0,0,0,0,0,0,0,0,0,0,0,0,0,0,0,0,0,0,
0,0,0,0,0,0,0,3677,0,0,0,0,0,0,0,0,0,0,0,
0,0,0,0,0,0,0,3696,0,0,0,0,0,0,0,0,0,0,0,
0,0,0,0,0,0,0,3696,0,0,3730,3730,3730,3730,3730,0,0,0,0,
0,0,3736,3736,3736,3736,3736,3736,3736,3736,3736,3736,3736,3736,3736,3736,3736,0,0,
0,0,0,0,0,0,0,0,0,0,0,0,0,0,0,0,0,0,0,
0,0,0,0,0,0,0,0,0,0,0,0,0,0,0,0,0,0,0,
0,0,0,0,0,0,0,0,0,0,0,0,0,0,0,0,0,0,0,
0,0,0,0,0,0,0,0,0,0,0,0,0,0,0,0,0,0,0,
0,0,0,0,0,0,0,0,0,0,0,0,0,0,0,0,0,0,0,
0,0,0,0,0,0,0,0,0,0,0,0,0,0,0,0,0,0,0,
0,0,0,0,0,0,0,0,0,0,0,0,0,0,0,0,0,0,0,
0,0,0,0,0,0,0,0,0,0,0,0,0,0,0,0,0,0,0,
0,0,0,0,0,0,0,0,0,0,0,0,0,0,0,0,0,0,0,
0,0,0,0,0,0,0,0,0,0,0,0,0,0,0,0,0,0,0,
0,0,0,0,0,0,0,0,0,0,0,0,0,0,0,0,0,0,0
</data>
 </layer>
 <layer id="16" name="Back5" width="19" height="32">
  <data encoding="csv">
0,0,0,0,0,0,0,0,0,0,0,0,0,0,0,0,0,0,0,
0,0,0,0,0,0,0,0,0,0,0,0,0,0,0,0,0,0,0,
0,0,0,0,0,0,0,0,0,0,0,0,0,0,0,0,0,0,0,
0,0,0,0,0,0,0,0,0,0,0,0,0,0,0,0,0,0,0,
0,0,0,0,0,0,0,0,0,0,0,0,0,0,0,0,0,0,0,
0,0,0,0,0,0,0,0,0,0,0,0,0,0,0,0,3715,0,0,
0,0,0,0,0,0,0,0,0,0,0,0,0,0,0,0,0,0,0,
0,0,0,0,0,0,0,0,0,0,0,0,0,0,0,0,0,0,0,
0,0,0,0,0,0,0,0,0,0,0,0,0,0,0,0,0,0,0,
0,0,0,0,0,0,0,0,0,0,0,0,0,0,0,0,0,0,0,
0,0,0,0,0,0,0,0,0,0,0,0,0,0,0,0,0,0,0,
0,0,0,0,0,0,0,0,0,0,0,0,0,0,0,0,0,0,0,
0,0,0,0,0,0,0,0,0,0,0,0,0,0,0,0,0,0,0,
0,0,0,0,0,0,0,0,0,0,0,0,0,0,0,0,0,0,0,
0,0,0,0,0,0,0,0,0,0,0,0,0,0,0,0,3715,0,0,
0,0,0,0,0,0,0,0,0,0,0,0,0,0,0,0,0,0,0,
0,0,0,0,0,0,0,0,0,0,0,0,0,0,0,0,0,0,0,
0,0,0,0,0,0,0,0,0,0,0,0,0,0,0,0,0,0,0,
0,0,0,0,0,0,0,0,0,0,0,0,0,0,0,0,0,0,0,
0,0,0,0,0,0,0,0,0,0,0,0,0,0,0,0,0,0,0,
0,0,0,0,0,0,0,0,0,0,0,0,0,0,0,0,0,0,0,
0,0,0,0,0,0,0,0,0,0,0,0,0,0,0,0,0,0,0,
0,0,0,0,0,0,10997,10998,0,0,0,0,0,0,0,0,0,0,0,
0,0,0,0,0,0,0,0,0,0,0,0,0,0,0,0,0,0,0,
0,0,0,0,0,0,0,0,0,0,0,0,0,0,0,0,0,0,0,
0,0,0,0,0,0,0,0,0,0,0,0,0,0,0,0,0,0,0,
0,0,0,0,0,0,0,0,0,0,0,0,0,0,0,0,0,0,0,
0,0,0,0,0,0,0,0,0,0,0,0,0,0,0,0,0,0,0,
0,0,0,0,0,0,0,0,0,0,0,0,0,0,0,0,0,0,0,
0,0,0,0,0,0,0,0,0,0,0,0,0,0,0,0,0,0,0,
0,0,0,0,0,0,0,0,0,0,0,0,0,0,0,0,0,0,0,
0,0,0,0,0,0,0,0,0,0,0,0,0,0,0,0,0,0,0
</data>
 </layer>
 <layer id="4" name="Buildings" width="19" height="32">
  <data encoding="csv">
78,78,78,78,78,78,78,78,78,78,78,78,78,78,78,78,78,78,78,
78,78,78,78,78,78,30,31,31,31,31,31,31,31,31,31,31,34,78,
78,78,78,78,78,78,77,0,0,0,0,0,0,0,0,0,0,79,78,
78,78,78,78,78,78,77,0,0,0,0,0,0,0,0,0,0,79,78,
78,78,78,78,78,78,77,853,853,853,853,853,853,853,853,853,853,79,78,
78,78,78,78,78,78,77,0,0,0,0,0,0,0,0,0,0,79,78,
78,78,78,78,78,78,77,0,0,0,0,0,0,0,0,0,0,79,78,
78,78,78,78,78,78,77,0,0,0,79,77,0,0,0,0,0,79,78,
78,78,78,78,78,78,77,0,0,0,79,77,0,0,0,0,0,79,78,
78,78,78,78,78,78,77,0,0,0,104,102,0,0,0,0,0,54,78,
78,55,28,28,28,28,29,0,27,28,28,28,28,28,28,28,28,59,78,
78,77,829,0,0,827,829,0,827,0,0,0,0,0,0,0,0,79,78,
78,77,829,0,0,827,829,0,827,0,0,0,0,0,0,0,0,79,78,
78,77,854,517,517,852,854,0,852,853,853,853,853,853,853,853,853,79,78,
78,77,5705,0,0,0,0,0,0,0,0,0,0,0,0,0,0,79,78,
78,52,5730,0,0,0,0,0,0,0,0,0,0,0,0,0,0,54,78,
78,55,29,0,0,0,0,0,27,28,0,0,0,0,0,28,28,59,78,
78,77,829,0,0,0,0,0,827,829,0,0,0,0,0,827,0,79,78,
78,77,829,0,0,0,0,0,827,829,0,0,0,0,0,827,0,79,78,
78,77,854,2248,0,0,0,0,852,854,4847,4847,4847,4847,4847,852,853,79,78,
78,77,2249,2250,0,0,0,0,0,0,0,2248,0,2248,0,2248,2017,79,78,
78,77,2248,0,0,2248,0,0,2248,0,0,0,0,0,0,0,2017,79,78,
78,52,10452,2248,2249,2250,10997,10998,2249,2250,2248,10452,10451,0,0,2248,2049,54,78,
78,78,78,78,78,78,78,78,78,78,78,78,78,52,0,54,78,78,78,
78,78,78,78,78,78,78,78,78,78,78,78,78,78,78,78,78,78,78,
78,78,78,78,78,78,78,78,78,78,78,78,78,78,78,78,78,78,78,
78,78,78,78,78,78,78,78,78,78,78,78,78,78,78,78,78,78,78,
78,78,78,78,78,78,78,78,78,78,78,78,78,78,78,78,78,78,78,
78,78,78,78,78,78,78,78,78,78,78,78,78,78,78,78,78,78,78,
78,78,78,78,78,78,78,78,78,78,78,78,78,78,78,78,78,78,78,
78,78,78,78,78,78,78,78,78,78,78,78,78,78,78,78,78,78,78,
78,78,78,78,78,78,78,78,78,78,78,78,78,78,78,78,78,78,78
</data>
 </layer>
 <layer id="14" name="Buildings2" width="19" height="32">
  <data encoding="csv">
0,0,0,0,0,0,0,0,0,0,0,0,0,0,0,0,0,0,0,
0,0,0,0,0,0,0,0,0,0,0,0,0,0,0,0,0,0,0,
0,0,0,0,0,0,0,0,0,0,0,0,0,0,0,0,0,0,0,
0,0,0,0,0,0,0,0,0,0,0,0,0,0,0,0,0,0,0,
0,0,0,0,0,0,0,0,0,0,0,0,0,0,0,0,0,0,0,
0,0,0,0,0,0,0,0,0,0,0,0,0,0,0,0,0,0,0,
0,0,0,0,0,0,0,0,0,0,0,0,0,0,0,0,0,0,0,
0,0,0,0,0,0,0,0,0,0,0,0,0,0,0,0,0,0,0,
0,0,0,0,0,0,0,0,0,0,0,0,0,0,0,0,0,0,0,
0,0,0,0,0,0,0,0,0,0,0,0,0,0,0,0,0,0,0,
0,0,0,0,0,0,0,0,0,0,0,0,0,0,0,0,0,0,0,
0,0,0,0,0,0,0,0,0,0,0,0,0,0,0,0,0,0,0,
0,0,0,0,0,0,0,0,0,0,0,0,0,0,0,0,0,0,0,
0,0,0,0,0,0,0,0,0,0,0,0,0,0,0,0,0,0,0,
0,0,0,0,0,0,0,0,0,0,0,0,0,0,0,0,0,0,0,
0,0,0,0,0,0,0,0,0,0,0,0,0,0,0,0,0,0,0,
0,0,0,0,0,0,0,0,0,0,0,0,0,0,0,0,0,0,0,
0,0,0,0,0,0,0,0,0,0,0,0,0,0,0,0,0,0,0,
0,0,0,0,0,0,0,0,0,0,0,0,0,0,0,0,0,0,0,
0,0,0,0,0,0,0,0,0,0,0,0,0,0,0,0,0,0,0,
0,0,0,0,0,0,0,0,0,0,0,0,0,0,0,0,0,0,0,
0,0,0,0,0,0,0,0,0,0,0,0,0,0,0,0,0,0,0,
0,0,0,0,0,0,0,0,0,0,0,0,0,0,0,0,0,0,0,
0,0,0,0,0,0,0,0,0,0,0,0,0,0,0,0,0,0,0,
0,0,0,0,0,0,0,0,0,0,0,0,0,0,0,0,0,0,0,
0,0,0,0,0,0,0,0,0,0,0,0,0,0,0,0,0,0,0,
0,0,0,0,0,0,0,0,0,0,0,0,0,0,0,0,0,0,0,
0,0,0,0,0,0,0,0,0,0,0,0,0,0,0,0,0,0,0,
0,0,0,0,0,0,0,0,0,0,0,0,0,0,0,0,0,0,0,
0,0,0,0,0,0,0,0,0,0,0,0,0,0,0,0,0,0,0,
0,0,0,0,0,0,0,0,0,0,0,0,0,0,0,0,0,0,0,
0,0,0,0,0,0,0,0,0,0,0,0,0,0,0,0,0,0,0
</data>
 </layer>
 <layer id="5" name="Paths" width="19" height="32">
  <data encoding="csv">
0,0,0,0,0,0,0,0,0,0,0,0,0,0,0,0,0,0,0,
0,0,0,0,0,0,0,0,0,0,0,0,0,0,0,0,0,0,0,
0,0,0,0,0,0,0,0,0,0,0,0,0,0,0,0,0,0,0,
0,0,0,0,0,0,0,0,0,0,0,0,0,0,0,0,0,0,0,
0,0,0,0,0,0,0,0,0,0,0,0,0,0,0,0,0,0,0,
0,0,0,0,0,0,0,0,0,0,0,0,0,0,0,0,0,0,0,
0,0,0,0,0,0,0,0,0,0,0,0,0,0,0,0,0,0,0,
0,0,0,0,0,0,0,0,0,0,0,0,0,0,0,0,0,0,0,
0,0,0,0,0,0,0,0,0,0,0,0,0,0,0,0,0,0,0,
0,0,0,0,0,0,0,0,0,0,0,0,0,0,0,0,0,0,0,
0,0,0,0,0,0,0,0,0,0,0,0,0,0,0,0,0,0,0,
0,0,0,0,0,0,0,0,0,0,0,0,0,0,0,0,0,0,0,
0,0,0,0,0,0,0,0,0,0,0,0,0,0,0,0,0,0,0,
0,0,0,0,0,0,0,0,0,0,0,0,0,0,0,0,0,0,0,
0,0,0,0,0,0,0,0,0,0,0,0,0,0,0,0,0,0,0,
0,0,0,0,0,0,0,0,0,0,0,0,0,0,0,0,0,0,0,
0,0,0,0,0,0,0,0,0,0,0,0,0,0,0,0,0,0,0,
0,0,0,0,0,0,0,0,0,0,0,0,0,0,0,0,0,0,0,
0,0,0,0,0,0,0,0,0,0,0,0,0,0,0,0,0,0,0,
0,0,0,0,0,0,0,0,0,0,0,0,0,0,0,0,0,0,0,
0,0,0,0,0,0,0,0,0,0,0,0,0,0,0,0,0,0,0,
0,0,0,0,0,0,0,0,0,0,0,0,0,0,0,0,0,0,0,
0,0,0,0,0,0,0,0,0,0,0,0,0,0,0,0,0,0,0,
0,0,0,0,0,0,0,0,0,0,0,0,0,0,0,0,0,0,0,
0,0,0,0,0,0,0,0,0,0,0,0,0,0,0,0,0,0,0,
0,0,0,0,0,0,0,0,0,0,0,0,0,0,0,0,0,0,0,
0,0,0,0,0,0,0,0,0,0,0,0,0,0,0,0,0,0,0,
0,0,0,0,0,0,0,0,0,0,0,0,0,0,0,0,0,0,0,
0,0,0,0,0,0,0,0,0,0,0,0,0,0,0,0,0,0,0,
0,0,0,0,0,0,0,0,0,0,0,0,0,0,0,0,0,0,0,
0,0,0,0,0,0,0,0,0,0,0,0,0,0,0,0,0,0,0,
0,0,0,0,0,0,0,0,0,0,0,0,0,0,0,0,0,0,0
</data>
 </layer>
 <layer id="3" name="Front" width="19" height="32">
  <data encoding="csv">
0,0,0,0,0,0,0,0,0,0,0,0,0,0,0,0,0,0,0,
0,0,0,0,0,0,0,0,0,0,0,0,0,0,0,0,0,0,0,
0,0,0,0,0,0,0,0,0,0,0,0,0,0,0,0,0,0,0,
0,0,0,0,0,0,0,0,0,0,0,0,0,0,0,0,0,0,0,
0,0,0,0,0,0,0,0,0,0,0,0,0,0,0,0,0,0,0,
0,0,0,0,0,0,0,0,0,0,0,0,0,0,0,0,0,0,0,
0,0,0,0,0,0,0,0,0,0,130,134,0,0,0,0,0,0,0,
0,0,0,0,0,0,0,0,0,0,0,0,0,0,0,0,0,0,0,
0,0,0,0,0,0,0,0,0,0,0,0,0,0,0,0,0,0,0,
0,0,0,0,0,0,0,0,130,131,0,0,131,131,131,131,131,0,0,
0,0,0,0,0,0,0,0,0,0,0,0,0,0,0,0,0,0,0,
0,0,0,0,0,0,0,0,0,0,0,0,0,0,0,0,0,0,0,
0,0,0,0,0,0,0,0,0,0,0,0,0,0,0,0,0,0,0,
0,0,5680,0,0,0,0,0,0,0,0,0,0,0,0,0,0,0,0,
0,0,0,0,0,0,0,0,0,0,0,0,0,0,0,0,0,0,0,
0,0,134,0,0,0,0,0,130,131,0,0,0,0,0,131,131,0,0,
0,0,0,0,0,0,0,0,0,0,0,0,0,0,0,0,0,0,0,
0,0,0,0,0,0,0,0,0,0,0,0,0,0,0,0,0,0,0,
0,0,0,0,0,0,0,0,0,0,4822,4822,4822,4822,4822,0,0,0,0,
0,0,2217,2218,0,0,0,0,0,0,0,0,0,0,0,0,1985,0,0,
0,0,0,0,0,0,0,0,0,0,0,0,0,0,0,0,0,0,0,
0,0,10426,0,2217,2218,10971,10972,2217,2218,0,10426,10425,0,0,0,0,0,0,
0,0,53,53,53,53,53,53,53,53,53,53,53,134,0,130,53,0,0,
0,0,0,0,0,0,0,0,0,0,0,0,0,0,53,0,0,0,0,
0,0,0,0,0,0,0,0,0,0,0,0,0,0,0,0,0,0,0,
0,0,0,0,0,0,0,0,0,0,0,0,0,0,0,0,0,0,0,
0,0,0,0,0,0,0,0,0,0,0,0,0,0,0,0,0,0,0,
0,0,0,0,0,0,0,0,0,0,0,0,0,0,0,0,0,0,0,
0,0,0,0,0,0,0,0,0,0,0,0,0,0,0,0,0,0,0,
0,0,0,0,0,0,0,0,0,0,0,0,0,0,0,0,0,0,0,
0,0,0,0,0,0,0,0,0,0,0,0,0,0,0,0,0,0,0,
0,0,0,0,0,0,0,0,0,0,0,0,0,0,0,0,0,0,0
</data>
 </layer>
 <layer id="17" name="Front2" width="19" height="32">
  <data encoding="csv">
0,0,0,0,0,0,0,0,0,0,0,0,0,0,0,0,0,0,0,
0,0,0,0,0,0,0,0,0,0,0,0,0,0,0,0,0,0,0,
0,0,0,0,0,0,0,0,0,0,0,0,0,0,0,0,0,0,0,
0,0,0,0,0,0,0,0,0,0,0,0,0,0,0,0,0,0,0,
0,0,0,0,0,0,0,0,0,0,0,0,0,0,0,0,0,0,0,
0,0,0,0,0,0,0,0,0,0,0,0,0,0,0,0,0,0,0,
0,0,0,0,0,0,0,0,0,0,0,0,0,0,0,0,0,0,0,
0,0,0,0,0,0,0,0,0,0,0,0,0,0,0,0,0,0,0,
0,0,0,0,0,0,0,0,0,0,0,0,0,0,0,0,0,0,0,
0,0,0,0,0,0,0,0,0,0,0,0,0,0,0,0,0,0,0,
0,0,0,0,0,0,0,0,0,0,0,0,0,0,0,0,0,0,0,
0,0,0,0,0,0,0,0,0,0,0,0,0,0,0,0,0,0,0,
0,0,0,0,0,0,0,0,0,0,0,0,0,0,0,0,0,0,0,
0,0,0,0,0,0,0,0,0,0,0,0,0,0,0,0,0,0,0,
0,0,0,0,0,0,0,0,0,0,0,0,0,0,0,0,0,0,0,
0,0,0,0,0,0,0,0,0,0,0,0,0,0,0,0,0,0,0,
0,0,0,0,0,0,0,0,0,0,0,0,0,0,0,0,0,0,0,
0,0,0,0,0,0,0,0,0,0,0,0,0,0,0,0,0,0,0,
0,0,0,0,0,0,0,0,0,0,0,0,0,0,0,0,0,0,0,
0,0,0,0,0,0,0,0,0,0,0,0,0,0,0,0,0,0,0,
0,0,0,0,0,0,0,0,0,0,0,0,0,0,0,0,0,0,0,
0,0,0,0,0,0,0,0,0,0,0,0,0,0,0,0,0,0,0,
0,0,0,0,0,0,0,0,0,0,0,0,0,0,0,0,0,0,0,
0,0,0,0,0,0,0,0,0,0,0,0,0,0,0,0,0,0,0,
0,0,0,0,0,0,0,0,0,0,0,0,0,0,0,0,0,0,0,
0,0,0,0,0,0,0,0,0,0,0,0,0,0,0,0,0,0,0,
0,0,0,0,0,0,0,0,0,0,0,0,0,0,0,0,0,0,0,
0,0,0,0,0,0,0,0,0,0,0,0,0,0,0,0,0,0,0,
0,0,0,0,0,0,0,0,0,0,0,0,0,0,0,0,0,0,0,
0,0,0,0,0,0,0,0,0,0,0,0,0,0,0,0,0,0,0,
0,0,0,0,0,0,0,0,0,0,0,0,0,0,0,0,0,0,0,
0,0,0,0,0,0,0,0,0,0,0,0,0,0,0,0,0,0,0
</data>
 </layer>
 <layer id="1" name="AlwaysFront" width="19" height="32">
  <data encoding="csv">
0,0,0,0,0,0,0,0,0,0,0,0,0,0,0,0,0,0,0,
0,0,0,0,0,0,0,0,0,0,0,0,0,0,0,0,0,0,0,
0,0,0,0,0,0,0,0,0,0,0,0,0,0,0,0,0,0,0,
0,0,0,0,0,0,0,0,0,0,0,0,0,0,0,0,0,0,0,
0,0,0,0,0,0,0,0,0,0,0,0,0,0,0,0,0,0,0,
0,0,0,0,0,0,0,0,0,0,0,0,0,0,0,0,0,0,0,
0,0,0,0,0,0,0,0,0,0,0,0,0,0,0,0,0,0,0,
0,0,0,0,0,0,0,0,0,0,0,0,0,0,0,0,0,0,0,
0,0,0,0,0,0,0,0,0,0,0,0,0,0,0,0,0,0,0,
0,0,0,0,0,0,0,0,0,0,0,0,0,0,0,0,0,0,0,
0,0,0,0,0,0,0,0,0,0,0,0,0,0,0,0,0,0,0,
0,0,0,0,0,0,0,0,0,0,0,0,0,0,0,0,0,0,0,
0,0,0,0,0,0,0,0,0,0,0,0,0,0,0,0,0,0,0,
0,0,0,0,0,0,0,0,0,0,0,0,0,0,0,0,0,0,0,
0,0,0,0,0,0,0,0,0,0,0,0,0,0,0,0,0,0,0,
0,0,0,0,0,0,0,0,0,132,132,132,132,132,132,132,0,0,0,
0,0,0,0,0,0,0,0,0,28,28,28,28,28,28,28,0,0,0,
0,0,0,0,0,0,0,0,0,0,0,0,0,0,0,0,0,0,0,
0,0,0,0,0,0,0,0,0,0,0,0,0,0,0,0,0,0,0,
0,0,0,0,0,0,0,0,0,0,0,0,0,0,0,0,0,0,0,
0,0,10400,0,0,0,10945,10946,0,0,0,10400,10399,0,0,0,0,0,0,
0,0,0,0,0,0,0,0,0,0,0,0,0,0,0,0,0,0,0,
0,0,0,0,0,0,0,0,0,0,0,0,0,0,0,0,0,0,0,
0,0,0,0,0,0,0,0,0,0,0,0,0,0,0,0,0,0,0,
0,0,0,0,0,0,0,0,0,0,0,0,0,0,0,0,0,0,0,
0,0,0,0,0,0,0,0,0,0,0,0,0,0,0,0,0,0,0,
0,0,0,0,0,0,0,0,0,0,0,0,0,0,0,0,0,0,0,
0,0,0,0,0,0,0,0,0,0,0,0,0,0,0,0,0,0,0,
0,0,0,0,0,0,0,0,0,0,0,0,0,0,0,0,0,0,0,
0,0,0,0,0,0,0,0,0,0,0,0,0,0,0,0,0,0,0,
0,0,0,0,0,0,0,0,0,0,0,0,0,0,0,0,0,0,0,
0,0,0,0,0,0,0,0,0,0,0,0,0,0,0,0,0,0,0
</data>
 </layer>
 <layer id="18" name="AlwaysFront2" width="19" height="32">
  <data encoding="csv">
0,0,0,0,0,0,0,0,0,0,0,0,0,0,0,0,0,0,0,
0,0,0,0,0,0,0,0,0,0,0,0,0,0,0,0,0,0,0,
0,0,0,0,0,0,0,0,0,0,0,0,0,0,0,0,0,0,0,
0,0,0,0,0,0,0,0,0,0,0,0,0,0,0,0,0,0,0,
0,0,0,0,0,0,0,0,0,0,0,0,0,0,0,0,0,0,0,
0,0,0,0,0,0,0,0,0,0,0,0,0,0,0,0,0,0,0,
0,0,0,0,0,0,0,0,0,0,0,0,0,0,0,0,0,0,0,
0,0,0,0,0,0,0,0,0,0,0,0,0,0,0,0,0,0,0,
0,0,0,0,0,0,0,0,0,0,0,0,0,0,0,0,0,0,0,
0,0,0,0,0,0,0,0,0,0,0,0,0,0,0,0,0,0,0,
0,0,0,0,0,0,0,0,0,0,0,0,0,0,0,0,0,0,0,
0,0,0,0,0,0,0,0,0,0,0,0,0,0,0,0,0,0,0,
0,0,0,0,0,0,0,0,0,0,0,0,0,0,0,0,0,0,0,
0,0,0,0,0,0,0,0,0,0,0,0,0,0,0,0,0,0,0,
0,0,0,0,0,0,0,0,0,0,0,0,0,0,0,0,0,0,0,
0,0,0,0,0,0,0,0,0,0,0,0,0,0,0,0,0,0,0,
0,0,0,0,0,0,0,0,0,0,0,0,0,0,0,0,0,0,0,
0,0,0,0,0,0,0,0,0,0,0,0,0,0,0,0,0,0,0,
0,0,0,0,0,0,0,0,0,0,0,0,0,0,0,0,0,0,0,
0,0,0,0,0,0,0,0,0,0,0,0,0,0,0,0,0,0,0,
0,0,0,0,0,0,0,0,0,0,0,0,0,0,0,0,0,0,0,
0,0,0,0,0,0,0,0,0,0,0,0,0,0,0,0,0,0,0,
0,0,0,0,0,0,0,0,0,0,0,0,0,0,0,0,0,0,0,
0,0,0,0,0,0,0,0,0,0,0,0,0,0,0,0,0,0,0,
0,0,0,0,0,0,0,0,0,0,0,0,0,0,0,0,0,0,0,
0,0,0,0,0,0,0,0,0,0,0,0,0,0,0,0,0,0,0,
0,0,0,0,0,0,0,0,0,0,0,0,0,0,0,0,0,0,0,
0,0,0,0,0,0,0,0,0,0,0,0,0,0,0,0,0,0,0,
0,0,0,0,0,0,0,0,0,0,0,0,0,0,0,0,0,0,0,
0,0,0,0,0,0,0,0,0,0,0,0,0,0,0,0,0,0,0,
0,0,0,0,0,0,0,0,0,0,0,0,0,0,0,0,0,0,0,
0,0,0,0,0,0,0,0,0,0,0,0,0,0,0,0,0,0,0
</data>
 </layer>
 <objectgroup id="10" name="Back"/>
 <objectgroup id="12" name="Back2"/>
 <objectgroup id="9" name="Buildings"/>
 <objectgroup id="8" name="Paths"/>
 <objectgroup id="7" name="Front"/>
 <objectgroup id="6" name="AlwaysFront"/>
</map>
